usr/bin/LUTs/DJI-DLOG-V1-LOG-to-709.cube
# Copyright: (C) Copyright 2010-2018 by IWLTBAP SAS
# Cannot be resold, shared or otherwise redistributed
# Website: https://luts.iwltbap.com
TITLE "DJI D-Log V1 (Utility LOG to Rec.709)"
LUT_3D_SIZE 33
0.000000 0.000000 0.000000
0.010437 0.000000 0.000000
0.024902 0.000000 0.000000
0.045624 0.000000 0.000000
0.070648 0.000000 0.000000
0.094879 0.000000 0.000000
0.122040 0.000000 0.000000
0.153748 0.000000 0.000000
0.187897 0.000000 0.000000
0.223999 0.000000 0.000000
0.262054 0.000000 0.000000
0.302338 0.000000 0.000000
0.345306 0.000000 0.000000
0.391022 0.000000 0.000000
0.438995 0.000000 0.000000
0.488647 0.000000 0.000000
0.539001 0.000000 0.000000
0.589325 0.000000 0.000000
0.638733 0.000000 0.000000
0.687378 0.000000 0.000000
0.734924 0.000000 0.000000
0.779114 0.000000 0.000000
0.817444 0.000000 0.000000
0.852478 0.000000 0.000000
0.885651 0.000000 0.000000
0.911713 0.000000 0.000000
0.928894 0.000000 0.000000
0.941589 0.000000 0.000000
0.953430 0.000000 0.000000
0.965210 0.000000 0.000000
0.976837 0.000000 0.000000
0.988434 0.000000 0.000000
1.000000 0.000000 0.000000
0.000000 0.010376 0.000000
0.010315 0.010315 0.000000
0.022705 0.010315 0.000000
0.042480 0.010315 0.000000
0.067078 0.010315 0.000000
0.090759 0.010315 0.000000
0.117096 0.010315 0.000000
0.147827 0.010315 0.000000
0.181152 0.010315 0.000000
0.216705 0.010315 0.000000
0.254303 0.010315 0.000000
0.294220 0.010315 0.000000
0.336700 0.010315 0.000000
0.381866 0.010315 0.000000
0.429108 0.010315 0.000000
0.477783 0.010315 0.000000
0.527313 0.010315 0.000000
0.577515 0.010315 0.000000
0.627625 0.010315 0.000000
0.677124 0.010315 0.000000
0.725403 0.010315 0.000000
0.771057 0.010315 0.000000
0.811157 0.010315 0.000000
0.846558 0.010315 0.000000
0.881226 0.010315 0.000000
0.910187 0.010315 0.000000
0.928680 0.010315 0.000000
0.941589 0.010315 0.000000
0.953430 0.010315 0.000000
0.965210 0.010315 0.000000
0.976837 0.010315 0.000000
0.988434 0.010315 0.000000
1.000000 0.010315 0.000000
0.000000 0.022369 0.000000
0.010315 0.021576 0.000000
0.021088 0.021088 0.000000
0.039581 0.021057 0.000000
0.063538 0.021027 0.000000
0.086639 0.021027 0.000000
0.112244 0.020966 0.000000
0.142181 0.020874 0.000000
0.175110 0.020782 0.000000
0.210052 0.020721 0.000000
0.247131 0.020721 0.000000
0.286407 0.020691 0.000000
0.328186 0.020691 0.000000
0.372711 0.020691 0.000000
0.419739 0.020691 0.000000
0.468475 0.020691 0.000000
0.518494 0.020691 0.000000
0.569244 0.020691 0.000000
0.619965 0.020691 0.000000
0.670105 0.020691 0.000000
0.719055 0.020691 0.000000
0.765625 0.020691 0.000000
0.807098 0.020691 0.000000
0.843353 0.020691 0.000000
0.878418 0.020691 0.000000
0.908936 0.020691 0.000000
0.928497 0.020691 0.000000
0.941589 0.020691 0.000000
0.953430 0.020721 0.000000
0.965210 0.020721 0.000000
0.976837 0.020691 0.000000
0.988434 0.020691 0.000000
1.000000 0.020691 0.000000
0.000000 0.040527 0.000000
0.010315 0.039124 0.000000
0.021027 0.038025 0.000000
0.037323 0.037323 0.000000
0.060699 0.037201 0.000000
0.083344 0.037018 0.000000
0.108368 0.036621 0.000000
0.137543 0.035461 0.000000
0.169861 0.033844 0.000000
0.204224 0.032166 0.000000
0.240784 0.031494 0.000000
0.279724 0.031342 0.000000
0.321411 0.031250 0.000000
0.365845 0.031219 0.000000
0.412903 0.031189 0.000000
0.462128 0.031189 0.000000
0.512909 0.031189 0.000000
0.564331 0.031189 0.000000
0.615631 0.031189 0.000000
0.666290 0.031189 0.000000
0.715759 0.031189 0.000000
0.763062 0.031189 0.000000
0.805573 0.031189 0.000000
0.842621 0.031189 0.000000
0.877716 0.031189 0.000000
0.908112 0.031189 0.000000
0.928345 0.031189 0.000000
0.941589 0.031189 0.000000
0.953430 0.031219 0.000000
0.965210 0.031219 0.000000
0.976837 0.031189 0.000000
0.988434 0.031219 0.000000
1.000000 0.031189 0.000000
0.000000 0.063721 0.000000
0.010315 0.061951 0.000000
0.020966 0.060394 0.000000
0.036835 0.059235 0.000000
0.058533 0.058533 0.000000
0.081055 0.058105 0.000000
0.105530 0.057098 0.000000
0.134064 0.054810 0.000000
0.165924 0.051727 0.000000
0.200073 0.048218 0.000000
0.236359 0.045380 0.000000
0.275208 0.043640 0.000000
0.317108 0.042725 0.000000
0.362183 0.042328 0.000000
0.409912 0.042114 0.000000
0.459686 0.041992 0.000000
0.510986 0.041962 0.000000
0.562988 0.041931 0.000000
0.614746 0.041901 0.000000
0.665894 0.041901 0.000000
0.715881 0.041901 0.000000
0.763733 0.041901 0.000000
0.806824 0.041901 0.000000
0.844421 0.041901 0.000000
0.879333 0.041901 0.000000
0.908661 0.041901 0.000000
0.928375 0.041901 0.000000
0.941589 0.041901 0.000000
0.953430 0.041901 0.000000
0.965210 0.041901 0.000000
0.976837 0.041931 0.000000
0.988434 0.041901 0.000000
1.000000 0.041901 0.000000
0.000000 0.085815 0.000000
0.010315 0.083893 0.000000
0.020874 0.082062 0.000000
0.036041 0.080627 0.000000
0.056854 0.079773 0.000000
0.079193 0.079163 0.000000
0.102997 0.077759 0.000000
0.131134 0.075470 0.000000
0.162933 0.072540 0.000000
0.197601 0.069214 0.000000
0.234680 0.065491 0.000000
0.274323 0.061523 0.000000
0.316864 0.057983 0.000000
0.362488 0.055817 0.000000
0.410736 0.054657 0.000000
0.460968 0.053894 0.000000
0.512665 0.053436 0.000000
0.565094 0.053253 0.000000
0.617401 0.053070 0.000000
0.669006 0.052948 0.000000
0.719330 0.052887 0.000000
0.767456 0.052887 0.000000
0.810699 0.052887 0.000000
0.848297 0.052887 0.000000
0.882721 0.052887 0.000000
0.910339 0.052887 0.000000
0.928650 0.052887 0.000000
0.941589 0.052887 0.000000
0.953430 0.052887 0.000000
0.965210 0.052887 0.000000
0.976837 0.052887 0.000000
0.988434 0.052887 0.000000
1.000000 0.052887 0.000000
0.000000 0.107910 0.000000
0.010315 0.105713 0.000000
0.020782 0.103485 0.000000
0.034454 0.101807 0.000000
0.052979 0.100891 0.000000
0.075409 0.100494 0.000000
0.099945 0.099854 0.000000
0.128418 0.098236 0.000000
0.160645 0.095947 0.000000
0.195770 0.093140 0.000000
0.233337 0.089935 0.000000
0.273499 0.086395 0.000000
0.316650 0.082550 0.000000
0.362915 0.078430 0.000000
0.411835 0.074249 0.000000
0.462769 0.070709 0.000000
0.515167 0.068756 0.000000
0.568054 0.067413 0.000000
0.620697 0.066071 0.000000
0.672668 0.065063 0.000000
0.723206 0.064636 0.000000
0.771484 0.064514 0.000000
0.814880 0.064453 0.000000
0.852539 0.064453 0.000000
0.886322 0.064453 0.000000
0.912018 0.064423 0.000000
0.928925 0.064453 0.000000
0.941589 0.064423 0.000000
0.953430 0.064392 0.000000
0.965210 0.064392 0.000000
0.976837 0.064331 0.000000
0.988434 0.064331 0.000000
1.000000 0.064301 0.000000
0.000000 0.130981 0.000000
0.010315 0.128967 0.000000
0.020721 0.127136 0.000000
0.032288 0.125885 0.000000
0.048431 0.125397 0.000000
0.070740 0.125458 0.000000
0.095673 0.125214 0.000000
0.124359 0.124268 0.000000
0.156860 0.122498 0.000000
0.192413 0.120087 0.000000
0.230621 0.117371 0.000000
0.271393 0.114380 0.000000
0.315247 0.111115 0.000000
0.362274 0.107605 0.000000
0.411926 0.103882 0.000000
0.463348 0.100006 0.000000
0.516174 0.096252 0.000000
0.569550 0.092529 0.000000
0.622681 0.088959 0.000000
0.675049 0.085724 0.000000
0.725983 0.083527 0.000000
0.774628 0.082245 0.000000
0.818573 0.081573 0.000000
0.856476 0.081482 0.000000
0.889618 0.081421 0.000000
0.913391 0.081268 0.000000
0.929138 0.081055 0.000000
0.941589 0.080872 0.000000
0.953430 0.080627 0.000000
0.965210 0.080414 0.000000
0.976837 0.080139 0.000000
0.988434 0.079865 0.000000
1.000000 0.079681 0.000000
0.000000 0.157013 0.000000
0.010315 0.155273 0.000000
0.020691 0.153778 0.000000
0.031403 0.152863 0.000000
0.045044 0.152740 0.000000
0.065094 0.153229 0.000000
0.090332 0.153503 0.000000
0.119293 0.153046 0.000000
0.152008 0.151917 0.000000
0.187988 0.150116 0.000000
0.226837 0.147827 0.000000
0.268311 0.145325 0.000000
0.312744 0.142456 0.000000
0.360352 0.139343 0.000000
0.410492 0.135925 0.000000
0.462494 0.132324 0.000000
0.515900 0.128510 0.000000
0.569733 0.124725 0.000000
0.623352 0.120972 0.000000
0.676147 0.117310 0.000000
0.727448 0.113953 0.000000
0.776581 0.111115 0.000000
0.821320 0.109375 0.000000
0.859802 0.109009 0.000000
0.892395 0.108856 0.000000
0.914612 0.108459 0.000000
0.929321 0.107971 0.000000
0.941589 0.107513 0.000000
0.953430 0.107056 0.000000
0.965210 0.106567 0.000000
0.976837 0.106049 0.000000
0.988434 0.105621 0.000000
1.000000 0.105255 0.000000
0.000000 0.185699 0.000000
0.010315 0.184265 0.000000
0.020691 0.183228 0.000000
0.031250 0.182648 0.000000
0.042969 0.182861 0.000000
0.059662 0.183838 0.000000
0.084747 0.184631 0.000000
0.113861 0.184784 0.000000
0.146545 0.184143 0.000000
0.182831 0.182800 0.000000
0.221985 0.180969 0.000000
0.263977 0.178772 0.000000
0.308899 0.176300 0.000000
0.356873 0.173462 0.000000
0.407379 0.170319 0.000000
0.459930 0.166870 0.000000
0.513763 0.163300 0.000000
0.568085 0.159668 0.000000
0.622131 0.156036 0.000000
0.675385 0.152466 0.000000
0.727173 0.149139 0.000000
0.776886 0.146057 0.000000
0.822571 0.143768 0.000000
0.861816 0.143097 0.000000
0.894165 0.143005 0.000000
0.915497 0.142639 0.000000
0.929504 0.142181 0.000000
0.941589 0.141693 0.000000
0.953430 0.141144 0.000000
0.965210 0.140656 0.000000
0.976837 0.140076 0.000000
0.988434 0.139618 0.000000
1.000000 0.139221 0.000000
0.000000 0.217346 0.000000
0.010315 0.216187 0.000000
0.020691 0.215607 0.000000
0.031219 0.215454 0.000000
0.042297 0.216034 0.000000
0.056122 0.217377 0.000000
0.079193 0.218567 0.000000
0.108429 0.219116 0.000000
0.140900 0.218994 0.000000
0.177124 0.218048 0.000000
0.216583 0.216553 0.000000
0.258728 0.214691 0.000000
0.303925 0.212402 0.000000
0.352142 0.209839 0.000000
0.402985 0.206909 0.000000
0.455811 0.203705 0.000000
0.510010 0.200226 0.000000
0.564697 0.196808 0.000000
0.619110 0.193359 0.000000
0.672760 0.189880 0.000000
0.724945 0.186646 0.000000
0.775146 0.183563 0.000000
0.821747 0.181274 0.000000
0.862030 0.180481 0.000000
0.894806 0.180481 0.000000
0.915924 0.180237 0.000000
0.929565 0.179749 0.000000
0.941589 0.179352 0.000000
0.953430 0.178802 0.000000
0.965210 0.178314 0.000000
0.976837 0.177856 0.000000
0.988434 0.177429 0.000000
1.000000 0.177063 0.000000
0.000000 0.252258 0.000000
0.010315 0.251343 0.000000
0.020691 0.251068 0.000000
0.031189 0.251251 0.000000
0.042053 0.252167 0.000000
0.054382 0.253723 0.000000
0.073853 0.255219 0.000000
0.102905 0.256073 0.000000
0.135101 0.256287 0.000000
0.171051 0.255737 0.000000
0.210480 0.254486 0.000000
0.252899 0.252899 0.000000
0.298187 0.250854 0.000000
0.346649 0.248444 0.000000
0.397675 0.245758 0.000000
0.450775 0.242737 0.000000
0.505219 0.239532 0.000000
0.560211 0.236298 0.000000
0.614838 0.233002 0.000000
0.668793 0.229736 0.000000
0.721283 0.226624 0.000000
0.771881 0.223694 0.000000
0.819275 0.221283 0.000000
0.860718 0.220398 0.000000
0.894257 0.220428 0.000000
0.915894 0.220337 0.000000
0.929565 0.219910 0.000000
0.941589 0.219543 0.000000
0.953430 0.219086 0.000000
0.965210 0.218658 0.000000
0.976837 0.218201 0.000000
0.988434 0.217804 0.000000
1.000000 0.217407 0.000000
0.000000 0.290466 0.000000
0.010315 0.289825 0.000000
0.020691 0.289734 0.000000
0.031189 0.290161 0.000000
0.041931 0.291229 0.000000
0.053528 0.292938 0.000000
0.069458 0.294586 0.000000
0.097168 0.295685 0.000000
0.129059 0.296234 0.000000
0.164581 0.296021 0.000000
0.203918 0.295074 0.000000
0.246307 0.293579 0.000000
0.291870 0.291870 0.000000
0.340454 0.289673 0.000000
0.391693 0.287170 0.000000
0.444946 0.284393 0.000000
0.499603 0.281372 0.000000
0.554871 0.278320 0.000000
0.609802 0.275208 0.000000
0.663940 0.272095 0.000000
0.716705 0.269165 0.000000
0.767639 0.266296 0.000000
0.815735 0.263885 0.000000
0.858276 0.262817 0.000000
0.892670 0.262939 0.000000
0.915405 0.263000 0.000000
0.929504 0.262665 0.000000
0.941589 0.262360 0.000000
0.953430 0.262054 0.000000
0.965210 0.261688 0.000000
0.976837 0.261292 0.000000
0.988434 0.260956 0.000000
1.000000 0.260620 0.000000
0.000000 0.331787 0.000000
0.010315 0.331299 0.000000
0.020691 0.331360 0.000000
0.031189 0.331970 0.000000
0.041931 0.333160 0.000000
0.053162 0.334991 0.000000
0.066742 0.336731 0.000000
0.091156 0.338074 0.000000
0.122650 0.338928 0.000000
0.157715 0.339020 0.000000
0.196777 0.338409 0.000000
0.239288 0.337128 0.000000
0.284821 0.335480 0.000000
0.333649 0.333618 0.000000
0.385010 0.331329 0.000000
0.438446 0.328705 0.000000
0.493286 0.325928 0.000000
0.548737 0.322998 0.000000
0.603912 0.319977 0.000000
0.658356 0.317047 0.000000
0.711304 0.314209 0.000000
0.762512 0.311493 0.000000
0.811249 0.309143 0.000000
0.854950 0.307922 0.000000
0.890259 0.308075 0.000000
0.914337 0.308258 0.000000
0.929352 0.308105 0.000000
0.941589 0.307861 0.000000
0.953430 0.307648 0.000000
0.965210 0.307312 0.000000
0.976837 0.307037 0.000000
0.988434 0.306793 0.000000
1.000000 0.306519 0.000000
0.000000 0.375580 0.000000
0.010315 0.375214 0.000000
0.020691 0.375397 0.000000
0.031189 0.376129 0.000000
0.041901 0.377472 0.000000
0.052948 0.379425 0.000000
0.065125 0.381256 0.000000
0.085358 0.382812 0.000000
0.115967 0.383911 0.000000
0.150574 0.384369 0.000000
0.189240 0.384003 0.000000
0.231659 0.383026 0.000000
0.277405 0.381653 0.000000
0.326202 0.379822 0.000000
0.377808 0.377808 0.000000
0.431396 0.375366 0.000000
0.486420 0.372681 0.000000
0.541992 0.369934 0.000000
0.597351 0.367126 0.000000
0.652008 0.364319 0.000000
0.705231 0.361572 0.000000
0.756683 0.359009 0.000000
0.805878 0.356689 0.000000
0.850769 0.355347 0.000000
0.887329 0.355377 0.000000
0.912964 0.355713 0.000000
0.929138 0.355713 0.000000
0.941589 0.355560 0.000000
0.953430 0.355438 0.000000
0.965210 0.355225 0.000000
0.976837 0.355011 0.000000
0.988434 0.354797 0.000000
1.000000 0.354584 0.000000
0.000000 0.421326 0.000000
0.010315 0.421021 0.000000
0.020691 0.421295 0.000000
0.031189 0.422150 0.000000
0.041901 0.423676 0.000000
0.052887 0.425751 0.000000
0.064423 0.427643 0.000000
0.081329 0.429260 0.000000
0.109467 0.430634 0.000000
0.143311 0.431427 0.000000
0.181458 0.431427 0.000000
0.223663 0.430695 0.000000
0.269440 0.429474 0.000000
0.318420 0.427887 0.000000
0.370026 0.425964 0.000000
0.423828 0.423798 0.000000
0.479004 0.421295 0.000000
0.534821 0.418671 0.000000
0.590332 0.416016 0.000000
0.645203 0.413361 0.000000
0.698639 0.410767 0.000000
0.750336 0.408234 0.000000
0.799927 0.405945 0.000000
0.845825 0.404388 0.000000
0.883972 0.404327 0.000000
0.911469 0.404755 0.000000
0.928894 0.404907 0.000000
0.941589 0.404907 0.000000
0.953430 0.404846 0.000000
0.965210 0.404785 0.000000
0.976837 0.404602 0.000000
0.988434 0.404419 0.000000
1.000000 0.404266 0.000000
0.000000 0.468536 0.000000
0.010315 0.468323 0.000000
0.020691 0.468719 0.000000
0.031189 0.469727 0.000000
0.041901 0.471344 0.000000
0.052856 0.473480 0.000000
0.064209 0.475464 0.000000
0.078766 0.477081 0.000000
0.103333 0.478607 0.000000
0.135956 0.479675 0.000000
0.173492 0.480072 0.000000
0.215454 0.479614 0.000000
0.261200 0.478607 0.000000
0.310242 0.477234 0.000000
0.361969 0.475433 0.000000
0.415833 0.473389 0.000000
0.471161 0.471161 0.000000
0.527130 0.468719 0.000000
0.582886 0.466156 0.000000
0.637878 0.463593 0.000000
0.691589 0.461060 0.000000
0.743469 0.458679 0.000000
0.793488 0.456451 0.000000
0.840393 0.454742 0.000000
0.880341 0.454315 0.000000
0.910095 0.454865 0.000000
0.928711 0.455200 0.000000
0.941589 0.455322 0.000000
0.953430 0.455292 0.000000
0.965210 0.455353 0.000000
0.976837 0.455261 0.000000
0.988434 0.455170 0.000000
1.000000 0.454987 0.000000
0.000000 0.516449 0.000000
0.010315 0.516327 0.000000
0.020691 0.516846 0.000000
0.031189 0.517975 0.000000
0.041901 0.519745 0.000000
0.052856 0.521942 0.000000
0.064087 0.523987 0.000000
0.076752 0.525665 0.000000
0.097748 0.527313 0.000000
0.128815 0.528595 0.000000
0.165710 0.529266 0.000000
0.207184 0.529144 0.000000
0.252869 0.528351 0.000000
0.302002 0.527130 0.000000
0.353790 0.525574 0.000000
0.407715 0.523682 0.000000
0.463165 0.521576 0.000000
0.519257 0.519257 0.000000
0.575104 0.516815 0.000000
0.630310 0.514343 0.000000
0.684143 0.511902 0.000000
0.736267 0.509552 0.000000
0.786560 0.507385 0.000000
0.834320 0.505615 0.000000
0.876251 0.504974 0.000000
0.908539 0.505432 0.000000
0.928528 0.505890 0.000000
0.941589 0.506104 0.000000
0.953430 0.506165 0.000000
0.965210 0.506226 0.000000
0.976837 0.506256 0.000000
0.988434 0.506195 0.000000
1.000000 0.506073 0.000000
0.000000 0.564392 0.000000
0.010315 0.564453 0.000000
0.020691 0.565033 0.000000
0.031189 0.566284 0.000000
0.041901 0.568115 0.000000
0.052856 0.570465 0.000000
0.064026 0.572540 0.000000
0.075989 0.574249 0.000000
0.093781 0.575928 0.000000
0.122284 0.577454 0.000000
0.158325 0.578461 0.000000
0.199158 0.578644 0.000000
0.244629 0.578033 0.000000
0.293701 0.576935 0.000000
0.345581 0.575531 0.000000
0.399567 0.573792 0.000000
0.455139 0.571808 0.000000
0.511292 0.569611 0.000000
0.567322 0.567322 0.000000
0.622650 0.564941 0.000000
0.676575 0.562561 0.000000
0.728851 0.560272 0.000000
0.779388 0.558167 0.000000
0.827759 0.556274 0.000000
0.871490 0.555450 0.000000
0.906250 0.555908 0.000000
0.928131 0.556488 0.000000
0.941589 0.556702 0.000000
0.953430 0.556824 0.000000
0.965210 0.556885 0.000000
0.976837 0.556976 0.000000
0.988434 0.556946 0.000000
1.000000 0.556915 0.000000
0.000000 0.612061 0.000000
0.010315 0.612244 0.000000
0.020691 0.612946 0.000000
0.031189 0.614227 0.000000
0.041901 0.616150 0.000000
0.052856 0.618561 0.000000
0.064026 0.620728 0.000000
0.075714 0.622467 0.000000
0.091095 0.624146 0.000000
0.116455 0.625793 0.000000
0.151306 0.627106 0.000000
0.191498 0.627625 0.000000
0.236633 0.627258 0.000000
0.285736 0.626312 0.000000
0.337524 0.625031 0.000000
0.391479 0.623413 0.000000
0.447083 0.621490 0.000000
0.503357 0.619415 0.000000
0.559509 0.617188 0.000000
0.614990 0.614990 0.000000
0.669098 0.612671 0.000000
0.721405 0.610382 0.000000
0.772125 0.608307 0.000000
0.820984 0.606415 0.000000
0.866119 0.605194 0.000000
0.902893 0.605621 0.000000
0.927124 0.606354 0.000000
0.941528 0.606628 0.000000
0.953430 0.606781 0.000000
0.965210 0.606934 0.000000
0.976837 0.606934 0.000000
0.988434 0.607025 0.000000
1.000000 0.607056 0.000000
0.000000 0.658936 0.000000
0.010315 0.659149 0.000000
0.020691 0.660004 0.000000
0.031189 0.661346 0.000000
0.041901 0.663330 0.000000
0.052856 0.665802 0.000000
0.064026 0.668060 0.000000
0.075531 0.669800 0.000000
0.088959 0.671478 0.000000
0.111450 0.673157 0.000000
0.144745 0.674652 0.000000
0.184296 0.675476 0.000000
0.229004 0.675415 0.000000
0.277924 0.674652 0.000000
0.329803 0.673462 0.000000
0.383759 0.671997 0.000000
0.439240 0.670197 0.000000
0.495636 0.668152 0.000000
0.551880 0.666046 0.000000
0.607422 0.663849 0.000000
0.661652 0.661652 0.000000
0.714172 0.659454 0.000000
0.764893 0.657349 0.000000
0.814117 0.655426 0.000000
0.860321 0.654053 0.000000
0.898987 0.654053 0.000000
0.925415 0.654877 0.000000
0.941315 0.655304 0.000000
0.953430 0.655518 0.000000
0.965210 0.655701 0.000000
0.976837 0.655792 0.000000
0.988434 0.655884 0.000000
1.000000 0.655884 0.000000
0.000000 0.704742 0.000000
0.010315 0.704926 0.000000
0.020691 0.705841 0.000000
0.031189 0.707275 0.000000
0.041901 0.709290 0.000000
0.052856 0.711792 0.000000
0.064026 0.714111 0.000000
0.075470 0.715942 0.000000
0.087982 0.717651 0.000000
0.107666 0.719360 0.000000
0.139008 0.720947 0.000000
0.177795 0.721985 0.000000
0.221710 0.722168 0.000000
0.270477 0.721619 0.000000
0.322327 0.720581 0.000000
0.376373 0.719208 0.000000
0.431885 0.717560 0.000000
0.488159 0.715546 0.000000
0.544464 0.713470 0.000000
0.600098 0.711365 0.000000
0.654449 0.709198 0.000000
0.707001 0.707031 0.000000
0.757965 0.704956 0.000000
0.807281 0.703033 0.000000
0.854340 0.701477 0.000000
0.894745 0.701202 0.000000
0.923645 0.701935 0.000000
0.941071 0.702545 0.000000
0.953430 0.702820 0.000000
0.965210 0.703003 0.000000
0.976837 0.703156 0.000000
0.988434 0.703247 0.000000
1.000000 0.703186 0.000000
0.000000 0.749298 0.000000
0.010315 0.749634 0.000000
0.020691 0.750519 0.000000
0.031189 0.752014 0.000000
0.041901 0.754089 0.000000
0.052856 0.756622 0.000000
0.064026 0.758942 0.000000
0.075439 0.760803 0.000000
0.087616 0.762543 0.000000
0.105347 0.764252 0.000000
0.134216 0.765991 0.000000
0.171844 0.767212 0.000000
0.215088 0.767639 0.000000
0.263489 0.767273 0.000000
0.315247 0.766327 0.000000
0.369293 0.765106 0.000000
0.424805 0.763489 0.000000
0.481079 0.761566 0.000000
0.537384 0.759521 0.000000
0.593079 0.757477 0.000000
0.647461 0.755371 0.000000
0.700195 0.753204 0.000000
0.751099 0.751129 0.000000
0.800751 0.749176 0.000000
0.848206 0.747620 0.000000
0.890411 0.746948 0.000000
0.921844 0.747589 0.000000
0.940826 0.748291 0.000000
0.953430 0.748596 0.000000
0.965210 0.748810 0.000000
0.976837 0.748932 0.000000
0.988434 0.748993 0.000000
1.000000 0.749084 0.000000
0.000000 0.792847 0.000000
0.010315 0.793243 0.000000
0.020691 0.794250 0.000000
0.031189 0.795776 0.000000
0.041901 0.797882 0.000000
0.052856 0.800446 0.000000
0.064026 0.802734 0.000000
0.075439 0.804626 0.000000
0.087463 0.806335 0.000000
0.103607 0.808075 0.000000
0.130157 0.809845 0.000000
0.166565 0.811310 0.000000
0.208984 0.811981 0.000000
0.256989 0.811768 0.000000
0.308655 0.811005 0.000000
0.362549 0.809814 0.000000
0.418030 0.808258 0.000000
0.474304 0.806427 0.000000
0.530609 0.804443 0.000000
0.586304 0.802399 0.000000
0.640717 0.800323 0.000000
0.693481 0.798218 0.000000
0.744598 0.796173 0.000000
0.794189 0.794189 0.000000
0.842163 0.792450 0.000000
0.885925 0.791626 0.000000
0.919983 0.792084 0.000000
0.940582 0.792786 0.000000
0.953430 0.793182 0.000000
0.965210 0.793365 0.000000
0.976837 0.793488 0.000000
0.988434 0.793579 0.000000
1.000000 0.793671 0.000000
0.000000 0.835114 0.000000
0.010315 0.835632 0.000000
0.020691 0.836700 0.000000
0.031189 0.838318 0.000000
0.041901 0.840485 0.000000
0.052856 0.843018 0.000000
0.064026 0.845306 0.000000
0.075439 0.847198 0.000000
0.087341 0.848938 0.000000
0.102753 0.850647 0.000000
0.127686 0.852417 0.000000
0.162872 0.854065 0.000000
0.204437 0.855072 0.000000
0.251740 0.855072 0.000000
0.303162 0.854370 0.000000
0.356934 0.853333 0.000000
0.412109 0.851868 0.000000
0.468262 0.850159 0.000000
0.524475 0.848267 0.000000
0.580109 0.846283 0.000000
0.634460 0.844177 0.000000
0.687195 0.842102 0.000000
0.738312 0.840088 0.000000
0.788086 0.838104 0.000000
0.836151 0.836243 0.000000
0.881256 0.835175 0.000000
0.917633 0.835449 0.000000
0.940155 0.836243 0.000000
0.953430 0.836670 0.000000
0.965210 0.836945 0.000000
0.976837 0.836975 0.000000
0.988434 0.837158 0.000000
1.000000 0.837189 0.000000
0.000000 0.875641 0.000000
0.010315 0.876251 0.000000
0.020691 0.877411 0.000000
0.031189 0.878998 0.000000
0.041901 0.881073 0.000000
0.052856 0.883392 0.000000
0.064026 0.885284 0.000000
0.075439 0.886841 0.000000
0.087463 0.888336 0.000000
0.103607 0.889832 0.000000
0.128632 0.891357 0.000000
0.162964 0.892883 0.000000
0.203766 0.894012 0.000000
0.250092 0.894348 0.000000
0.300964 0.893890 0.000000
0.354401 0.893097 0.000000
0.409332 0.891968 0.000000
0.465027 0.890625 0.000000
0.520935 0.889099 0.000000
0.576263 0.887421 0.000000
0.630371 0.885712 0.000000
0.682953 0.883850 0.000000
0.733887 0.882111 0.000000
0.783386 0.880432 0.000000
0.831604 0.878784 0.000000
0.877258 0.877533 0.000000
0.915283 0.877533 0.000000
0.939484 0.878296 0.000000
0.953400 0.878723 0.000000
0.965210 0.879059 0.000000
0.976837 0.879181 0.000000
0.988434 0.879242 0.000000
1.000000 0.879272 0.000000
0.000000 0.911041 0.000000
0.010315 0.911743 0.000000
0.020691 0.912781 0.000000
0.031189 0.914215 0.000000
0.041901 0.915894 0.000000
0.052856 0.917633 0.000000
0.064026 0.918549 0.000000
0.075439 0.919189 0.000000
0.087646 0.919891 0.000000
0.105164 0.920532 0.000000
0.131775 0.921265 0.000000
0.166351 0.921997 0.000000
0.206451 0.922729 0.000000
0.251953 0.923065 0.000000
0.302338 0.922974 0.000000
0.355469 0.922607 0.000000
0.410156 0.922119 0.000000
0.465698 0.921570 0.000000
0.521271 0.920990 0.000000
0.576294 0.920258 0.000000
0.630127 0.919373 0.000000
0.682434 0.918549 0.000000
0.733154 0.917664 0.000000
