usr/bin/LUTs/DJI-DLOG-V1-LOG-to-709.cube
# Copyright: (C) Copyright 2010-2018 by IWLTBAP SAS
# Cannot be resold, shared or otherwise redistributed
# Website: https://luts.iwltbap.com
TITLE "DJI D-Log V1 (Utility LOG to Rec.709)"
LUT_3D_SIZE 5
0.000000 0.000000 0.000000
0.187897 0.000000 0.000000
0.539001 0.000000 0.000000
0.885651 0.000000 0.000000
1.000000 0.000000 0.000000
0.000000 0.157013 0.000000
0.152008 0.151917 0.000000
0.515900 0.128510 0.000000
0.892395 0.108856 0.000000
1.000000 0.105255 0.000000
0.000000 0.468536 0.000000
0.103333 0.478607 0.000000
0.471161 0.471161 0.000000
0.880341 0.454315 0.000000
1.000000 0.454987 0.000000
0.000000 0.835114 0.000000
0.087341 0.848938 0.000000
0.412109 0.851868 0.000000
0.836151 0.836243 0.000000
1.000000 0.837189 0.000000
0.000000 1.000000 0.000000
0.088013 1.000000 0.000000
0.406616 1.000000 0.000000
0.805725 1.000000 0.000000
1.000000 1.000000 0.000000
0.000000 0.000000 0.190735
0.184052 0.000000 0.184052
0.531769 0.000000 0.138519
0.883728 0.000000 0.097717
1.000000 0.000000 0.088989
0.000000 0.153717 0.153778
0.151398 0.151428 0.151428
0.525879 0.122070 0.122162
0.905151 0.096802 0.096283
1.000000 0.107910 0.107697
0.000000 0.470886 0.096313
0.096497 0.492004 0.096405
0.485474 0.485504 0.095032
0.899902 0.457458 0.085846
1.000000 0.459045 0.104065
0.000000 0.838959 0.087067
0.080566 0.873505 0.080566
0.413055 0.878052 0.080566
0.862213 0.862427 0.080414
1.000000 0.841217 0.087372
0.000000 1.000000 0.087280
0.088257 1.000000 0.088257
0.406799 1.000000 0.088104
0.805695 1.000000 0.087097
1.000000 1.000000 0.087097
0.000000 0.000000 0.571899
0.168488 0.000000 0.562073
0.513977 0.000000 0.513977
0.875061 0.000000 0.469208
1.000000 0.000000 0.449432
0.000000 0.141205 0.531586
0.132568 0.132477 0.544312
0.519836 0.112488 0.519836
0.902771 0.091553 0.479065
1.000000 0.104614 0.471252
0.000000 0.466003 0.466034
0.094971 0.487854 0.487793
0.471985 0.471893 0.471985
0.892914 0.446899 0.446960
1.000000 0.457886 0.457886
0.000000 0.838257 0.398102
0.080536 0.873627 0.409241
0.401154 0.869232 0.401123
0.853027 0.853088 0.383545
1.000000 0.841217 0.399902
0.000000 1.000000 0.392517
0.088501 1.000000 0.407990
0.399384 1.000000 0.399384
0.801300 1.000000 0.359894
1.000000 1.000000 0.340057
0.000000 0.000000 0.904480
0.152252 0.000000 0.904114
0.496826 0.000000 0.890625
0.865051 0.000000 0.865082
1.000000 0.000000 0.858459
0.000000 0.129272 0.900482
0.113678 0.113678 0.911011
0.495300 0.096161 0.908752
0.898346 0.085327 0.898346
1.000000 0.098145 0.883698
0.000000 0.457825 0.876923
0.086578 0.467743 0.902039
0.453430 0.453430 0.898773
0.892242 0.436035 0.892395
1.000000 0.450470 0.885040
0.000000 0.831177 0.830841
0.080475 0.866699 0.866425
0.393433 0.862396 0.862061
0.833832 0.833832 0.833801
1.000000 0.832275 0.832245
0.000000 1.000000 0.825562
0.087677 1.000000 0.839447
0.382660 1.000000 0.823761
0.788300 1.000000 0.788300
1.000000 1.000000 0.767944
0.000000 0.000000 1.000000
0.139557 0.000000 1.000000
0.485931 0.000000 1.000000
0.860931 0.000000 1.000000
1.000000 0.000000 1.000000
0.000000 0.123077 1.000000
0.128021 0.127930 1.000000
0.491669 0.113312 1.000000
0.882477 0.097534 1.000000
1.000000 0.097839 1.000000
0.000000 0.455261 1.000000
0.102051 0.467224 1.000000
0.464172 0.464172 1.000000
0.880707 0.447632 1.000000
1.000000 0.449463 1.000000
0.000000 0.830200 1.000000
0.087372 0.844574 1.000000
0.408081 0.848877 1.000000
0.832764 0.832825 1.000000
1.000000 0.827637 1.000000
0.000000 1.000000 1.000000
0.087433 1.000000 1.000000
0.374268 1.000000 1.000000
0.780273 1.000000 1.000000
1.000000 1.000000 1.000000
