usr/bin/LUTs/DJI-D-LOG-M-to-709.cube
# Copyright: (C) Copyright 2010-2019 by IWLTBAP SAS
# Cannot be resold, shared or otherwise redistributed
# Website: https://luts.iwltbap.com
TITLE "DJI D-Log M to Rec.709 (Beta)"
LUT_3D_SIZE 9
0.424225 0.432404 0.429352
0.387451 0.402435 0.376678
0.333862 0.340027 0.315521
0.378296 0.382660 0.365356
0.381073 0.395905 0.352722
0.324005 0.348907 0.293793
0.354187 0.379974 0.313782
0.340546 0.377014 0.303619
0.307892 0.352722 0.253876
0.255768 0.283600 0.281342
0.329163 0.362427 0.360260
0.255066 0.251404 0.261932
0.279297 0.278076 0.275818
0.480164 0.455994 0.453033
0.464661 0.452026 0.440582
0.464661 0.452026 0.440582
0.460449 0.448029 0.427734
0.460449 0.448029 0.427734
0.447693 0.457428 0.453888
0.348480 0.356262 0.354370
0.362030 0.369110 0.359894
0.224121 0.212616 0.212372
0.471771 0.448242 0.453491
0.494690 0.482361 0.478485
0.626648 0.632660 0.620514
0.609528 0.625397 0.595093
0.521271 0.541473 0.510498
0.550079 0.533844 0.502350
0.357849 0.334869 0.348541
0.165985 0.173096 0.190826
0.195770 0.190247 0.213013
0.458588 0.466187 0.479462
0.497101 0.506531 0.510803
0.559296 0.566345 0.562317
0.466187 0.485992 0.446899
0.644775 0.659546 0.613617
0.520203 0.450348 0.431610
0.544983 0.485626 0.456207
0.626923 0.574158 0.552826
0.504608 0.447510 0.445526
0.485260 0.450470 0.439789
0.487152 0.473450 0.452393
0.480927 0.467102 0.446106
0.464661 0.452026 0.440582
0.464661 0.452026 0.440582
0.416534 0.401367 0.398987
0.426880 0.389343 0.380524
0.589081 0.478882 0.460754
0.586853 0.503082 0.473602
0.457947 0.425262 0.415527
0.480927 0.467102 0.446106
0.480927 0.467102 0.446106
0.464661 0.452026 0.440582
0.464661 0.452026 0.440582
0.304474 0.340240 0.279419
0.309692 0.345703 0.284271
0.304474 0.340240 0.279419
0.316406 0.362946 0.299408
0.275879 0.309692 0.265808
0.228394 0.262329 0.234741
0.225555 0.250885 0.230225
0.203156 0.258240 0.230713
0.203156 0.258240 0.230713
0.257874 0.284058 0.261780
0.242676 0.276367 0.248352
0.270142 0.327332 0.295990
0.225128 0.279724 0.257965
0.221924 0.268250 0.253265
0.207733 0.262939 0.235107
0.203156 0.258240 0.230713
0.180237 0.241699 0.208710
0.228363 0.281555 0.253326
0.454193 0.463806 0.460175
0.447693 0.457428 0.453888
0.397034 0.390259 0.387939
0.614166 0.588745 0.567017
0.441376 0.427765 0.390717
0.738831 0.733948 0.695862
0.691711 0.708618 0.679474
0.378296 0.382660 0.365356
0.393158 0.408234 0.382324
0.409088 0.414062 0.387054
0.381073 0.395905 0.352722
0.334229 0.339081 0.298706
0.391937 0.407440 0.363922
0.374847 0.390198 0.347076
0.348175 0.363434 0.314453
0.343567 0.356262 0.292725
0.283813 0.326599 0.260406
0.310181 0.355682 0.263672
0.345093 0.376617 0.388702
0.374146 0.407043 0.411499
0.258911 0.265564 0.276428
0.260559 0.268738 0.266327
0.486389 0.462433 0.459259
0.464661 0.452026 0.440582
0.464661 0.452026 0.440582
0.460449 0.448029 0.427734
0.460449 0.448029 0.427734
0.326691 0.334106 0.332092
0.332214 0.339294 0.337646
0.362030 0.369110 0.359894
0.232941 0.240631 0.239044
0.460480 0.470154 0.466461
0.580811 0.587433 0.575256
0.631195 0.637085 0.632324
0.503113 0.513062 0.491180
0.594818 0.599121 0.567993
0.601105 0.564972 0.533478
0.588196 0.541351 0.554993
0.228119 0.222748 0.239410
0.210876 0.197357 0.226288
0.457764 0.451141 0.473114
0.453247 0.461792 0.466705
0.539948 0.549011 0.536163
0.461639 0.470520 0.440521
0.644867 0.648346 0.599518
0.512543 0.444031 0.425568
0.492798 0.438721 0.420044
0.614227 0.551971 0.539917
0.598938 0.544312 0.540741
0.480438 0.437134 0.427246
0.487152 0.473450 0.452393
0.480927 0.467102 0.446106
0.487152 0.473450 0.452393
0.480927 0.467102 0.446106
0.416534 0.401367 0.398987
0.421204 0.383514 0.374908
0.570709 0.463989 0.455414
0.611969 0.507721 0.479126
0.480438 0.437134 0.427246
0.480927 0.467102 0.446106
0.464661 0.452026 0.440582
0.464661 0.452026 0.440582
0.464661 0.452026 0.440582
0.309692 0.345703 0.284271
0.292999 0.348694 0.280029
0.279205 0.343201 0.275757
0.286499 0.355072 0.300690
0.239258 0.290192 0.248596
0.213684 0.273163 0.226318
0.206848 0.257202 0.217377
0.178040 0.230347 0.204102
0.174438 0.231506 0.217529
0.243317 0.275482 0.234161
0.226196 0.266235 0.226013
0.271362 0.325775 0.281128
0.228363 0.281555 0.253326
0.265656 0.321899 0.291138
0.248962 0.313232 0.276672
0.248962 0.313232 0.276672
0.236023 0.288361 0.253204
0.259186 0.313171 0.276459
0.412628 0.419769 0.417206
0.454193 0.463806 0.460175
0.327820 0.335693 0.326721
0.484467 0.459900 0.439514
0.575073 0.548706 0.507751
0.478394 0.465363 0.426331
0.417206 0.404419 0.368195
0.434784 0.412781 0.385376
0.422363 0.408478 0.398590
0.311371 0.328400 0.289459
0.334747 0.349762 0.309753
0.334747 0.349762 0.309753
0.334747 0.349762 0.309753
0.334747 0.349762 0.309753
0.337738 0.351898 0.304016
0.283508 0.308594 0.250610
0.245605 0.287567 0.224426
0.319122 0.365509 0.293976
0.406281 0.398712 0.411163
0.376129 0.381866 0.394073
0.263275 0.270233 0.281281
0.282532 0.264771 0.275909
0.484406 0.460846 0.466034
0.463409 0.450562 0.447144
0.464661 0.452026 0.440582
0.464661 0.452026 0.440582
0.466431 0.443512 0.440613
0.429962 0.438782 0.435394
0.418335 0.426117 0.423279
0.389740 0.396393 0.393738
0.237762 0.245178 0.243591
0.454193 0.463806 0.460175
0.636566 0.643066 0.638123
0.631195 0.637085 0.632324
0.453339 0.461609 0.441162
0.634857 0.637329 0.607544
0.592560 0.575012 0.533752
0.586517 0.569916 0.547974
0.281708 0.263184 0.280945
0.228333 0.217224 0.216705
0.457397 0.444275 0.441010
0.460480 0.470154 0.466461
0.518799 0.527802 0.523468
0.469482 0.489990 0.459991
0.614563 0.630859 0.580444
0.507629 0.440460 0.439026
0.490692 0.436371 0.426849
0.560150 0.491821 0.488892
0.598938 0.544312 0.540741
0.480438 0.437134 0.427246
0.487152 0.473450 0.452393
0.487152 0.473450 0.452393
0.482147 0.457550 0.446289
0.482147 0.457550 0.446289
0.425659 0.419403 0.416962
0.432709 0.410278 0.391815
0.589081 0.478882 0.460754
0.617676 0.492828 0.465607
0.490692 0.436371 0.426849
0.480927 0.467102 0.446106
0.464661 0.452026 0.440582
0.464661 0.452026 0.440582
0.464661 0.452026 0.440582
0.309692 0.345703 0.284271
0.307526 0.353912 0.284332
0.279205 0.343201 0.275757
0.250244 0.312134 0.262146
0.218140 0.277832 0.230743
0.218140 0.277832 0.230743
0.218140 0.277832 0.230743
0.207733 0.262939 0.235107
0.162109 0.217499 0.204163
0.310394 0.347168 0.299866
0.310394 0.347168 0.299866
0.281982 0.349731 0.295715
0.272919 0.338776 0.286041
0.250244 0.312134 0.262146
0.241302 0.302124 0.253143
0.241302 0.302124 0.253143
0.271362 0.325775 0.281128
0.262054 0.315125 0.271423
0.252380 0.260773 0.252472
0.275970 0.294800 0.285858
0.290466 0.299561 0.290497
0.457336 0.434631 0.415192
0.557526 0.519653 0.488678
0.503845 0.467926 0.438538
0.484009 0.451202 0.413361
0.481934 0.448883 0.420135
0.452209 0.418915 0.409424
0.337738 0.351898 0.304016
0.356537 0.373260 0.330261
0.339996 0.355530 0.315002
0.281219 0.297455 0.260590
0.271088 0.287567 0.251495
0.275604 0.292572 0.256012
0.331390 0.345215 0.283142
0.314453 0.339966 0.278870
0.346008 0.359802 0.303467
0.258911 0.265564 0.276428
0.318237 0.315002 0.326965
0.277679 0.274902 0.285950
0.270660 0.260468 0.271179
0.442413 0.479095 0.466827
0.463409 0.450562 0.447144
0.464661 0.452026 0.440582
0.464661 0.452026 0.440582
0.483795 0.438965 0.453125
0.466583 0.476593 0.472687
0.460480 0.470154 0.466461
0.389740 0.396393 0.393738
0.228607 0.236176 0.234558
0.460480 0.470154 0.466461
0.626648 0.632660 0.620514
0.643280 0.646545 0.626343
0.463318 0.483612 0.453766
0.643280 0.646545 0.626343
0.565735 0.550781 0.528473
0.596527 0.578796 0.547363
0.553802 0.517792 0.522644
0.215942 0.197632 0.203491
0.462463 0.448578 0.453674
0.484406 0.460846 0.466034
0.491608 0.489136 0.484894
0.499268 0.509003 0.477997
0.561188 0.578430 0.528412
0.484924 0.421631 0.420807
0.484924 0.421631 0.420807
0.521362 0.452911 0.451447
0.586884 0.533203 0.520844
0.469482 0.447266 0.427338
0.487152 0.473450 0.452393
0.480927 0.467102 0.446106
0.492493 0.456787 0.445892
0.485260 0.450470 0.439789
0.412628 0.419769 0.417206
0.432709 0.410278 0.391815
0.599670 0.465485 0.440063
0.607788 0.477020 0.459930
0.490692 0.436371 0.426849
0.480927 0.467102 0.446106
0.480927 0.467102 0.446106
0.464661 0.452026 0.440582
0.464661 0.452026 0.440582
0.337677 0.374298 0.309265
0.310394 0.347168 0.299866
0.272919 0.338776 0.286041
0.250244 0.312134 0.262146
0.234802 0.285248 0.244080
0.234802 0.285248 0.244080
0.243774 0.295227 0.253052
0.237305 0.291565 0.262329
0.200867 0.259277 0.244293
0.313049 0.350220 0.310883
0.323822 0.372131 0.315552
0.245728 0.307159 0.257660
0.234802 0.285248 0.244080
0.209106 0.268494 0.221924
0.218140 0.277832 0.230743
0.202423 0.252533 0.212982
0.182526 0.240234 0.195099
0.194000 0.243164 0.204041
0.217834 0.247253 0.239227
0.223267 0.251862 0.243805
0.247650 0.271454 0.243591
0.457947 0.425262 0.415527
0.566711 0.498291 0.495270
0.547852 0.490021 0.469421
0.527527 0.456635 0.437744
0.520203 0.450348 0.431610
0.393341 0.355316 0.346680
0.351715 0.364777 0.292297
0.356873 0.371582 0.313721
0.334900 0.348663 0.293243
0.275604 0.292572 0.256012
0.262146 0.277832 0.242462
0.262146 0.277832 0.242462
0.381073 0.395905 0.352722
0.212402 0.225830 0.178955
0.296387 0.311005 0.259735
0.318237 0.315002 0.326965
0.452332 0.459808 0.473175
0.306854 0.304565 0.316467
0.266266 0.255829 0.266327
0.434540 0.457794 0.454163
0.480164 0.455994 0.453033
0.480927 0.467102 0.446106
0.398987 0.434845 0.423553
0.540649 0.574921 0.562592
0.466583 0.476593 0.472687
0.466583 0.476593 0.472687
0.372833 0.378998 0.376862
0.289642 0.297974 0.295593
0.461426 0.472137 0.459930
0.565063 0.583588 0.562286
0.609528 0.625397 0.595093
0.493225 0.502502 0.471741
0.648254 0.663147 0.625946
0.562714 0.548218 0.535553
0.547333 0.510773 0.489197
0.615601 0.572144 0.560333
0.356995 0.318451 0.331207
0.490387 0.445160 0.459381
0.494690 0.460083 0.465607
0.485382 0.482697 0.478668
0.506378 0.515503 0.484222
0.506927 0.527039 0.477539
0.484924 0.421631 0.420807
0.470917 0.409149 0.408661
0.490692 0.436371 0.426849
0.457947 0.425262 0.415527
0.464661 0.452026 0.440582
0.487152 0.473450 0.452393
0.480927 0.467102 0.446106
0.492493 0.456787 0.445892
0.485260 0.450470 0.439789
0.412628 0.419769 0.417206
0.422211 0.407104 0.404633
0.559082 0.489166 0.468811
0.579773 0.479797 0.461151
0.490692 0.436371 0.426849
0.487152 0.473450 0.452393
0.480927 0.467102 0.446106
0.464661 0.452026 0.440582
0.460449 0.448029 0.427734
0.321625 0.368713 0.304626
0.299622 0.358582 0.311096
0.271362 0.325775 0.281128
0.244171 0.308350 0.271790
0.207733 0.262939 0.235107
0.241302 0.302124 0.253143
0.268494 0.323822 0.286133
0.244171 0.308350 0.271790
0.206207 0.263885 0.248901
0.318695 0.366302 0.310333
0.334412 0.394867 0.320374
0.303101 0.371613 0.300110
0.234131 0.300964 0.239655
0.213715 0.288269 0.221954
0.178497 0.256439 0.204407
0.156097 0.235596 0.190887
0.178467 0.259277 0.213379
0.178070 0.235443 0.190552
0.188629 0.215088 0.208344
0.223267 0.251862 0.243805
0.257874 0.284058 0.261780
0.452209 0.418915 0.409424
0.574860 0.488770 0.495056
0.544983 0.485626 0.456207
0.565491 0.495636 0.475067
0.572449 0.502197 0.481354
0.504608 0.447510 0.445526
0.379852 0.394623 0.317413
0.302094 0.315887 0.264343
0.334900 0.348663 0.293243
0.301575 0.317413 0.279816
0.461517 0.481903 0.433899
0.498993 0.507202 0.458069
0.498993 0.507202 0.458069
0.521210 0.539978 0.490234
0.521210 0.539978 0.490234
0.318237 0.315002 0.326965
0.451874 0.445007 0.466888
0.282654 0.279877 0.290802
0.275085 0.265076 0.276062
0.404694 0.441193 0.429657
0.480164 0.455994 0.453033
0.480927 0.467102 0.446106
0.429443 0.453491 0.441528
0.487732 0.523682 0.510986
0.466583 0.476593 0.472687
0.466583 0.476593 0.472687
0.378418 0.384796 0.382507
0.437225 0.422760 0.403534
0.522522 0.519226 0.496887
0.521271 0.541473 0.510498
0.562042 0.579681 0.549133
0.498993 0.507202 0.458069
0.661469 0.677399 0.631134
0.493317 0.479919 0.458618
0.368622 0.338135 0.313599
0.587524 0.552155 0.520569
0.542358 0.496155 0.509827
0.496826 0.451324 0.465698
0.496826 0.451324 0.465698
0.470642 0.467865 0.446503
0.490326 0.500153 0.478607
0.493225 0.502502 0.471741
0.464569 0.403473 0.402618
0.457611 0.397858 0.396973
0.484924 0.421631 0.420807
0.402802 0.372650 0.364044
0.460449 0.448029 0.427734
0.487152 0.473450 0.452393
0.480927 0.467102 0.446106
0.480927 0.467102 0.446106
0.464661 0.452026 0.440582
0.406830 0.413605 0.411011
0.408386 0.401855 0.399170
0.449036 0.398590 0.397369
0.445160 0.381439 0.373627
0.492493 0.456787 0.445892
0.487152 0.473450 0.452393
0.480927 0.467102 0.446106
0.464661 0.452026 0.440582
0.460449 0.448029 0.427734
0.272919 0.338776 0.286041
0.304779 0.364349 0.316315
0.277527 0.344238 0.290863
0.241730 0.296539 0.266846
0.184052 0.246307 0.213165
0.180237 0.241699 0.208710
0.241730 0.296539 0.266846
0.240936 0.297546 0.281708
0.195465 0.254608 0.239746
0.280701 0.324036 0.250763
0.286072 0.329559 0.270294
0.247375 0.306580 0.243469
0.251801 0.311584 0.247986
0.193237 0.278900 0.213287
0.156097 0.235596 0.190887
0.173920 0.251678 0.199860
0.178467 0.259277 0.213379
0.170929 0.219513 0.181488
0.198456 0.238373 0.230560
0.256592 0.285156 0.276306
0.235046 0.260223 0.239136
0.456238 0.405579 0.397003
0.553802 0.506042 0.475555
0.544983 0.485626 0.456207
0.544983 0.485626 0.456207
0.565491 0.495636 0.475067
0.516205 0.448181 0.438568
0.365662 0.391418 0.307465
0.386353 0.400879 0.340027
0.392151 0.406647 0.345673
0.311371 0.328400 0.289459
0.481476 0.501129 0.452606
0.492737 0.500824 0.451843
0.479797 0.488037 0.439362
0.461517 0.481903 0.433899
0.461517 0.481903 0.433899
0.359314 0.392792 0.382660
0.369354 0.402954 0.399658
0.273102 0.280029 0.291046
0.261292 0.270203 0.261566
0.449524 0.457581 0.428314
0.480927 0.467102 0.446106
0.482147 0.457550 0.446289
0.429443 0.453491 0.441528
0.452698 0.487946 0.492401
0.479218 0.476349 0.472382
0.460480 0.470154 0.466461
0.389740 0.396393 0.393738
0.379089 0.365112 0.347321
0.463867 0.461426 0.440308
0.588501 0.592407 0.561523
0.514465 0.535095 0.504120
0.484802 0.515228 0.439178
0.659637 0.676147 0.612244
0.332214 0.339294 0.337646
0.340332 0.328217 0.326477
0.475006 0.451233 0.440186
0.530365 0.495483 0.483337
0.492493 0.456787 0.445892
0.494690 0.460083 0.465607
0.478180 0.454437 0.459747
0.463409 0.450562 0.447144
0.505707 0.492706 0.471161
0.429779 0.375183 0.374451
0.436554 0.380829 0.380096
0.477295 0.415314 0.414764
0.398560 0.359314 0.358337
0.469482 0.447266 0.427338
0.488373 0.463959 0.452576
0.482147 0.457550 0.446289
0.480927 0.467102 0.446106
0.546722 0.531403 0.509277
0.406830 0.413605 0.411011
0.593536 0.585541 0.581818
0.408356 0.378357 0.369720
0.467377 0.444946 0.434082
0.376465 0.362610 0.353638
0.529297 0.525604 0.503326
0.475708 0.496429 0.466278
0.459290 0.468170 0.447296
0.459290 0.468170 0.447296
0.234802 0.285248 0.244080
0.254669 0.317139 0.266663
0.191620 0.249786 0.204163
0.168976 0.220795 0.195038
0.144928 0.208954 0.177368
0.141785 0.198334 0.172729
0.174591 0.228699 0.208649
0.190521 0.249969 0.235229
0.195465 0.254608 0.239746
0.245605 0.287567 0.224426
0.278442 0.321503 0.255829
0.218048 0.275024 0.221832
0.189270 0.259216 0.213257
0.219177 0.301971 0.253601
0.194061 0.269562 0.235382
0.143524 0.227570 0.195587
0.170319 0.255676 0.222321
0.173553 0.225586 0.199554
0.221924 0.268250 0.253265
0.237488 0.275604 0.266785
0.202576 0.234619 0.208374
0.462891 0.401489 0.384430
0.536133 0.500183 0.469666
0.544983 0.485626 0.456207
0.544983 0.485626 0.456207
0.547852 0.490021 0.469421
0.527802 0.459442 0.457642
0.382172 0.397064 0.311646
0.417877 0.435791 0.355530
0.351196 0.365601 0.308655
0.339996 0.355530 0.315002
0.465546 0.474518 0.453552
0.487152 0.473450 0.452393
0.487152 0.473450 0.452393
0.480927 0.467102 0.446106
0.480927 0.467102 0.446106
0.416290 0.453857 0.441772
0.415344 0.452057 0.448120
0.292175 0.299713 0.311432
0.253021 0.259766 0.238312
0.449524 0.457581 0.428314
0.480927 0.467102 0.446106
0.482147 0.457550 0.446289
0.429443 0.453491 0.441528
0.458710 0.494324 0.498718
0.463898 0.498718 0.511627
0.333893 0.366516 0.371613
0.221771 0.248932 0.253265
0.348480 0.356262 0.354370
0.455139 0.465759 0.453674
0.588501 0.592407 0.561523
0.557770 0.564209 0.542572
0.482147 0.512512 0.445953
0.649750 0.664948 0.599091
0.303986 0.302734 0.300385
0.416534 0.401367 0.398987
0.407410 0.393646 0.375336
0.407410 0.393646 0.375336
0.485260 0.450470 0.439789
0.498627 0.463196 0.452179
0.478180 0.454437 0.459747
0.463409 0.450562 0.447144
0.464661 0.452026 0.440582
0.397217 0.367096 0.358398
0.449402 0.399048 0.372772
0.484924 0.421631 0.420807
0.490692 0.436371 0.426849
0.480438 0.437134 0.427246
0.498627 0.463196 0.452179
0.498627 0.463196 0.452179
0.470642 0.467865 0.446503
0.687378 0.673431 0.660889
0.402222 0.409454 0.399170
0.372131 0.365662 0.371185
0.410889 0.395538 0.393402
0.435883 0.410645 0.416779
0.291718 0.282745 0.280548
0.566284 0.572693 0.568848
0.588501 0.592407 0.561523
0.493225 0.502502 0.471741
0.483032 0.480682 0.459045
0.198334 0.250732 0.217438
0.203156 0.258240 0.230713
0.170319 0.255676 0.222321
0.149231 0.232300 0.199982
0.135193 0.211823 0.186615
0.131775 0.210205 0.191162
0.164612 0.245605 0.231110
0.161255 0.238159 0.217773
0.160767 0.241028 0.226654
0.274261 0.308899 0.251129
0.260223 0.311798 0.247375
0.186371 0.242004 0.190521
0.188171 0.248138 0.208679
0.165619 0.245117 0.199890
0.194061 0.269562 0.235382
0.164948 0.237030 0.204346
0.133087 0.209045 0.177612
0.161896 0.213257 0.181610
0.174194 0.234314 0.226410
0.170471 0.226868 0.213104
0.174103 0.210815 0.204041
0.415558 0.377747 0.369293
0.538452 0.479156 0.449982
0.538452 0.479156 0.449982
0.544983 0.485626 0.456207
0.544983 0.485626 0.456207
0.538391 0.455627 0.437134
0.451172 0.481964 0.371246
0.357086 0.382690 0.308105
0.359863 0.386017 0.318787
0.308716 0.326538 0.294800
0.476807 0.474243 0.452789
0.487152 0.473450 0.452393
0.487152 0.473450 0.452393
0.480927 0.467102 0.446106
0.480927 0.467102 0.446106
0.416046 0.466827 0.454498
0.435913 0.472748 0.460510
0.298981 0.307953 0.305847
0.247864 0.256073 0.247955
0.449524 0.457581 0.428314
0.464661 0.452026 0.440582
0.464661 0.452026 0.440582
0.434540 0.457794 0.454163
0.416046 0.466827 0.454498
0.133972 0.164948 0.177612
0.134888 0.175964 0.182129
0.157013 0.185394 0.190857
0.348480 0.356262 0.354370
0.461426 0.472137 0.459930
0.557770 0.564209 0.542572
0.562042 0.579681 0.549133
0.481476 0.501129 0.452606
0.654663 0.670532 0.605774
0.322174 0.330444 0.321442
0.402222 0.409454 0.399170
0.553284 0.537781 0.515686
0.539917 0.524933 0.502899
0.480927 0.467102 0.446106
0.487152 0.473450 0.452393
0.480927 0.467102 0.446106
0.464661 0.452026 0.440582
0.460449 0.448029 0.427734
0.373627 0.344635 0.335907
0.429596 0.373077 0.356323
0.594269 0.523682 0.493317
0.578125 0.508698 0.487762
0.464844 0.423065 0.395905
0.498627 0.463196 0.452179
0.498627 0.463196 0.452179
0.476807 0.474243 0.452789
0.648773 0.652466 0.632172
0.406830 0.413605 0.411011
0.410889 0.395538 0.393402
0.410889 0.395538 0.393402
0.421265 0.405457 0.410828
0.286804 0.277771 0.275665
0.560699 0.568146 0.555725
0.613464 0.655548 0.627075
0.656494 0.697205 0.668243
0.709381 0.738342 0.709595
0.178040 0.230347 0.204102
0.168976 0.220795 0.195038
0.149231 0.232300 0.199982
0.138916 0.217834 0.204498
0.138916 0.217834 0.204498
0.126221 0.205627 0.186768
0.161255 0.238159 0.217773
0.164612 0.245605 0.231110
0.156830 0.236389 0.222229
0.299896 0.334717 0.274597
0.272919 0.338776 0.286041
0.218140 0.277832 0.230743
0.175659 0.236938 0.204193
0.164948 0.237030 0.204346
0.169434 0.241760 0.208862
0.169434 0.241760 0.208862
0.155426 0.227478 0.195343
0.198700 0.253571 0.226288
0.206207 0.263885 0.248901
0.166626 0.222290 0.208649
0.266846 0.305023 0.296051
0.440430 0.397949 0.403778
0.538452 0.479156 0.449982
0.544983 0.485626 0.456207
0.547852 0.490021 0.469421
0.547852 0.490021 0.469421
0.566956 0.478790 0.468719
