usr/bin/LUTs/DJI-DLOG-V2-LOG-to-709.cube
# Copyright: (C) Copyright 2010-2018 by IWLTBAP SAS
# Cannot be resold, shared or otherwise redistributed
# Website: https://luts.iwltbap.com
TITLE "DJI D-Log V2 (Utility LOG to Rec.709)"
LUT_3D_SIZE 9
0.000000 0.000000 0.000000
0.121368 0.000000 0.000000
0.283417 0.000000 0.000000
0.440094 0.000000 0.000000
0.592010 0.000000 0.000000
0.742889 0.000000 0.000000
0.891815 0.000000 0.000000
0.999786 0.000000 0.000000
1.000000 0.000000 0.000000
0.000000 0.093048 0.000000
0.087860 0.083221 0.000000
0.212036 0.057892 0.011353
0.410217 0.000000 0.000000
0.583893 0.000000 0.000000
0.735809 0.000000 0.000000
0.884125 0.000000 0.000000
0.999390 0.000000 0.000000
1.000000 0.000000 0.000000
0.000000 0.227692 0.000000
0.000000 0.222321 0.000000
0.215271 0.208282 0.000000
0.397919 0.180481 0.000000
0.486938 0.142639 0.000000
0.567780 0.043091 0.000000
0.863617 0.000000 0.000000
0.996765 0.000000 0.000000
1.000000 0.000000 0.000000
0.000000 0.356567 0.000000
0.000000 0.352203 0.000000
0.033661 0.343323 0.000000
0.336731 0.326233 0.000000
0.522766 0.301910 0.000000
0.688477 0.263702 0.000000
0.795868 0.216583 0.000000
0.786835 0.126678 0.000000
0.981110 0.000000 0.000000
0.000000 0.482391 0.000000
0.000000 0.478912 0.000000
0.000000 0.471405 0.000000
0.199615 0.459381 0.000000
0.454346 0.442474 0.000000
0.641754 0.418457 0.000000
0.811005 0.386536 0.000000
0.973724 0.341492 0.000000
1.000000 0.279449 0.000000
0.000000 0.607513 0.000000
0.000000 0.604034 0.000000
0.000000 0.597229 0.000000
0.000000 0.587128 0.000000
0.336639 0.574158 0.000000
0.572693 0.556244 0.000000
0.761536 0.533813 0.000000
0.937317 0.503815 0.000000
1.000000 0.464417 0.000000
0.000000 0.731873 0.000000
0.000000 0.728577 0.000000
0.000000 0.724060 0.000000
0.000000 0.714966 0.000000
0.028229 0.702637 0.000000
0.461609 0.688507 0.000000
0.689728 0.671875 0.000000
0.882629 0.649994 0.000000
1.000000 0.621307 0.000000
0.000000 0.858398 0.000000
0.000000 0.854706 0.000000
0.000000 0.851105 0.000000
0.000000 0.843811 0.000000
0.000000 0.832703 0.000000
0.243744 0.820862 0.000000
0.585907 0.806396 0.000000
0.810944 0.788910 0.000000
0.994232 0.766632 0.000000
0.000000 0.985687 0.000000
0.000000 0.983551 0.000000
0.000000 0.980499 0.000000
0.000000 0.975006 0.000000
0.000000 0.966736 0.000000
0.000000 0.955414 0.000000
0.408234 0.942291 0.000000
0.709137 0.927643 0.000000
0.936554 0.911102 0.000000
0.000000 0.000000 0.093811
0.117401 0.000000 0.092072
0.281830 0.000000 0.087708
0.438538 0.000000 0.078247
0.591095 0.000000 0.062714
0.741577 0.000000 0.038849
0.889374 0.000000 0.008850
0.999756 0.000000 0.000000
1.000000 0.000000 0.000000
0.000000 0.091858 0.083984
0.082184 0.082733 0.082520
0.266724 0.042450 0.077820
0.426788 0.000000 0.067261
0.582397 0.000000 0.050507
0.734222 0.000000 0.024445
0.883423 0.000000 0.000793
0.999268 0.000000 0.000000
1.000000 0.000000 0.000000
0.000000 0.225922 0.047333
0.000000 0.221008 0.044739
0.212494 0.207275 0.035583
0.376953 0.183197 0.041351
0.446869 0.151581 0.067688
0.639252 0.040009 0.017944
0.867462 0.000000 0.000000
0.996460 0.000000 0.000000
1.000000 0.000000 0.000000
0.000000 0.355621 0.000000
0.000000 0.351044 0.000000
0.034607 0.341400 0.000000
0.335693 0.325226 0.000000
0.519196 0.300995 0.000000
0.674194 0.264862 0.000000
0.740387 0.225403 0.000000
0.760071 0.130371 0.000000
1.000000 0.000000 0.000000
0.000000 0.481506 0.000000
0.000000 0.477325 0.000000
0.000000 0.469086 0.000000
0.200470 0.456421 0.000000
0.452789 0.440216 0.000000
0.639923 0.416962 0.000000
0.811005 0.383820 0.000000
0.969116 0.339905 0.000000
1.000000 0.281067 0.000000
0.000000 0.605927 0.000000
0.000000 0.602448 0.000000
0.000000 0.595734 0.000000
0.000000 0.585907 0.000000
0.334930 0.572205 0.000000
0.570862 0.554810 0.000000
0.759735 0.532318 0.000000
0.934906 0.502686 0.000000
1.000000 0.462830 0.000000
0.000000 0.731018 0.000000
0.000000 0.727295 0.000000
0.000000 0.721802 0.000000
0.000000 0.713837 0.000000
0.025482 0.701233 0.000000
0.460205 0.687714 0.000000
0.688721 0.670380 0.000000
0.881531 0.648346 0.000000
1.000000 0.619446 0.000000
0.000000 0.856842 0.000000
0.000000 0.854340 0.000000
0.000000 0.849579 0.000000
0.000000 0.842468 0.000000
0.000000 0.832611 0.000000
0.244934 0.819305 0.000000
0.582733 0.805481 0.000000
0.809509 0.788147 0.000000
0.993622 0.766357 0.000000
0.000000 0.984863 0.000000
0.000000 0.983276 0.000000
0.000000 0.979614 0.000000
0.000000 0.974640 0.000000
0.000000 0.966064 0.000000
0.000000 0.953827 0.000000
0.407440 0.941498 0.000000
0.706268 0.927673 0.000000
0.934479 0.910461 0.000000
0.000000 0.000000 0.230225
0.105743 0.000000 0.230865
0.278137 0.000000 0.225739
0.436981 0.000000 0.222565
0.590485 0.000000 0.217194
0.739838 0.000000 0.208405
0.890198 0.000000 0.199554
0.999725 0.000000 0.186768
1.000000 0.000000 0.168365
0.000000 0.088257 0.224701
0.061798 0.079346 0.223389
0.260864 0.036926 0.219727
0.424011 0.000000 0.215973
0.578827 0.000000 0.210754
0.731506 0.000000 0.201416
0.882172 0.000000 0.191406
0.999207 0.000000 0.176239
1.000000 0.000000 0.158112
0.000000 0.224487 0.210999
0.000000 0.218933 0.208435
0.205688 0.205048 0.204926
0.392365 0.177002 0.201721
0.555847 0.121674 0.193787
0.712982 0.019653 0.185242
0.866882 0.000000 0.172699
0.996399 0.000000 0.157776
1.000000 0.000000 0.134583
0.000000 0.354065 0.183533
0.000000 0.349060 0.182068
0.029541 0.339813 0.177734
0.329926 0.324066 0.171570
0.485260 0.305237 0.190338
0.570770 0.288208 0.215485
0.715424 0.234100 0.189728
0.961090 0.080261 0.125793
1.000000 0.000000 0.085327
0.000000 0.479462 0.135162
0.000000 0.475037 0.132172
0.000000 0.467773 0.126495
0.191772 0.455109 0.116638
0.449524 0.438843 0.104736
0.636902 0.415405 0.086487
0.774506 0.388977 0.095367
0.847778 0.364319 0.117584
0.915894 0.319458 0.101227
0.000000 0.604614 0.032440
0.000000 0.600464 0.031799
0.000000 0.594482 0.025879
0.000000 0.584259 0.019348
0.331848 0.569977 0.010712
0.568787 0.553253 0.003296
0.758362 0.530243 0.000000
0.934052 0.500153 0.000000
1.000000 0.461884 0.000000
0.000000 0.729095 0.000000
0.000000 0.726074 0.000000
0.000000 0.721100 0.000000
0.000000 0.712036 0.000000
0.027008 0.699371 0.000000
0.456818 0.686340 0.000000
0.687134 0.668915 0.000000
0.880432 0.647095 0.000000
1.000000 0.618073 0.000000
0.000000 0.855042 0.000000
0.000000 0.853485 0.000000
0.000000 0.848541 0.000000
0.000000 0.841675 0.000000
0.000000 0.831512 0.000000
0.233521 0.818329 0.000000
0.580231 0.805359 0.000000
0.808075 0.786926 0.000000
0.992950 0.765533 0.000000
0.000000 0.983795 0.000000
0.000000 0.983154 0.000000
0.000000 0.979370 0.000000
0.000000 0.973541 0.000000
0.000000 0.965118 0.000000
0.000000 0.954407 0.000000
0.401398 0.940826 0.000000
0.703156 0.927429 0.000000
0.933472 0.910095 0.000000
0.000000 0.000000 0.362579
0.074158 0.000000 0.362366
0.267853 0.000000 0.359467
0.430450 0.000000 0.357269
0.586700 0.000000 0.351624
0.738281 0.000000 0.347687
0.887604 0.000000 0.340820
0.999573 0.000000 0.333527
1.000000 0.000000 0.325256
0.000000 0.080719 0.358246
0.019531 0.070557 0.356262
0.251373 0.025055 0.354187
0.419006 0.000000 0.350037
0.575287 0.000000 0.346222
0.728943 0.000000 0.339691
0.879608 0.000000 0.334015
0.998779 0.000000 0.326630
1.000000 0.000000 0.317657
0.000000 0.221405 0.349854
0.000000 0.215576 0.346069
0.191345 0.201782 0.343109
0.385590 0.172424 0.339966
0.551300 0.118317 0.334686
0.709259 0.017822 0.329376
0.863617 0.000000 0.321930
0.995728 0.000000 0.314270
1.000000 0.000000 0.304321
0.000000 0.352112 0.332794
0.000000 0.346832 0.329773
0.020813 0.337585 0.326202
0.322632 0.321716 0.321350
0.509766 0.296814 0.317322
0.678131 0.259430 0.311035
0.838379 0.196960 0.303162
0.987915 0.063385 0.293549
1.000000 0.000000 0.283020
0.000000 0.477997 0.309082
0.000000 0.473969 0.305511
0.000000 0.465668 0.301331
0.176758 0.453613 0.296234
0.443604 0.436646 0.290314
0.598877 0.420624 0.311157
0.691467 0.408722 0.337402
0.832520 0.369965 0.321136
0.991302 0.289398 0.279938
0.000000 0.603577 0.272003
0.000000 0.599640 0.270203
0.000000 0.592529 0.265778
0.000000 0.582031 0.259308
0.322662 0.568787 0.251678
0.563507 0.551575 0.243805
0.754486 0.528503 0.234833
0.877747 0.509949 0.273499
0.944550 0.495056 0.317871
0.000000 0.727661 0.217224
0.000000 0.724792 0.211395
0.000000 0.718475 0.206757
0.000000 0.710541 0.199463
0.024780 0.698151 0.188965
0.452820 0.684113 0.177338
0.683167 0.666901 0.162567
0.878113 0.645172 0.143738
1.000000 0.617035 0.122345
0.000000 0.854248 0.106018
0.000000 0.851318 0.096069
0.000000 0.847321 0.082336
0.000000 0.840057 0.074524
0.000000 0.830170 0.060883
0.224792 0.816864 0.040955
0.575653 0.803223 0.023163
0.804626 0.786163 0.011932
0.992371 0.763855 0.001831
0.000000 0.983734 0.000000
0.000000 0.981476 0.000000
0.000000 0.978668 0.000000
0.000000 0.972778 0.000000
0.000000 0.964722 0.000000
0.000000 0.953613 0.000000
0.393341 0.940582 0.000000
0.699554 0.926697 0.000000
0.931458 0.909363 0.000000
0.000000 0.000000 0.492218
0.017151 0.000000 0.490845
0.253418 0.000000 0.488647
0.421844 0.000000 0.486298
0.580933 0.000000 0.482208
0.734924 0.000000 0.479462
0.884644 0.000000 0.474426
0.999268 0.000000 0.468994
1.000000 0.000000 0.463898
0.000000 0.068024 0.487946
0.000000 0.056824 0.485229
0.234528 0.011261 0.483429
0.409149 0.000000 0.480377
0.569336 0.000000 0.477020
0.724243 0.000000 0.472198
0.876404 0.000000 0.467804
0.998230 0.000000 0.462280
1.000000 0.000000 0.455658
0.000000 0.217041 0.480408
0.000000 0.211334 0.477966
0.168396 0.196289 0.474548
0.376465 0.166168 0.471619
0.545807 0.105927 0.466187
0.704620 0.010681 0.462646
0.861450 0.000000 0.456299
0.995148 0.000000 0.451782
1.000000 0.000000 0.445129
0.000000 0.348785 0.468323
0.000000 0.344452 0.465637
0.000000 0.334930 0.461731
0.308990 0.318481 0.457733
0.502991 0.293152 0.453583
0.673065 0.255402 0.448425
0.834381 0.192810 0.443573
0.985809 0.052368 0.436554
1.000000 0.000000 0.429596
0.000000 0.476135 0.451904
0.000000 0.471252 0.448700
0.000000 0.463776 0.444672
0.151672 0.450897 0.440033
0.435699 0.434601 0.435669
0.625305 0.411194 0.430664
0.798462 0.378387 0.424622
0.963837 0.332794 0.418854
1.000000 0.262787 0.408264
0.000000 0.601227 0.428101
0.000000 0.597076 0.426147
0.000000 0.590454 0.420898
0.000000 0.580627 0.416199
0.311066 0.566498 0.411133
0.556458 0.549805 0.405151
0.713837 0.534454 0.428040
0.812073 0.524384 0.454285
0.956573 0.493195 0.441559
0.000000 0.726715 0.397461
0.000000 0.723419 0.393066
0.000000 0.717285 0.389893
0.000000 0.709656 0.384583
0.018951 0.696991 0.376923
0.442932 0.683136 0.370514
0.678436 0.665894 0.364044
0.872833 0.643707 0.358215
0.992157 0.628052 0.404663
0.000000 0.852722 0.354492
0.000000 0.849854 0.350555
0.000000 0.846191 0.345642
0.000000 0.838928 0.339996
0.000000 0.829254 0.334076
0.207336 0.815887 0.323334
0.571136 0.801392 0.314911
0.802460 0.784363 0.307373
0.992371 0.762604 0.296143
0.000000 0.982178 0.292267
0.000000 0.980194 0.287292
0.000000 0.977142 0.282654
0.000000 0.972046 0.274750
0.000000 0.963593 0.266602
0.000000 0.952240 0.255432
0.386017 0.938873 0.241943
0.694672 0.925873 0.228790
0.928345 0.908356 0.212738
0.000000 0.000000 0.617920
0.000000 0.000000 0.617798
0.227753 0.000000 0.614868
0.409058 0.000000 0.612549
0.570709 0.000000 0.610046
0.726593 0.000000 0.607086
0.879059 0.000000 0.603333
0.998505 0.000000 0.599640
1.000000 0.000000 0.594727
0.000000 0.049042 0.613892
0.000000 0.034271 0.612823
0.208496 0.000671 0.610596
0.396790 0.000000 0.607819
0.561005 0.000000 0.605103
0.717865 0.000000 0.600922
0.871307 0.000000 0.598114
0.997375 0.000000 0.593109
1.000000 0.000000 0.588867
0.000000 0.209900 0.608185
0.000000 0.204285 0.605988
0.130280 0.189026 0.602509
0.362518 0.157867 0.600555
0.536438 0.093323 0.595764
0.698700 0.002167 0.593842
0.855835 0.000000 0.588745
0.993774 0.000000 0.585114
1.000000 0.000000 0.579224
0.000000 0.344177 0.599304
0.000000 0.339874 0.596466
0.000000 0.329926 0.592896
0.292389 0.314087 0.589722
0.493835 0.288025 0.585693
0.667175 0.248993 0.580933
0.829956 0.184448 0.576965
0.984833 0.029938 0.570953
1.000000 0.000000 0.566498
0.000000 0.472534 0.586029
0.000000 0.468842 0.582947
0.000000 0.460938 0.579651
0.101410 0.447937 0.575073
0.422821 0.431549 0.570801
0.619415 0.407562 0.566193
0.793152 0.374634 0.561890
0.960846 0.327423 0.556915
1.000000 0.256012 0.549805
0.000000 0.598938 0.569153
0.000000 0.594757 0.566650
0.000000 0.588135 0.563080
0.000000 0.578339 0.557861
0.292511 0.564087 0.552521
0.548889 0.546722 0.548645
0.743011 0.524323 0.544098
0.920868 0.494781 0.538513
1.000000 0.454529 0.532593
0.000000 0.724792 0.547028
0.000000 0.721283 0.543152
0.000000 0.715637 0.540131
0.000000 0.707092 0.535645
0.012512 0.695099 0.529175
0.433136 0.680725 0.524048
0.670654 0.663574 0.519501
0.831390 0.649597 0.544464
0.935699 0.641205 0.570831
0.000000 0.851685 0.518341
0.000000 0.848816 0.515900
0.000000 0.845245 0.511780
0.000000 0.837341 0.506836
0.000000 0.827637 0.501617
0.172638 0.814209 0.493256
0.561951 0.800140 0.487213
0.797089 0.782501 0.482025
0.990295 0.761230 0.477570
0.000000 0.980621 0.482697
0.000000 0.979370 0.478424
0.000000 0.975586 0.475098
0.000000 0.970215 0.469269
0.000000 0.962097 0.464111
0.000000 0.950684 0.455231
0.371521 0.938019 0.447144
0.691345 0.923279 0.440277
0.926971 0.906189 0.432495
0.000000 0.000000 0.741638
0.000000 0.000000 0.741455
0.193420 0.000000 0.738708
0.391663 0.000000 0.737854
0.559265 0.000000 0.734528
0.718170 0.000000 0.732880
0.871765 0.000000 0.729401
0.997284 0.000000 0.726898
1.000000 0.000000 0.722778
0.000000 0.021515 0.740326
0.000000 0.009186 0.738586
0.169739 0.000000 0.736450
0.380188 0.000000 0.734039
0.549255 0.000000 0.731140
0.709564 0.000000 0.728790
0.865082 0.000000 0.726685
0.995880 0.000000 0.722168
1.000000 0.000000 0.719025
0.000000 0.201569 0.736816
0.000000 0.196106 0.732971
0.049438 0.179688 0.729309
0.342865 0.145782 0.727692
0.525543 0.070709 0.724091
0.690582 0.000000 0.721924
0.848755 0.000000 0.717773
0.991699 0.000000 0.714233
1.000000 0.000000 0.710022
0.000000 0.339111 0.727386
0.000000 0.335144 0.724762
0.000000 0.324738 0.721008
0.266998 0.308167 0.718292
0.481415 0.281342 0.715118
0.658569 0.241669 0.711823
0.824066 0.171631 0.708405
0.982635 0.020264 0.703156
1.000000 0.000000 0.699768
0.000000 0.469299 0.717804
0.000000 0.464874 0.714996
0.000000 0.456940 0.711273
0.057861 0.443817 0.707245
0.408539 0.427002 0.703888
0.609314 0.403320 0.699677
0.787415 0.368866 0.695618
0.954987 0.322357 0.690552
1.000000 0.248962 0.685852
0.000000 0.596191 0.704163
0.000000 0.592010 0.701599
0.000000 0.585358 0.698181
0.000000 0.575806 0.693939
0.268463 0.561035 0.688629
0.536102 0.544006 0.685150
0.735718 0.520386 0.680939
0.915924 0.490631 0.677002
1.000000 0.451050 0.670929
0.000000 0.722473 0.687103
0.000000 0.718781 0.683807
0.000000 0.713318 0.681305
0.000000 0.705017 0.677246
0.000000 0.693085 0.671295
0.415680 0.678558 0.666260
0.661652 0.661316 0.662018
0.860657 0.639465 0.658447
0.999481 0.611115 0.652954
0.000000 0.849792 0.666077
0.000000 0.847229 0.663666
0.000000 0.842590 0.659241
0.000000 0.835999 0.656158
0.000000 0.825684 0.650879
0.105865 0.811859 0.643311
0.551178 0.798126 0.640076
0.789154 0.780334 0.634735
0.954559 0.767578 0.660431
0.000000 0.979675 0.640320
0.000000 0.978363 0.636719
0.000000 0.974609 0.634766
0.000000 0.969238 0.630005
0.000000 0.960388 0.624298
0.000000 0.949829 0.617615
0.352600 0.936462 0.609772
0.680542 0.922699 0.604706
0.918976 0.904755 0.599243
0.000000 0.000000 0.865387
0.000000 0.000000 0.864532
0.130280 0.000000 0.862427
0.369995 0.000000 0.860535
0.546051 0.000000 0.858673
0.707123 0.000000 0.857147
0.863495 0.000000 0.854584
0.996063 0.000000 0.852722
1.000000 0.000000 0.850616
0.000000 0.000000 0.864227
0.000000 0.000000 0.863220
0.094666 0.000000 0.861023
0.356598 0.000000 0.858856
0.535645 0.000000 0.856720
0.699951 0.000000 0.854492
0.857086 0.000000 0.852020
0.994476 0.000000 0.849426
1.000000 0.000000 0.846893
0.000000 0.191162 0.860382
0.000000 0.185120 0.857910
0.000031 0.167297 0.855896
0.317078 0.130432 0.853210
0.510071 0.048615 0.850159
0.679230 0.000000 0.848541
0.840759 0.000000 0.846008
0.989868 0.000000 0.844727
1.000000 0.000000 0.840515
0.000000 0.333435 0.855225
0.000000 0.328949 0.852173
0.000000 0.318420 0.848969
0.230774 0.301544 0.845978
0.463623 0.273865 0.843689
0.647034 0.232117 0.840515
0.814758 0.160522 0.838623
0.977631 0.014709 0.834686
1.000000 0.000000 0.831421
0.000000 0.464813 0.846405
0.000000 0.460358 0.843475
0.000000 0.452362 0.840851
0.003265 0.439148 0.836884
0.387054 0.422028 0.834198
0.597321 0.397675 0.831238
0.779358 0.363007 0.827484
0.949127 0.313904 0.824371
1.000000 0.238129 0.820129
0.000000 0.593689 0.834747
0.000000 0.588745 0.833252
0.000000 0.582153 0.830811
0.000000 0.572235 0.826904
0.230408 0.557465 0.822876
0.522552 0.540375 0.819366
0.726013 0.516876 0.816437
0.909851 0.485840 0.812347
1.000000 0.445679 0.808380
0.000000 0.719513 0.823090
0.000000 0.716553 0.820282
0.000000 0.710388 0.816956
0.000000 0.702728 0.814514
0.000000 0.690887 0.809235
0.395294 0.675812 0.804077
0.650970 0.658875 0.801910
0.853973 0.635895 0.797333
1.000000 0.607269 0.793640
0.000000 0.848083 0.806396
0.000000 0.844574 0.804108
0.000000 0.840271 0.802246
0.000000 0.834198 0.798340
0.000000 0.823456 0.793396
0.056885 0.810120 0.787170
0.536316 0.796326 0.781952
0.779144 0.778442 0.780182
0.981842 0.757233 0.776306
0.000000 0.978424 0.787476
0.000000 0.977112 0.784027
0.000000 0.972656 0.782532
0.000000 0.967560 0.778778
0.000000 0.959900 0.773163
0.000000 0.948181 0.767395
0.328186 0.934570 0.761230
0.670166 0.921265 0.758118
0.911255 0.902283 0.754364
0.000000 0.000000 0.983917
0.000000 0.000000 0.984924
0.051636 0.000000 0.983673
0.343109 0.000000 0.982178
0.529968 0.000000 0.981537
0.697296 0.000000 0.980896
0.855133 0.000000 0.979370
0.994720 0.000000 0.978973
1.000000 0.000000 0.977051
0.000000 0.000000 0.983978
0.000000 0.000000 0.983826
0.005615 0.000000 0.982910
0.326202 0.000000 0.981567
0.517303 0.000000 0.980774
0.686768 0.000000 0.979248
0.846741 0.000000 0.978210
0.991730 0.000000 0.976959
1.000000 0.000000 0.974823
0.000000 0.178345 0.981354
0.000000 0.170380 0.981201
0.000000 0.152008 0.979675
0.282257 0.108612 0.978058
0.489899 0.027252 0.977112
0.666443 0.000000 0.975616
0.830902 0.000000 0.973694
0.986359 0.000000 0.972137
1.000000 0.000000 0.970520
0.000000 0.326721 0.977661
0.000000 0.321320 0.977509
0.000000 0.310730 0.975189
0.178406 0.291962 0.972900
0.442566 0.264465 0.971008
0.632446 0.221527 0.969269
0.804199 0.140381 0.967316
0.969788 0.000000 0.964752
1.000000 0.000000 0.963165
0.000000 0.459869 0.972260
0.000000 0.455292 0.972076
0.000000 0.447968 0.969666
0.000000 0.434540 0.966522
0.359863 0.416107 0.963745
0.581818 0.390991 0.962402
0.767853 0.355988 0.959351
0.940216 0.306335 0.958282
1.000000 0.226990 0.954712
0.000000 0.588409 0.963959
0.000000 0.584900 0.965027
0.000000 0.577911 0.962372
0.000000 0.568298 0.958771
0.169952 0.552673 0.955963
0.504211 0.535400 0.953400
0.714447 0.511993 0.950989
0.900909 0.480621 0.948181
1.000000 0.439423 0.945404
0.000000 0.716339 0.955963
0.000000 0.713165 0.954132
0.000000 0.707977 0.952789
0.000000 0.698883 0.950134
0.000000 0.686859 0.945709
0.370575 0.671661 0.941742
0.638214 0.654083 0.939850
0.845886 0.632080 0.937225
0.999420 0.603271 0.934601
0.000000 0.844971 0.943665
0.000000 0.841949 0.942627
0.000000 0.838409 0.940582
0.000000 0.831085 0.938202
0.000000 0.821472 0.934845
0.026276 0.807373 0.929504
0.516693 0.793121 0.925415
0.769409 0.775970 0.923248
0.978668 0.753510 0.920013
0.000000 0.976105 0.928802
0.000000 0.974884 0.927734
0.000000 0.971100 0.926178
0.000000 0.966125 0.923462
0.000000 0.958374 0.920441
0.000000 0.946716 0.915161
0.292633 0.932312 0.908966
0.658386 0.919342 0.906342
0.902039 0.899902 0.902039
