usr/bin/LUTs/DJI-DLOG-V2-LOG-to-709.cube
# Copyright: (C) Copyright 2010-2018 by IWLTBAP SAS
# Cannot be resold, shared or otherwise redistributed
# Website: https://luts.iwltbap.com
TITLE "DJI D-Log V2 (Utility LOG to Rec.709)"
LUT_3D_SIZE 5
0.000000 0.000000 0.000000
0.283417 0.000000 0.000000
0.592010 0.000000 0.000000
0.891815 0.000000 0.000000
1.000000 0.000000 0.000000
0.000000 0.227692 0.000000
0.215271 0.208282 0.000000
0.486938 0.142639 0.000000
0.863617 0.000000 0.000000
1.000000 0.000000 0.000000
0.000000 0.482391 0.000000
0.000000 0.471405 0.000000
0.454346 0.442474 0.000000
0.811005 0.386536 0.000000
1.000000 0.279449 0.000000
0.000000 0.731873 0.000000
0.000000 0.724060 0.000000
0.028229 0.702637 0.000000
0.689728 0.671875 0.000000
1.000000 0.621307 0.000000
0.000000 0.985687 0.000000
0.000000 0.980499 0.000000
0.000000 0.966736 0.000000
0.408234 0.942291 0.000000
0.936554 0.911102 0.000000
0.000000 0.000000 0.230225
0.278137 0.000000 0.225739
0.590485 0.000000 0.217194
0.890198 0.000000 0.199554
1.000000 0.000000 0.168365
0.000000 0.224487 0.210999
0.205688 0.205048 0.204926
0.555847 0.121674 0.193787
0.866882 0.000000 0.172699
1.000000 0.000000 0.134583
0.000000 0.479462 0.135162
0.000000 0.467773 0.126495
0.449524 0.438843 0.104736
0.774506 0.388977 0.095367
0.915894 0.319458 0.101227
0.000000 0.729095 0.000000
0.000000 0.721100 0.000000
0.027008 0.699371 0.000000
0.687134 0.668915 0.000000
1.000000 0.618073 0.000000
0.000000 0.983795 0.000000
0.000000 0.979370 0.000000
0.000000 0.965118 0.000000
0.401398 0.940826 0.000000
0.933472 0.910095 0.000000
0.000000 0.000000 0.492218
0.253418 0.000000 0.488647
0.580933 0.000000 0.482208
0.884644 0.000000 0.474426
1.000000 0.000000 0.463898
0.000000 0.217041 0.480408
0.168396 0.196289 0.474548
0.545807 0.105927 0.466187
0.861450 0.000000 0.456299
1.000000 0.000000 0.445129
0.000000 0.476135 0.451904
0.000000 0.463776 0.444672
0.435699 0.434601 0.435669
0.798462 0.378387 0.424622
1.000000 0.262787 0.408264
0.000000 0.726715 0.397461
0.000000 0.717285 0.389893
0.018951 0.696991 0.376923
0.678436 0.665894 0.364044
0.992157 0.628052 0.404663
0.000000 0.982178 0.292267
0.000000 0.977142 0.282654
0.000000 0.963593 0.266602
0.386017 0.938873 0.241943
0.928345 0.908356 0.212738
0.000000 0.000000 0.741638
0.193420 0.000000 0.738708
0.559265 0.000000 0.734528
0.871765 0.000000 0.729401
1.000000 0.000000 0.722778
0.000000 0.201569 0.736816
0.049438 0.179688 0.729309
0.525543 0.070709 0.724091
0.848755 0.000000 0.717773
1.000000 0.000000 0.710022
0.000000 0.469299 0.717804
0.000000 0.456940 0.711273
0.408539 0.427002 0.703888
0.787415 0.368866 0.695618
1.000000 0.248962 0.685852
0.000000 0.722473 0.687103
0.000000 0.713318 0.681305
0.000000 0.693085 0.671295
0.661652 0.661316 0.662018
0.999481 0.611115 0.652954
0.000000 0.979675 0.640320
0.000000 0.974609 0.634766
0.000000 0.960388 0.624298
0.352600 0.936462 0.609772
0.918976 0.904755 0.599243
0.000000 0.000000 0.983917
0.051636 0.000000 0.983673
0.529968 0.000000 0.981537
0.855133 0.000000 0.979370
1.000000 0.000000 0.977051
0.000000 0.178345 0.981354
0.000000 0.152008 0.979675
0.489899 0.027252 0.977112
0.830902 0.000000 0.973694
1.000000 0.000000 0.970520
0.000000 0.459869 0.972260
0.000000 0.447968 0.969666
0.359863 0.416107 0.963745
0.767853 0.355988 0.959351
1.000000 0.226990 0.954712
0.000000 0.716339 0.955963
0.000000 0.707977 0.952789
0.000000 0.686859 0.945709
0.638214 0.654083 0.939850
0.999420 0.603271 0.934601
0.000000 0.976105 0.928802
0.000000 0.971100 0.926178
0.000000 0.958374 0.920441
0.292633 0.932312 0.908966
0.902039 0.899902 0.902039
