usr/bin/LUTs/DJI-DLOG-V2-LOG-to-709.cube
# Copyright: (C) Copyright 2010-2018 by IWLTBAP SAS
# Cannot be resold, shared or otherwise redistributed
# Website: https://luts.iwltbap.com
TITLE "DJI D-Log V2 (Utility LOG to Rec.709)"
LUT_3D_SIZE 33
0.000000 0.000000 0.000000
0.011139 0.000000 0.000000
0.040558 0.000000 0.000000
0.079926 0.000000 0.000000
0.121368 0.000000 0.000000
0.162292 0.000000 0.000000
0.203552 0.000000 0.000000
0.243500 0.000000 0.000000
0.283417 0.000000 0.000000
0.322693 0.000000 0.000000
0.362000 0.000000 0.000000
0.400574 0.000000 0.000000
0.440094 0.000000 0.000000
0.479218 0.000000 0.000000
0.517395 0.000000 0.000000
0.554993 0.000000 0.000000
0.592010 0.000000 0.000000
0.630249 0.000000 0.000000
0.668060 0.000000 0.000000
0.705658 0.000000 0.000000
0.742889 0.000000 0.000000
0.780060 0.000000 0.000000
0.818237 0.000000 0.000000
0.855042 0.000000 0.000000
0.891815 0.000000 0.000000
0.928284 0.000000 0.000000
0.964569 0.000000 0.000000
0.998199 0.000000 0.000000
0.999786 0.000000 0.000000
1.000000 0.000000 0.000000
1.000000 0.000000 0.000000
1.000000 0.000000 0.000000
1.000000 0.000000 0.000000
0.000000 0.007416 0.000000
0.006531 0.006439 0.000000
0.030090 0.005768 0.002075
0.069275 0.003540 0.001221
0.115143 0.000000 0.000000
0.159058 0.000000 0.000000
0.201416 0.000000 0.000000
0.241791 0.000000 0.000000
0.281830 0.000000 0.000000
0.321228 0.000000 0.000000
0.360626 0.000000 0.000000
0.399261 0.000000 0.000000
0.438538 0.000000 0.000000
0.477692 0.000000 0.000000
0.516113 0.000000 0.000000
0.553925 0.000000 0.000000
0.591644 0.000000 0.000000
0.629944 0.000000 0.000000
0.667145 0.000000 0.000000
0.704224 0.000000 0.000000
0.741516 0.000000 0.000000
0.778625 0.000000 0.000000
0.816864 0.000000 0.000000
0.853668 0.000000 0.000000
0.890808 0.000000 0.000000
0.927612 0.000000 0.000000
0.964386 0.000000 0.000000
0.998047 0.000000 0.000000
0.999725 0.000000 0.000000
1.000000 0.000000 0.000000
1.000000 0.000000 0.000000
1.000000 0.000000 0.000000
1.000000 0.000000 0.000000
0.000000 0.027588 0.000000
0.000000 0.026245 0.000000
0.024628 0.023590 0.000000
0.061096 0.021057 0.002502
0.091888 0.018066 0.006287
0.131744 0.011597 0.003693
0.183624 0.000427 0.000000
0.234070 0.000000 0.000000
0.278900 0.000000 0.000000
0.319000 0.000000 0.000000
0.358612 0.000000 0.000000
0.397491 0.000000 0.000000
0.436401 0.000000 0.000000
0.475372 0.000000 0.000000
0.513885 0.000000 0.000000
0.552277 0.000000 0.000000
0.590088 0.000000 0.000000
0.628418 0.000000 0.000000
0.666046 0.000000 0.000000
0.703430 0.000000 0.000000
0.740295 0.000000 0.000000
0.777344 0.000000 0.000000
0.815399 0.000000 0.000000
0.851868 0.000000 0.000000
0.889221 0.000000 0.000000
0.926392 0.000000 0.000000
0.963165 0.000000 0.000000
0.997559 0.000000 0.000000
0.999695 0.000000 0.000000
1.000000 0.000000 0.000000
1.000000 0.000000 0.000000
1.000000 0.000000 0.000000
1.000000 0.000000 0.000000
0.000000 0.058838 0.000000
0.000000 0.057770 0.000000
0.005951 0.055359 0.000000
0.054901 0.051422 0.000031
0.101593 0.046356 0.000977
0.126953 0.042450 0.005768
0.152039 0.035706 0.010071
0.186920 0.023712 0.006561
0.240753 0.006500 0.000000
0.299774 0.000519 0.000000
0.350372 0.000000 0.000000
0.393219 0.000000 0.000000
0.433075 0.000000 0.000000
0.471954 0.000000 0.000000
0.510468 0.000000 0.000000
0.549042 0.000000 0.000000
0.587189 0.000000 0.000000
0.625641 0.000000 0.000000
0.663605 0.000000 0.000000
0.701385 0.000000 0.000000
0.738800 0.000000 0.000000
0.775909 0.000000 0.000000
0.813507 0.000000 0.000000
0.849731 0.000000 0.000000
0.886627 0.000000 0.000000
0.923828 0.000000 0.000000
0.960876 0.000000 0.000000
0.996674 0.000000 0.000000
0.999603 0.000000 0.000000
1.000000 0.000000 0.000000
1.000000 0.000000 0.000000
1.000000 0.000000 0.000000
1.000000 0.000000 0.000000
0.000000 0.093048 0.000000
0.000000 0.092316 0.000000
0.000000 0.090637 0.000000
0.026276 0.087433 0.000000
0.087860 0.083221 0.000000
0.137543 0.077606 0.000183
0.176147 0.071655 0.001251
0.194000 0.066742 0.004913
0.212036 0.057892 0.011353
0.240448 0.041931 0.008209
0.285736 0.021881 0.001801
0.347351 0.005981 0.000000
0.410217 0.000000 0.000000
0.463257 0.000000 0.000000
0.506439 0.000000 0.000000
0.544983 0.000000 0.000000
0.583893 0.000000 0.000000
0.622559 0.000000 0.000000
0.660675 0.000000 0.000000
0.698303 0.000000 0.000000
0.735809 0.000000 0.000000
0.773041 0.000000 0.000000
0.810760 0.000000 0.000000
0.847351 0.000000 0.000000
0.884125 0.000000 0.000000
0.921387 0.000000 0.000000
0.958221 0.000000 0.000000
0.995331 0.000000 0.000000
0.999390 0.000000 0.000000
1.000000 0.000000 0.000000
1.000000 0.000000 0.000000
1.000000 0.000000 0.000000
1.000000 0.000000 0.000000
0.000000 0.127136 0.000000
0.000000 0.126160 0.000000
0.000000 0.125031 0.000000
0.000000 0.122589 0.000000
0.058624 0.119446 0.000000
0.120239 0.114777 0.000000
0.171295 0.109222 0.000000
0.216614 0.102295 0.000000
0.247437 0.095673 0.000671
0.262848 0.089752 0.002716
0.276764 0.079712 0.006897
0.298859 0.063385 0.006012
0.335724 0.040680 0.002869
0.388092 0.017914 0.000000
0.453583 0.000000 0.000000
0.522858 0.000000 0.000000
0.577698 0.000000 0.000000
0.618439 0.000000 0.000000
0.656647 0.000000 0.000000
0.694366 0.000000 0.000000
0.731689 0.000000 0.000000
0.769043 0.000000 0.000000
0.806885 0.000000 0.000000
0.843994 0.000000 0.000000
0.881317 0.000000 0.000000
0.918732 0.000000 0.000000
0.956146 0.000000 0.000000
0.993195 0.000000 0.000000
0.999054 0.000000 0.000000
1.000000 0.000000 0.000000
1.000000 0.000000 0.000000
1.000000 0.000000 0.000000
1.000000 0.000000 0.000000
0.000000 0.161316 0.000000
0.000000 0.160400 0.000000
0.000000 0.159576 0.000000
0.000000 0.157837 0.000000
0.007965 0.154938 0.000000
0.091797 0.151184 0.000000
0.152618 0.146484 0.000000
0.203217 0.141205 0.000000
0.250031 0.134552 0.000000
0.290039 0.127106 0.000000
0.317017 0.119568 0.000000
0.333160 0.112183 0.001984
0.345398 0.101807 0.002075
0.360565 0.084900 0.000061
0.391357 0.060211 0.000153
0.432556 0.040497 0.000000
0.482910 0.004608 0.000000
0.572235 0.000000 0.000000
0.639404 0.000000 0.000000
0.686279 0.000000 0.000000
0.726440 0.000000 0.000000
0.764130 0.000000 0.000000
0.802277 0.000000 0.000000
0.839752 0.000000 0.000000
0.877502 0.000000 0.000000
0.915405 0.000000 0.000000
0.952942 0.000000 0.000000
0.990082 0.000000 0.000000
0.998474 0.000000 0.000000
1.000000 0.000000 0.000000
1.000000 0.000000 0.000000
1.000000 0.000000 0.000000
1.000000 0.000000 0.000000
0.000000 0.194763 0.000000
0.000000 0.193848 0.000000
0.000000 0.193146 0.000000
0.000000 0.191650 0.000000
0.000092 0.189209 0.000000
0.043030 0.186035 0.000000
0.125854 0.182129 0.000000
0.184052 0.177948 0.000000
0.234833 0.172760 0.000000
0.280701 0.166626 0.000000
0.324371 0.158691 0.000000
0.361267 0.150116 0.000000
0.387482 0.141693 0.000000
0.404449 0.133179 0.000000
0.416382 0.122437 0.000092
0.426025 0.105499 0.000000
0.442810 0.082733 0.000000
0.467194 0.053680 0.000000
0.517639 0.020294 0.000000
0.595978 0.005920 0.000000
0.668732 0.000000 0.000000
0.740692 0.000000 0.000000
0.795898 0.000000 0.000000
0.835052 0.000000 0.000000
0.873291 0.000000 0.000000
0.911255 0.000000 0.000000
0.949036 0.000000 0.000000
0.986420 0.000000 0.000000
0.997742 0.000000 0.000000
1.000000 0.000000 0.000000
1.000000 0.000000 0.000000
1.000000 0.000000 0.000000
1.000000 0.000000 0.000000
0.000000 0.227692 0.000000
0.000000 0.227203 0.000000
0.000000 0.225983 0.000000
0.000000 0.224304 0.000000
0.000000 0.222321 0.000000
0.003357 0.219940 0.000000
0.084045 0.216492 0.000000
0.158752 0.212433 0.000000
0.215271 0.208282 0.000000
0.264618 0.203339 0.000000
0.311157 0.196838 0.000000
0.355621 0.189240 0.000000
0.397919 0.180481 0.000000
0.432892 0.171631 0.000000
0.458038 0.163147 0.000000
0.475586 0.153534 0.000000
0.486938 0.142639 0.000000
0.493378 0.128510 0.000000
0.499603 0.108582 0.000000
0.515106 0.071014 0.000000
0.567780 0.043091 0.000000
0.633240 0.022858 0.000000
0.695709 0.000000 0.000000
0.792755 0.000000 0.000000
0.863617 0.000000 0.000000
0.904602 0.000000 0.000000
0.943787 0.000000 0.000000
0.982086 0.000000 0.000000
0.996765 0.000000 0.000000
1.000000 0.000000 0.000000
1.000000 0.000000 0.000000
1.000000 0.000000 0.000000
1.000000 0.000000 0.000000
0.000000 0.260071 0.000000
0.000000 0.259644 0.000000
0.000000 0.258453 0.000000
0.000000 0.256958 0.000000
0.000000 0.255157 0.000000
0.000000 0.253052 0.000000
0.014618 0.249969 0.000000
0.123322 0.246277 0.000000
0.191772 0.242188 0.000000
0.246796 0.238068 0.000000
0.296539 0.232605 0.000000
0.342590 0.226288 0.000000
0.387756 0.219269 0.000000
0.431030 0.211456 0.000000
0.470001 0.202881 0.000000
0.504028 0.193329 0.000000
0.531250 0.183502 0.000000
0.550598 0.173218 0.000000
0.561218 0.162476 0.000000
0.565735 0.148865 0.000000
0.569824 0.127502 0.000000
0.575958 0.089264 0.000000
0.604675 0.059052 0.000000
0.652435 0.027557 0.000000
0.727570 0.000000 0.000000
0.829712 0.000000 0.000000
0.895660 0.000000 0.000000
0.964905 0.000000 0.000000
0.995392 0.000000 0.000000
1.000000 0.000000 0.000000
1.000000 0.000000 0.000000
1.000000 0.000000 0.000000
1.000000 0.000000 0.000000
0.000000 0.291901 0.000000
0.000000 0.291748 0.000000
0.000000 0.290619 0.000000
0.000000 0.288940 0.000000
0.000000 0.287354 0.000000
0.000000 0.285492 0.000000
0.000305 0.282806 0.000000
0.057617 0.279877 0.000000
0.158203 0.276154 0.000000
0.222900 0.272034 0.000000
0.277771 0.267303 0.000000
0.326874 0.261871 0.000000
0.373596 0.256012 0.000000
0.418243 0.249603 0.000000
0.461212 0.242157 0.000000
0.503052 0.233337 0.000000
0.542145 0.223755 0.000000
0.577576 0.213318 0.000000
0.606506 0.202484 0.000000
0.626465 0.191620 0.000000
0.635101 0.180176 0.000000
0.639618 0.166199 0.000000
0.643890 0.147766 0.000000
0.644562 0.118469 0.000000
0.647064 0.078186 0.000000
0.659546 0.025208 0.000000
0.761383 0.015076 0.000000
0.868866 0.000000 0.000000
0.935516 0.000000 0.000000
0.996002 0.000000 0.000000
1.000000 0.000000 0.000000
1.000000 0.000000 0.000000
1.000000 0.000000 0.000000
0.000000 0.324127 0.000000
0.000000 0.323975 0.000000
0.000000 0.323029 0.000000
0.000000 0.321289 0.000000
0.000000 0.319550 0.000000
0.000000 0.317841 0.000000
0.000000 0.315674 0.000000
0.017609 0.313232 0.000000
0.104095 0.309784 0.000000
0.190643 0.305511 0.000000
0.252686 0.301300 0.000000
0.307281 0.296509 0.000000
0.356842 0.291473 0.000000
0.403473 0.285706 0.000000
0.448303 0.279114 0.000000
0.492096 0.271606 0.000000
0.534515 0.263611 0.000000
0.576447 0.254150 0.000000
0.615814 0.243317 0.000000
0.651337 0.232330 0.000000
0.679871 0.221191 0.000000
0.699615 0.209930 0.000000
0.713745 0.198120 0.000000
0.721832 0.185150 0.000000
0.723541 0.167999 0.000000
0.719025 0.143951 0.000000
0.708618 0.101990 0.000000
0.707001 0.029327 0.000000
0.758362 0.012482 0.000000
0.865479 0.001862 0.000000
0.970795 0.000000 0.000000
0.998474 0.000000 0.000000
0.998871 0.000000 0.000000
0.000000 0.356567 0.000000
0.000000 0.356445 0.000000
0.000000 0.355530 0.000000
0.000000 0.353821 0.000000
0.000000 0.352203 0.000000
0.000000 0.350433 0.000000
0.000000 0.348694 0.000000
0.000000 0.346497 0.000000
0.033661 0.343323 0.000000
0.143555 0.339203 0.000000
0.221191 0.334900 0.000000
0.282227 0.331024 0.000000
0.336731 0.326233 0.000000
0.386078 0.321198 0.000000
0.432983 0.315186 0.000000
0.478790 0.308624 0.000000
0.522766 0.301910 0.000000
0.566132 0.293732 0.000000
0.607880 0.284271 0.000000
0.649017 0.274139 0.000000
0.688477 0.263702 0.000000
0.723267 0.252869 0.000000
0.753601 0.241455 0.000000
0.777649 0.229919 0.000000
0.795868 0.216583 0.000000
0.805481 0.201263 0.000000
0.806488 0.184204 0.000000
0.800171 0.162567 0.000000
0.786835 0.126678 0.000000
0.771973 0.064270 0.000000
0.780334 0.012970 0.000000
0.828766 0.000000 0.000000
0.981110 0.000000 0.000000
0.000000 0.388306 0.000000
0.000000 0.388428 0.000000
0.000000 0.387299 0.000000
0.000000 0.385651 0.000000
0.000000 0.384338 0.000000
0.000000 0.382568 0.000000
0.000000 0.380890 0.000000
0.000000 0.378906 0.000000
0.000000 0.375977 0.000000
0.060394 0.372345 0.000000
0.179016 0.368439 0.000000
0.251831 0.364594 0.000000
0.312347 0.360504 0.000000
0.366455 0.355682 0.000000
0.415588 0.350372 0.000000
0.463257 0.344421 0.000000
0.509155 0.338287 0.000000
0.553741 0.331116 0.000000
0.596313 0.323181 0.000000
0.638245 0.314453 0.000000
0.679291 0.305389 0.000000
0.720093 0.295685 0.000000
0.759064 0.284882 0.000000
0.793976 0.273926 0.000000
0.826019 0.261292 0.000000
0.852814 0.247101 0.000000
0.872711 0.231903 0.000000
0.887268 0.216431 0.000000
0.890625 0.198059 0.000000
0.885529 0.174561 0.000000
0.872223 0.136322 0.000000
0.861816 0.100159 0.000000
0.854523 0.034210 0.000000
0.000000 0.419617 0.000000
0.000000 0.419739 0.000000
0.000000 0.419037 0.000000
0.000000 0.417053 0.000000
0.000000 0.415833 0.000000
0.000000 0.414551 0.000000
0.000000 0.412506 0.000000
0.000000 0.410614 0.000000
0.000000 0.407928 0.000000
0.027222 0.404938 0.000000
0.109680 0.401550 0.000000
0.213104 0.397949 0.000000
0.283295 0.393982 0.000000
0.342804 0.389587 0.000000
0.396332 0.384766 0.000000
0.445526 0.379517 0.000000
0.493378 0.373627 0.000000
0.539429 0.367218 0.000000
0.583099 0.360352 0.000000
0.625946 0.352844 0.000000
0.667969 0.344696 0.000000
0.709015 0.336487 0.000000
0.750153 0.326630 0.000000
0.789642 0.316711 0.000000
0.828766 0.305115 0.000000
0.865479 0.291992 0.000000
0.897797 0.277954 0.000000
0.927429 0.263702 0.000000
0.951416 0.248169 0.000000
0.965759 0.231415 0.000000
0.969208 0.212311 0.000000
0.961243 0.187042 0.000000
0.948578 0.147095 0.000000
0.000000 0.451233 0.000000
0.000000 0.451263 0.000000
0.000000 0.450684 0.000000
0.000000 0.448730 0.000000
0.000000 0.447571 0.000000
0.000000 0.446411 0.000000
0.000000 0.444458 0.000000
0.000000 0.442261 0.000000
0.000000 0.439728 0.000000
0.000000 0.437378 0.000000
0.051117 0.434174 0.000000
0.158508 0.430756 0.000000
0.247620 0.427032 0.000000
0.314941 0.423004 0.000000
0.373169 0.418610 0.000000
0.425995 0.413818 0.000000
0.475281 0.408569 0.000000
0.523132 0.402740 0.000000
0.568298 0.396576 0.000000
0.612335 0.389832 0.000000
0.655396 0.382416 0.000000
0.697449 0.374603 0.000000
0.739441 0.366028 0.000000
0.779938 0.357391 0.000000
0.821014 0.347168 0.000000
0.861938 0.335449 0.000000
0.900787 0.322784 0.000000
0.938110 0.309753 0.000000
0.973328 0.295715 0.000000
0.988037 0.280609 0.000000
0.999969 0.264648 0.000000
1.000000 0.246887 0.000000
1.000000 0.226440 0.000000
0.000000 0.482391 0.000000
0.000000 0.482300 0.000000
0.000000 0.481506 0.000000
0.000000 0.480011 0.000000
0.000000 0.478912 0.000000
0.000000 0.477783 0.000000
0.000000 0.475922 0.000000
0.000000 0.473785 0.000000
0.000000 0.471405 0.000000
0.000000 0.469299 0.000000
0.000000 0.466278 0.000000
0.074188 0.462952 0.000000
0.199615 0.459381 0.000000
0.280182 0.455688 0.000000
0.344574 0.451599 0.000000
0.401703 0.447235 0.000000
0.454346 0.442474 0.000000
0.504364 0.437195 0.000000
0.551758 0.431458 0.000000
0.597534 0.425293 0.000000
0.641754 0.418457 0.000000
0.684875 0.410889 0.000000
0.727692 0.403168 0.000000
0.769623 0.395569 0.000000
0.811005 0.386536 0.000000
0.852509 0.376526 0.000000
0.893677 0.365662 0.000000
0.933838 0.354156 0.000000
0.973724 0.341492 0.000000
0.996490 0.328094 0.000000
1.000000 0.313812 0.000000
1.000000 0.297913 0.000000
1.000000 0.279449 0.000000
0.000000 0.514648 0.000000
0.000000 0.513672 0.000000
0.000000 0.513184 0.000000
0.000000 0.512268 0.000000
0.000000 0.510925 0.000000
0.000000 0.509552 0.000000
0.000000 0.507782 0.000000
0.000000 0.505646 0.000000
0.000000 0.502899 0.000000
0.000000 0.500916 0.000000
0.000000 0.498108 0.000000
0.008636 0.494873 0.000000
0.123291 0.491425 0.000000
0.236694 0.488190 0.000000
0.310822 0.484772 0.000000
0.374084 0.480652 0.000000
0.430786 0.476257 0.000000
0.484039 0.471405 0.000000
0.533478 0.466187 0.000000
0.580841 0.460571 0.000000
0.626495 0.454254 0.000000
0.670776 0.447357 0.000000
0.714539 0.440338 0.000000
0.758057 0.433411 0.000000
0.800293 0.425476 0.000000
0.841980 0.416595 0.000000
0.883301 0.407104 0.000000
0.924347 0.396851 0.000000
0.966248 0.385468 0.000000
0.993927 0.373413 0.000000
1.000000 0.360870 0.000000
1.000000 0.346619 0.000000
1.000000 0.330170 0.000000
0.000000 0.545990 0.000000
0.000000 0.544922 0.000000
0.000000 0.544312 0.000000
0.000000 0.543640 0.000000
0.000000 0.542389 0.000000
0.000000 0.540924 0.000000
0.000000 0.539215 0.000000
0.000000 0.537170 0.000000
0.000000 0.534363 0.000000
0.000000 0.532074 0.000000
0.000000 0.529388 0.000000
0.000000 0.526367 0.000000
0.038940 0.523346 0.000000
0.173462 0.520294 0.000000
0.269257 0.517212 0.000000
0.341705 0.513397 0.000000
0.403900 0.509247 0.000000
0.460876 0.504761 0.000000
0.513336 0.499969 0.000000
0.562622 0.494781 0.000000
0.609863 0.488953 0.000000
0.655609 0.482544 0.000000
0.701019 0.476044 0.000000
0.744781 0.469818 0.000000
0.788666 0.462524 0.000000
0.831604 0.454498 0.000000
0.873566 0.445923 0.000000
0.915131 0.436737 0.000000
0.957581 0.426605 0.000000
0.988037 0.415802 0.000000
1.000000 0.404694 0.000000
1.000000 0.392426 0.000000
1.000000 0.377716 0.000000
0.000000 0.576721 0.000000
0.000000 0.575958 0.000000
0.000000 0.575134 0.000000
0.000000 0.574432 0.000000
0.000000 0.573181 0.000000
0.000000 0.571777 0.000000
0.000000 0.570129 0.000000
0.000000 0.568268 0.000000
0.000000 0.565857 0.000000
0.000000 0.563446 0.000000
0.000000 0.560852 0.000000
0.000000 0.557983 0.000000
0.000000 0.555206 0.000000
0.096008 0.552368 0.000000
0.213898 0.549316 0.000000
0.303192 0.545715 0.000000
0.373199 0.541870 0.000000
0.435089 0.537628 0.000000
0.491241 0.532745 0.000000
0.543365 0.527985 0.000000
0.592072 0.523102 0.000000
0.639221 0.517365 0.000000
0.686218 0.511322 0.000000
0.731049 0.505219 0.000000
0.775696 0.498535 0.000000
0.819794 0.491180 0.000000
0.862854 0.483398 0.000000
0.904968 0.475067 0.000000
0.947968 0.465820 0.000000
0.982300 0.456116 0.000000
1.000000 0.445709 0.000000
1.000000 0.434967 0.000000
1.000000 0.422333 0.000000
0.000000 0.607513 0.000000
0.000000 0.606689 0.000000
0.000000 0.606232 0.000000
0.000000 0.605194 0.000000
0.000000 0.604034 0.000000
0.000000 0.602417 0.000000
0.000000 0.600952 0.000000
0.000000 0.599243 0.000000
0.000000 0.597229 0.000000
0.000000 0.594971 0.000000
0.000000 0.592499 0.000000
0.000000 0.589752 0.000000
0.000000 0.587128 0.000000
0.000000 0.584351 0.000000
0.139526 0.581329 0.000000
0.253754 0.577820 0.000000
0.336639 0.574158 0.000000
0.405396 0.570190 0.000000
0.465942 0.565491 0.000000
0.521301 0.560760 0.000000
0.572693 0.556244 0.000000
0.621155 0.551636 0.000000
0.669586 0.546021 0.000000
0.715790 0.540131 0.000000
0.761536 0.533813 0.000000
0.806519 0.527039 0.000000
0.850769 0.519806 0.000000
0.893707 0.512207 0.000000
0.937317 0.503815 0.000000
0.976562 0.494904 0.000000
1.000000 0.485504 0.000000
1.000000 0.475342 0.000000
1.000000 0.464417 0.000000
0.000000 0.638580 0.000000
0.000000 0.637939 0.000000
0.000000 0.637329 0.000000
0.000000 0.636322 0.000000
0.000000 0.635162 0.000000
0.000000 0.633759 0.000000
0.000000 0.631866 0.000000
0.000000 0.630707 0.000000
0.000000 0.628784 0.000000
0.000000 0.626617 0.000000
0.000000 0.624237 0.000000
0.000000 0.621613 0.000000
0.000000 0.619080 0.000000
0.000000 0.616364 0.000000
0.009033 0.613281 0.000000
0.176971 0.609863 0.000000
0.291016 0.606354 0.000000
0.369659 0.602570 0.000000
0.436310 0.598267 0.000000
0.495605 0.593781 0.000000
0.549896 0.589539 0.000000
0.600891 0.585327 0.000000
0.651062 0.580078 0.000000
0.698822 0.574554 0.000000
0.745605 0.568695 0.000000
0.791626 0.562531 0.000000
0.836761 0.555847 0.000000
0.881256 0.548676 0.000000
0.925659 0.540924 0.000000
0.968781 0.532745 0.000000
0.998840 0.524078 0.000000
1.000000 0.514832 0.000000
1.000000 0.504974 0.000000
0.000000 0.669678 0.000000
0.000000 0.669617 0.000000
0.000000 0.668854 0.000000
0.000000 0.667450 0.000000
0.000000 0.666321 0.000000
0.000000 0.665009 0.000000
0.000000 0.663727 0.000000
0.000000 0.662567 0.000000
0.000000 0.660736 0.000000
0.000000 0.658661 0.000000
0.000000 0.656403 0.000000
0.000000 0.653870 0.000000
0.000000 0.651428 0.000000
0.000000 0.648682 0.000000
0.001007 0.645325 0.000000
0.072388 0.641785 0.000000
0.230743 0.638367 0.000000
0.325958 0.634796 0.000000
0.401337 0.631012 0.000000
0.466217 0.626984 0.000000
0.524017 0.623047 0.000000
0.577820 0.619080 0.000000
0.630493 0.614227 0.000000
0.680664 0.608978 0.000000
0.728516 0.603485 0.000000
0.775299 0.598022 0.000000
0.821289 0.592194 0.000000
0.866699 0.585541 0.000000
0.912170 0.577850 0.000000
0.956116 0.570251 0.000000
0.994354 0.562195 0.000000
0.999969 0.553619 0.000000
1.000000 0.544617 0.000000
0.000000 0.700775 0.000000
0.000000 0.700714 0.000000
0.000000 0.699951 0.000000
0.000000 0.698578 0.000000
0.000000 0.697449 0.000000
0.000000 0.696411 0.000000
0.000000 0.695496 0.000000
0.000000 0.694427 0.000000
0.000000 0.692627 0.000000
0.000000 0.690613 0.000000
0.000000 0.687866 0.000000
0.000000 0.685913 0.000000
0.000000 0.683258 0.000000
0.000000 0.680389 0.000000
0.000000 0.677185 0.000000
0.015686 0.673767 0.000000
0.147095 0.670227 0.000000
0.272491 0.666840 0.000000
0.359955 0.663239 0.000000
0.431854 0.659424 0.000000
0.494446 0.655670 0.000000
0.551788 0.651917 0.000000
0.607971 0.647308 0.000000
0.660156 0.643066 0.000000
0.709595 0.637878 0.000000
0.757690 0.632751 0.000000
0.804901 0.627350 0.000000
0.851318 0.621216 0.000000
0.897522 0.614532 0.000000
0.942322 0.607544 0.000000
0.984039 0.600128 0.000000
0.999359 0.592163 0.000000
1.000000 0.583740 0.000000
0.000000 0.731873 0.000000
0.000000 0.731812 0.000000
0.000000 0.731079 0.000000
0.000000 0.729706 0.000000
0.000000 0.728577 0.000000
0.000000 0.727570 0.000000
0.000000 0.726837 0.000000
0.000000 0.725800 0.000000
0.000000 0.724060 0.000000
0.000000 0.722107 0.000000
0.000000 0.719879 0.000000
0.000000 0.717407 0.000000
0.000000 0.714966 0.000000
0.000000 0.712128 0.000000
0.000000 0.709015 0.000000
0.000000 0.705811 0.000000
0.028229 0.702637 0.000000
0.201965 0.699127 0.000000
0.309998 0.695740 0.000000
0.392029 0.692108 0.000000
0.461609 0.688507 0.000000
0.523682 0.684967 0.000000
0.583405 0.680542 0.000000
0.638092 0.676544 0.000000
0.689728 0.671875 0.000000
0.739349 0.667053 0.000000
0.787842 0.661987 0.000000
0.835419 0.656219 0.000000
0.882629 0.649994 0.000000
0.928894 0.643463 0.000000
0.972260 0.636536 0.000000
0.998596 0.629181 0.000000
1.000000 0.621307 0.000000
0.000000 0.763062 0.000000
0.000000 0.762665 0.000000
0.000000 0.761902 0.000000
0.000000 0.760529 0.000000
0.000000 0.759674 0.000000
0.000000 0.758545 0.000000
0.000000 0.757721 0.000000
0.000000 0.756744 0.000000
0.000000 0.755066 0.000000
0.000000 0.753479 0.000000
0.000000 0.751373 0.000000
0.000000 0.749084 0.000000
0.000000 0.746246 0.000000
0.000000 0.743469 0.000000
0.000000 0.740723 0.000000
0.000000 0.737762 0.000000
0.000000 0.734924 0.000000
0.044830 0.731293 0.000000
0.248657 0.727844 0.000000
0.346191 0.724701 0.000000
0.424591 0.721313 0.000000
0.492615 0.717926 0.000000
0.556152 0.713715 0.000000
0.613464 0.709656 0.000000
0.667542 0.705231 0.000000
0.719360 0.700745 0.000000
0.769318 0.695984 0.000000
0.818237 0.690552 0.000000
0.867249 0.684906 0.000000
0.914551 0.678711 0.000000
0.960175 0.672211 0.000000
0.998596 0.665314 0.000000
1.000000 0.657898 0.000000
0.000000 0.794312 0.000000
0.000000 0.793549 0.000000
0.000000 0.792786 0.000000
0.000000 0.791412 0.000000
0.000000 0.790588 0.000000
0.000000 0.789886 0.000000
0.000000 0.788666 0.000000
0.000000 0.787750 0.000000
0.000000 0.786102 0.000000
0.000000 0.784882 0.000000
0.000000 0.782928 0.000000
0.000000 0.780731 0.000000
0.000000 0.778076 0.000000
0.000000 0.775085 0.000000
0.000000 0.772278 0.000000
0.000000 0.769806 0.000000
0.000000 0.767090 0.000000
0.018311 0.763428 0.000000
0.142792 0.759949 0.000000
0.290466 0.756958 0.000000
0.381775 0.754059 0.000000
0.457123 0.750854 0.000000
0.525116 0.746887 0.000000
