usr/bin/LUTs/DJI-D-LOG-M-to-709.cube
# Copyright: (C) Copyright 2010-2019 by IWLTBAP SAS
# Cannot be resold, shared or otherwise redistributed
# Website: https://luts.iwltbap.com
TITLE "DJI D-Log M to Rec.709 (Beta)"
LUT_3D_SIZE 33
0.424225 0.432404 0.429352
0.447449 0.455231 0.435059
0.455444 0.463959 0.434357
0.427704 0.445038 0.417053
0.387451 0.402435 0.376678
0.342133 0.359161 0.325989
0.322449 0.329590 0.305023
0.322449 0.329590 0.305023
0.333862 0.340027 0.315521
0.339142 0.357025 0.331726
0.330841 0.337891 0.321259
0.330841 0.337891 0.321259
0.378296 0.382660 0.365356
0.427704 0.445038 0.417053
0.435577 0.453674 0.416321
0.414398 0.431061 0.386414
0.381073 0.395905 0.352722
0.373962 0.378876 0.335114
0.339996 0.355530 0.315002
0.334747 0.349762 0.309753
0.324005 0.348907 0.293793
0.330017 0.365265 0.293396
0.332642 0.367706 0.288086
0.348999 0.362213 0.297729
0.354187 0.379974 0.313782
0.371857 0.409607 0.323547
0.384064 0.421478 0.334381
0.351532 0.400848 0.324768
0.340546 0.377014 0.303619
0.324371 0.370361 0.283386
0.317841 0.363525 0.263031
0.312866 0.358093 0.258453
0.307892 0.352722 0.253876
0.438690 0.469513 0.359924
0.428253 0.458954 0.342285
0.404663 0.432281 0.326447
0.391541 0.418152 0.322235
0.379852 0.394623 0.317413
0.354187 0.379974 0.313782
0.359863 0.386017 0.318787
0.356873 0.371582 0.313721
0.359863 0.386017 0.318787
0.351196 0.365601 0.308655
0.306824 0.321075 0.269196
0.281219 0.297455 0.260590
0.308716 0.326538 0.294800
0.384247 0.399170 0.364685
0.449524 0.457581 0.428314
0.483032 0.480682 0.459045
0.493317 0.479919 0.458618
0.493317 0.479919 0.458618
0.493317 0.479919 0.458618
0.487152 0.473450 0.452393
0.487152 0.473450 0.452393
0.487152 0.473450 0.452393
0.487152 0.473450 0.452393
0.487152 0.473450 0.452393
0.487152 0.473450 0.452393
0.487152 0.473450 0.452393
0.487152 0.473450 0.452393
0.487152 0.473450 0.452393
0.480927 0.467102 0.446106
0.480927 0.467102 0.446106
0.480927 0.467102 0.446106
0.480927 0.467102 0.446106
0.480927 0.467102 0.446106
0.341064 0.348999 0.354462
0.341064 0.348999 0.354462
0.341064 0.348999 0.354462
0.366913 0.373169 0.371216
0.360657 0.367523 0.365570
0.336456 0.345001 0.343170
0.289215 0.287933 0.285583
0.243225 0.240326 0.238861
0.220490 0.202148 0.207916
0.228760 0.218353 0.212067
0.255676 0.245789 0.238342
0.288452 0.279053 0.270416
0.341431 0.329712 0.320801
0.405334 0.391144 0.381775
0.446747 0.433044 0.422363
0.464661 0.452026 0.440582
0.482147 0.457550 0.446289
0.482147 0.457550 0.446289
0.482147 0.457550 0.446289
0.482147 0.457550 0.446289
0.482147 0.457550 0.446289
0.482147 0.457550 0.446289
0.464661 0.452026 0.440582
0.464661 0.452026 0.440582
0.464661 0.452026 0.440582
0.464661 0.452026 0.440582
0.464661 0.452026 0.440582
0.464661 0.452026 0.440582
0.464661 0.452026 0.440582
0.464661 0.452026 0.440582
0.464661 0.452026 0.440582
0.464661 0.452026 0.440582
0.464661 0.452026 0.440582
0.325317 0.332489 0.337799
0.341064 0.348999 0.354462
0.342468 0.350586 0.348785
0.362030 0.369110 0.359894
0.362030 0.369110 0.359894
0.326691 0.334106 0.332092
0.316437 0.325256 0.316193
0.270996 0.289856 0.280945
0.232941 0.240631 0.239044
0.207794 0.213257 0.212677
0.216766 0.223755 0.216888
0.252380 0.260773 0.252472
0.316437 0.325256 0.316193
0.372833 0.378998 0.376862
0.406830 0.413605 0.411011
0.451569 0.437988 0.434937
0.462463 0.448578 0.453674
0.478180 0.454437 0.459747
0.462463 0.448578 0.453674
0.462463 0.448578 0.453674
0.463409 0.450562 0.447144
0.458374 0.445679 0.434509
0.460449 0.448029 0.427734
0.464661 0.452026 0.440582
0.464661 0.452026 0.440582
0.480927 0.467102 0.446106
0.476807 0.474243 0.452789
0.476807 0.474243 0.452789
0.481873 0.502808 0.472504
0.566345 0.608673 0.569092
0.606201 0.645966 0.608856
0.567444 0.612946 0.582245
0.551483 0.583832 0.562469
0.255768 0.283600 0.281342
0.266846 0.305023 0.296051
0.285370 0.315155 0.306122
0.305328 0.347137 0.338104
0.329163 0.362427 0.360260
0.347961 0.367798 0.365723
0.341064 0.348999 0.354462
0.293304 0.301300 0.306030
0.255066 0.251404 0.261932
0.227081 0.233307 0.243958
0.224640 0.219543 0.230377
0.237000 0.243713 0.248352
0.279297 0.278076 0.275818
0.355133 0.350311 0.348633
0.441711 0.416840 0.422821
0.447540 0.423187 0.428925
0.480164 0.455994 0.453033
0.487152 0.473450 0.452393
0.464661 0.452026 0.440582
0.464661 0.452026 0.440582
0.464661 0.452026 0.440582
0.464661 0.452026 0.440582
0.464661 0.452026 0.440582
0.464661 0.452026 0.440582
0.464661 0.452026 0.440582
0.464661 0.452026 0.440582
0.464661 0.452026 0.440582
0.460449 0.448029 0.427734
0.460449 0.448029 0.427734
0.460449 0.448029 0.427734
0.460449 0.448029 0.427734
0.460449 0.448029 0.427734
0.460449 0.448029 0.427734
0.422760 0.473114 0.460785
0.422760 0.473114 0.460785
0.416046 0.466827 0.454498
0.416046 0.466827 0.454498
0.435913 0.472748 0.460510
0.434540 0.457794 0.454163
0.412628 0.419769 0.417206
0.372833 0.378998 0.376862
0.298981 0.307953 0.305847
0.260559 0.268738 0.266327
0.232941 0.240631 0.239044
0.216766 0.223755 0.216888
0.247864 0.256073 0.247955
0.336578 0.343079 0.326538
0.381805 0.396667 0.371094
0.412628 0.417389 0.399078
0.449524 0.457581 0.428314
0.470642 0.467865 0.446503
0.464661 0.452026 0.440582
0.464661 0.452026 0.440582
0.464661 0.452026 0.440582
0.464661 0.452026 0.440582
0.464661 0.452026 0.440582
0.464661 0.452026 0.440582
0.464661 0.452026 0.440582
0.464661 0.452026 0.440582
0.464661 0.452026 0.440582
0.448639 0.459412 0.447357
0.434540 0.457794 0.454163
0.416290 0.453857 0.441772
0.416290 0.453857 0.441772
0.416290 0.453857 0.441772
0.421509 0.458130 0.454437
0.418335 0.426117 0.423279
0.412628 0.419769 0.417206
0.412628 0.419769 0.417206
0.424225 0.432404 0.429352
0.418335 0.426117 0.423279
0.426422 0.409393 0.423279
0.392944 0.367462 0.388031
0.362549 0.338898 0.359833
0.362549 0.338898 0.359833
0.396729 0.353455 0.382172
0.269073 0.228455 0.252411
0.226196 0.193115 0.216797
0.286407 0.253357 0.270905
0.367279 0.337463 0.336334
0.426880 0.389343 0.380524
0.456360 0.423798 0.396301
0.481934 0.448883 0.420135
0.487366 0.452850 0.432983
0.492493 0.456787 0.445892
0.492493 0.456787 0.445892
0.492493 0.456787 0.445892
0.482147 0.457550 0.446289
0.480927 0.467102 0.446106
0.480927 0.467102 0.446106
0.480927 0.467102 0.446106
0.480927 0.467102 0.446106
0.480927 0.467102 0.446106
0.464661 0.452026 0.440582
0.464661 0.452026 0.440582
0.464661 0.452026 0.440582
0.464661 0.452026 0.440582
0.493317 0.479919 0.458618
0.522522 0.519226 0.496887
0.412628 0.419769 0.417206
0.418335 0.426117 0.423279
0.402222 0.409454 0.399170
0.366913 0.373169 0.371216
0.332214 0.339294 0.337646
0.332214 0.339294 0.337646
0.355133 0.350311 0.348633
0.355133 0.350311 0.348633
0.353424 0.331390 0.337250
0.395203 0.370422 0.376465
0.323212 0.312592 0.310699
0.228333 0.217224 0.216705
0.319183 0.300354 0.305481
0.451569 0.437988 0.434937
0.462463 0.448578 0.453674
0.451569 0.437988 0.434937
0.462463 0.448578 0.453674
0.478180 0.454437 0.459747
0.478180 0.454437 0.459747
0.478180 0.454437 0.459747
0.463409 0.450562 0.447144
0.464661 0.452026 0.440582
0.464661 0.452026 0.440582
0.464661 0.452026 0.440582
0.464661 0.452026 0.440582
0.464661 0.452026 0.440582
0.464661 0.452026 0.440582
0.460449 0.448029 0.427734
0.460449 0.448029 0.427734
0.460449 0.448029 0.427734
0.460449 0.448029 0.427734
0.460449 0.448029 0.427734
0.460449 0.448029 0.427734
0.447693 0.457428 0.453888
0.216766 0.223755 0.216888
0.207794 0.213257 0.212677
0.303925 0.313202 0.311096
0.348480 0.356262 0.354370
0.342468 0.350586 0.348785
0.372833 0.378998 0.376862
0.389740 0.396393 0.393738
0.362030 0.369110 0.359894
0.342468 0.350586 0.348785
0.349091 0.344727 0.343018
0.274353 0.273163 0.270935
0.224121 0.212616 0.212372
0.323212 0.312592 0.310699
0.405182 0.389771 0.387756
0.451569 0.437988 0.434937
0.471771 0.448242 0.453491
0.494690 0.460083 0.465607
0.478180 0.454437 0.459747
0.478180 0.454437 0.459747
0.494690 0.482361 0.478485
0.579773 0.572449 0.568665
0.612610 0.618713 0.614746
0.626648 0.632660 0.620514
0.626648 0.632660 0.620514
0.632416 0.634674 0.614716
0.616241 0.631775 0.601654
0.657501 0.672668 0.644135
0.609528 0.625397 0.595093
0.528076 0.547913 0.516907
0.493225 0.502502 0.471741
0.493225 0.502502 0.471741
0.521271 0.541473 0.510498
0.134888 0.175964 0.182129
0.134888 0.175964 0.182129
0.134888 0.175964 0.182129
0.151398 0.180695 0.186462
0.157013 0.185394 0.190857
0.157013 0.185394 0.190857
0.134888 0.175964 0.182129
0.133972 0.164948 0.177612
0.162506 0.190002 0.195312
0.206421 0.233917 0.244324
0.283142 0.311951 0.316956
0.341064 0.348999 0.354462
0.372833 0.378998 0.376862
0.406830 0.413605 0.411011
0.418335 0.426117 0.423279
0.429962 0.438782 0.435394
0.461426 0.472137 0.459930
0.465332 0.487610 0.466400
0.463318 0.483612 0.453766
0.503113 0.513062 0.491180
0.550781 0.557892 0.536041
0.557770 0.564209 0.542572
0.557770 0.564209 0.542572
0.569031 0.586090 0.555664
0.562042 0.579681 0.549133
0.528076 0.547913 0.516907
0.499268 0.509003 0.477997
0.478607 0.498779 0.459412
0.481476 0.501129 0.452606
0.521210 0.539978 0.490234
0.571106 0.587311 0.527802
0.623810 0.639954 0.579712
0.649750 0.664948 0.599091
0.263947 0.318329 0.281281
0.277985 0.323669 0.285919
0.275391 0.310883 0.281006
0.294189 0.321381 0.290497
0.304382 0.342834 0.311035
0.315308 0.353821 0.321503
0.331329 0.359406 0.326538
0.315308 0.353821 0.321503
0.320923 0.347839 0.316101
0.317322 0.335022 0.310791
0.328217 0.334778 0.310242
0.339142 0.357025 0.331726
0.339142 0.357025 0.331726
0.372192 0.376984 0.359741
0.407013 0.411530 0.393494
0.438202 0.433777 0.422760
0.455139 0.465759 0.453674
0.486206 0.497772 0.484955
0.479218 0.476349 0.472382
0.473938 0.471893 0.459595
0.473938 0.471893 0.459595
0.473938 0.471893 0.459595
0.473938 0.471893 0.459595
0.473938 0.471893 0.459595
0.473938 0.471893 0.459595
0.473938 0.471893 0.459595
0.473938 0.471893 0.459595
0.455139 0.465759 0.453674
0.461426 0.472137 0.459930
0.461426 0.472137 0.459930
0.448639 0.459412 0.447357
0.653137 0.660828 0.655640
0.755890 0.763580 0.751862
0.268616 0.328339 0.311829
0.271515 0.310059 0.301086
0.264709 0.302002 0.286163
0.247192 0.285370 0.276550
0.242340 0.280457 0.271637
0.217834 0.247253 0.239227
0.169525 0.206238 0.199585
0.315277 0.372498 0.354675
0.634796 0.693512 0.680084
0.702667 0.746063 0.733917
0.683716 0.716461 0.703430
0.690247 0.722229 0.709442
0.690247 0.722229 0.709442
0.683716 0.716461 0.703430
0.448669 0.485474 0.473053
0.412628 0.419769 0.417206
0.472870 0.482971 0.478973
0.491455 0.502167 0.497864
0.491455 0.502167 0.497864
0.472870 0.482971 0.478973
0.498322 0.508514 0.504272
0.566284 0.572693 0.568848
0.632172 0.638580 0.626282
0.643036 0.650452 0.637909
0.646271 0.660797 0.632446
0.651672 0.666687 0.638245
0.651672 0.666687 0.638245
0.646271 0.660797 0.632446
0.629669 0.646912 0.626556
0.602783 0.618805 0.588501
0.534607 0.554230 0.523224
0.494873 0.528809 0.497925
0.475494 0.522705 0.491882
0.550079 0.533844 0.502350
0.599762 0.582672 0.561005
0.549927 0.535370 0.522614
0.440765 0.415131 0.429169
0.357849 0.334869 0.348541
0.291809 0.272736 0.290680
0.203979 0.192291 0.203766
0.151245 0.150787 0.163544
0.165985 0.173096 0.190826
0.200500 0.194672 0.217438
0.204376 0.197754 0.226410
0.194977 0.188965 0.217560
0.195770 0.190247 0.213013
0.262451 0.268646 0.286346
0.370544 0.376068 0.388428
0.422363 0.428986 0.441986
0.458588 0.466187 0.479462
0.464722 0.472626 0.485718
0.470764 0.479004 0.492035
0.470764 0.479004 0.492035
0.497101 0.506531 0.510803
0.517517 0.525848 0.530090
0.539948 0.549011 0.536163
0.545410 0.553619 0.549316
0.559296 0.566345 0.562317
0.543884 0.551483 0.529572
0.509918 0.519531 0.497559
0.469482 0.489990 0.459991
0.466187 0.485992 0.446899
0.517853 0.537537 0.497162
0.600861 0.604187 0.553741
0.621277 0.637238 0.587006
0.644775 0.659546 0.613617
0.342468 0.350586 0.348785
0.362030 0.369110 0.359894
0.372833 0.378998 0.376862
0.366913 0.373169 0.371216
0.413574 0.421478 0.410858
0.522522 0.519226 0.496887
0.559052 0.544373 0.522064
0.553284 0.537781 0.515686
0.553284 0.537781 0.515686
0.546722 0.531403 0.509277
0.533020 0.518555 0.496460
0.509247 0.496826 0.484222
0.539917 0.524933 0.502899
0.533020 0.518555 0.496460
0.454620 0.441742 0.421631
0.448853 0.435364 0.415588
0.464661 0.452026 0.440582
0.480927 0.467102 0.446106
0.487152 0.473450 0.452393
0.487152 0.473450 0.452393
0.487152 0.473450 0.452393
0.487152 0.473450 0.452393
0.487152 0.473450 0.452393
0.480927 0.467102 0.446106
0.480927 0.467102 0.446106
0.480927 0.467102 0.446106
0.480927 0.467102 0.446106
0.464661 0.452026 0.440582
0.464661 0.452026 0.440582
0.464661 0.452026 0.440582
0.460449 0.448029 0.427734
0.460449 0.448029 0.427734
0.460449 0.448029 0.427734
0.254669 0.317139 0.266663
0.250244 0.312134 0.262146
0.260406 0.312042 0.261902
0.262085 0.305023 0.261841
0.270264 0.304840 0.261200
0.270264 0.304840 0.261200
0.278229 0.312836 0.276031
0.280853 0.325623 0.280884
0.280853 0.325623 0.280884
0.299255 0.336304 0.290039
0.304443 0.341766 0.294861
0.323944 0.350006 0.310333
0.356537 0.373260 0.330261
0.374847 0.390198 0.347076
0.391937 0.407440 0.363922
0.414398 0.431061 0.386414
0.451630 0.459930 0.421478
0.466187 0.485992 0.446899
0.463318 0.483612 0.453766
0.463318 0.483612 0.453766
0.476807 0.474243 0.452789
0.470642 0.467865 0.446503
0.487152 0.473450 0.452393
0.487152 0.473450 0.452393
0.487152 0.473450 0.452393
0.487152 0.473450 0.452393
0.487152 0.473450 0.452393
0.464661 0.452026 0.440582
0.480927 0.467102 0.446106
0.509247 0.496826 0.484222
0.555725 0.541901 0.529083
0.624634 0.597595 0.594391
0.574463 0.557434 0.562103
0.488739 0.411774 0.395081
0.469177 0.388336 0.372070
0.488739 0.411774 0.395081
0.516693 0.429626 0.412323
0.549988 0.468597 0.449554
0.550415 0.478058 0.449188
0.538452 0.479156 0.449982
0.538452 0.479156 0.449982
0.544983 0.485626 0.456207
0.588837 0.531342 0.500458
0.584686 0.529144 0.507507
0.522644 0.498505 0.476990
0.533020 0.518555 0.496460
0.539917 0.524933 0.502899
0.464661 0.452026 0.440582
0.443024 0.429108 0.409515
0.454620 0.441742 0.421631
0.480927 0.467102 0.446106
0.487152 0.473450 0.452393
0.487152 0.473450 0.452393
0.487152 0.473450 0.452393
0.480927 0.467102 0.446106
0.480927 0.467102 0.446106
0.487152 0.473450 0.452393
0.487152 0.473450 0.452393
0.487152 0.473450 0.452393
0.480927 0.467102 0.446106
0.480927 0.467102 0.446106
0.480927 0.467102 0.446106
0.480927 0.467102 0.446106
0.480927 0.467102 0.446106
0.480927 0.467102 0.446106
0.480927 0.467102 0.446106
0.520203 0.450348 0.431610
0.520203 0.450348 0.431610
0.527527 0.456635 0.437744
0.527527 0.456635 0.437744
0.544983 0.485626 0.456207
0.594452 0.537842 0.506836
0.625641 0.570068 0.539062
0.631714 0.576416 0.545563
0.626923 0.574158 0.552826
0.623901 0.571625 0.559906
0.601227 0.537445 0.533752
0.566711 0.498291 0.495270
0.504608 0.447510 0.445526
0.527985 0.481812 0.470459
0.530365 0.495483 0.483337
0.446167 0.412720 0.403442
0.485260 0.450470 0.439789
0.504883 0.469574 0.458405
0.498627 0.463196 0.452179
0.488373 0.463959 0.452576
0.487152 0.473450 0.452393
0.487152 0.473450 0.452393
0.480927 0.467102 0.446106
0.480927 0.467102 0.446106
0.480927 0.467102 0.446106
0.480927 0.467102 0.446106
0.480927 0.467102 0.446106
0.464661 0.452026 0.440582
0.464661 0.452026 0.440582
0.464661 0.452026 0.440582
0.464661 0.452026 0.440582
0.464661 0.452026 0.440582
0.464661 0.452026 0.440582
0.359894 0.339569 0.330780
0.341125 0.312988 0.304230
0.336060 0.298950 0.283417
0.353455 0.297699 0.282501
0.435211 0.366486 0.350006
0.531555 0.449371 0.430969
0.569305 0.488159 0.468201
0.582611 0.501190 0.480774
0.588348 0.507660 0.487183
0.588348 0.507660 0.487183
0.588348 0.507660 0.487183
0.582611 0.501190 0.480774
0.588348 0.507660 0.487183
0.578125 0.508698 0.487762
0.538452 0.479156 0.449982
0.476471 0.422119 0.395355
0.464844 0.423065 0.395905
0.526306 0.466187 0.437561
0.518005 0.471161 0.451202
0.511871 0.464783 0.444916
0.498627 0.463196 0.452179
0.498627 0.463196 0.452179
0.498627 0.463196 0.452179
0.498627 0.463196 0.452179
0.498627 0.463196 0.452179
0.498627 0.463196 0.452179
0.498627 0.463196 0.452179
0.488373 0.463959 0.452576
0.476807 0.474243 0.452789
0.503113 0.513062 0.491180
0.569031 0.586090 0.555664
0.616241 0.631775 0.601654
0.612305 0.616058 0.594971
0.217834 0.247253 0.239227
0.223267 0.251862 0.243805
0.194885 0.200958 0.194794
0.236481 0.219879 0.206787
0.304871 0.269440 0.254974
0.444275 0.396759 0.379364
0.527527 0.456635 0.437744
0.527527 0.456635 0.437744
0.533295 0.463135 0.443909
0.512543 0.444031 0.425568
0.511169 0.439758 0.412354
0.511169 0.439758 0.412354
0.481964 0.428345 0.401062
0.481964 0.428345 0.401062
0.464844 0.423065 0.395905
0.443329 0.412048 0.384979
0.489441 0.455200 0.426208
0.503845 0.467926 0.438538
0.503845 0.467926 0.438538
0.503845 0.467926 0.438538
0.503845 0.467926 0.438538
0.492371 0.478149 0.438751
0.485352 0.471802 0.432526
0.485352 0.471802 0.432526
0.485352 0.471802 0.432526
0.485352 0.471802 0.432526
0.464020 0.462189 0.413849
0.468048 0.466125 0.426758
0.468048 0.466125 0.426758
0.485352 0.471802 0.432526
0.485352 0.471802 0.432526
0.483246 0.469452 0.439331
0.480927 0.467102 0.446106
0.397034 0.390259 0.387939
0.391357 0.384430 0.382355
0.408081 0.375610 0.381714
0.422302 0.373047 0.386871
0.451538 0.383087 0.397339
0.500702 0.410370 0.426727
0.552246 0.448242 0.456665
0.583954 0.468231 0.468109
0.575531 0.477905 0.468292
0.566956 0.478790 0.468719
0.566956 0.478790 0.468719
0.546692 0.454712 0.436707
0.516693 0.429626 0.412323
0.516693 0.429626 0.412323
0.488739 0.411774 0.395081
0.469788 0.407135 0.390076
0.496735 0.440918 0.413116
0.527527 0.456635 0.437744
0.507965 0.451294 0.432159
0.505066 0.458344 0.438721
0.492493 0.456787 0.445892
0.482147 0.457550 0.446289
0.480927 0.467102 0.446106
0.480927 0.467102 0.446106
0.480927 0.467102 0.446106
0.480927 0.467102 0.446106
0.480927 0.467102 0.446106
0.480927 0.467102 0.446106
0.480927 0.467102 0.446106
0.480927 0.467102 0.446106
0.482147 0.457550 0.446289
0.464661 0.452026 0.440582
0.464661 0.452026 0.440582
0.416534 0.401367 0.398987
0.410889 0.395538 0.393402
0.401062 0.377594 0.376099
0.413910 0.382751 0.381348
0.426880 0.389343 0.380524
0.458710 0.390076 0.396973
0.525208 0.431854 0.431702
0.561493 0.456146 0.456055
0.589081 0.478882 0.460754
0.593353 0.480804 0.453522
0.600861 0.487305 0.459808
0.579773 0.479797 0.461151
0.586853 0.503082 0.473602
0.563324 0.491089 0.461670
0.500427 0.444977 0.426117
0.456787 0.414520 0.396606
0.457947 0.425262 0.415527
0.492493 0.456787 0.445892
0.492493 0.456787 0.445892
0.482147 0.457550 0.446289
0.480927 0.467102 0.446106
0.480927 0.467102 0.446106
0.480927 0.467102 0.446106
0.480927 0.467102 0.446106
0.480927 0.467102 0.446106
0.464661 0.452026 0.440582
0.464661 0.452026 0.440582
0.464661 0.452026 0.440582
0.464661 0.452026 0.440582
0.464661 0.452026 0.440582
0.464661 0.452026 0.440582
0.464661 0.452026 0.440582
0.464661 0.452026 0.440582
0.402222 0.409454 0.399170
0.402222 0.409454 0.399170
0.408386 0.401855 0.399170
0.410889 0.395538 0.393402
0.410889 0.395538 0.393402
0.410889 0.395538 0.393402
0.410889 0.395538 0.393402
0.405182 0.389771 0.387756
0.410889 0.395538 0.393402
0.416534 0.401367 0.398987
0.421265 0.405457 0.410828
0.435883 0.410645 0.416779
0.435883 0.410645 0.416779
0.435883 0.410645 0.416779
0.421265 0.405457 0.410828
0.405182 0.389771 0.387756
0.286804 0.277771 0.275665
0.289642 0.297974 0.295593
0.406830 0.413605 0.411011
0.472870 0.482971 0.478973
0.560699 0.568146 0.555725
0.605560 0.609558 0.588379
0.623230 0.637360 0.608429
0.632538 0.661133 0.632690
0.638062 0.667053 0.638458
0.638062 0.667053 0.638458
0.638062 0.667053 0.638458
0.647980 0.687286 0.650604
0.662079 0.703186 0.674103
0.656494 0.697205 0.668243
0.679657 0.708923 0.679749
0.689117 0.728973 0.691864
0.703857 0.744446 0.715942
0.371979 0.411102 0.376892
0.371979 0.411102 0.376892
0.371979 0.411102 0.376892
0.368927 0.396973 0.371246
0.368927 0.396973 0.371246
0.350311 0.391479 0.365692
0.350311 0.391479 0.365692
0.344116 0.385773 0.360046
0.341919 0.382355 0.348663
0.344116 0.385773 0.360046
0.350311 0.391479 0.365692
0.350311 0.391479 0.365692
0.368927 0.396973 0.371246
0.371979 0.411102 0.376892
0.371979 0.411102 0.376892
0.358307 0.395996 0.354218
0.342560 0.381531 0.330994
0.337677 0.374298 0.309265
0.342804 0.380066 0.314484
0.360504 0.409668 0.324310
0.360504 0.409668 0.324310
0.351562 0.400208 0.308350
0.357330 0.406250 0.313446
0.371429 0.397369 0.312531
0.368744 0.406219 0.312714
0.351562 0.400208 0.308350
0.345825 0.394257 0.303314
0.327271 0.373962 0.293518
0.318909 0.364288 0.278534
0.318909 0.364288 0.278534
0.321747 0.367920 0.288666
0.340698 0.388428 0.298065
0.345825 0.394257 0.303314
0.195862 0.272400 0.244507
0.170044 0.261292 0.240143
0.168549 0.250244 0.235504
0.160767 0.241028 0.226654
0.160767 0.241028 0.226654
0.160767 0.241028 0.226654
0.161255 0.238159 0.217773
0.141815 0.229065 0.209045
0.133392 0.213257 0.200073
0.131775 0.210205 0.191162
0.126221 0.205627 0.186768
0.126221 0.205627 0.186768
0.126221 0.205627 0.186768
0.126221 0.205627 0.186768
0.120636 0.200989 0.182312
0.120636 0.200989 0.182312
0.124054 0.202759 0.177734
0.105835 0.196289 0.164276
0.101288 0.189301 0.150665
0.181854 0.237183 0.186005
0.235809 0.294830 0.225220
0.274597 0.337341 0.256012
0.295898 0.372589 0.279877
0.313873 0.382690 0.294250
0.308472 0.376587 0.289368
0.295898 0.372589 0.279877
0.313873 0.382690 0.294250
0.327423 0.408356 0.309875
0.327423 0.408356 0.309875
0.322235 0.402496 0.304688
0.322235 0.402496 0.304688
0.308472 0.376587 0.289368
0.298248 0.353546 0.269440
0.304474 0.340240 0.279419
0.304474 0.340240 0.279419
0.299896 0.334717 0.274597
0.304474 0.340240 0.279419
0.309692 0.345703 0.284271
0.309692 0.345703 0.284271
0.313690 0.359436 0.289093
0.304474 0.340240 0.279419
0.304474 0.340240 0.279419
0.316406 0.362946 0.299408
0.337677 0.374298 0.309265
0.321625 0.368713 0.304626
0.316406 0.362946 0.299408
0.316040 0.352356 0.305145
0.313049 0.350220 0.310883
0.299255 0.336304 0.290039
0.275879 0.309692 0.265808
0.261292 0.294830 0.252197
0.248688 0.289978 0.248352
0.238251 0.271667 0.243805
0.228394 0.262329 0.234741
0.233337 0.266968 0.239258
0.233337 0.266968 0.239258
0.228394 0.262329 0.234741
0.225555 0.250885 0.230225
0.225555 0.250885 0.230225
0.213531 0.257935 0.230530
0.203156 0.258240 0.230713
0.203156 0.258240 0.230713
0.203156 0.258240 0.230713
0.198700 0.253571 0.226288
0.198700 0.253571 0.226288
0.203156 0.258240 0.230713
0.178040 0.230347 0.204102
0.178040 0.230347 0.204102
0.173553 0.225586 0.199554
0.170105 0.223938 0.204132
0.170105 0.223938 0.204132
0.170105 0.223938 0.204132
0.170105 0.223938 0.204132
0.156952 0.230591 0.204376
0.140106 0.225922 0.200104
0.140106 0.225922 0.200104
0.140106 0.225922 0.200104
0.136108 0.224365 0.204620
0.133392 0.213257 0.200073
0.133392 0.213257 0.200073
0.133392 0.213257 0.200073
0.141815 0.229065 0.209045
0.141815 0.229065 0.209045
0.138916 0.217834 0.204498
0.133392 0.213257 0.200073
0.131775 0.210205 0.191162
0.133392 0.213257 0.200073
0.133392 0.213257 0.200073
0.141815 0.229065 0.209045
0.157379 0.233551 0.213379
0.157379 0.233551 0.213379
0.141815 0.229065 0.209045
0.141815 0.229065 0.209045
0.161255 0.238159 0.217773
0.164612 0.245605 0.231110
0.160767 0.241028 0.226654
0.161255 0.238159 0.217773
0.161255 0.238159 0.217773
0.152985 0.231812 0.217773
0.241302 0.302124 0.253143
0.241302 0.302124 0.253143
0.239258 0.290192 0.248596
0.234802 0.285248 0.244080
0.234802 0.285248 0.244080
0.245728 0.307159 0.257660
0.254669 0.317139 0.266663
0.271362 0.325775 0.281128
0.266785 0.320282 0.276306
0.254669 0.317139 0.266663
0.250244 0.312134 0.262146
0.241302 0.302124 0.253143
0.241302 0.302124 0.253143
0.245728 0.307159 0.257660
0.245728 0.307159 0.257660
0.234802 0.285248 0.244080
0.213684 0.273163 0.226318
0.209106 0.268494 0.221924
0.218140 0.277832 0.230743
0.229889 0.280518 0.239532
0.236023 0.288361 0.253204
0.237305 0.291565 0.262329
0.241730 0.296539 0.266846
