usr/bin/LUTs/DJI-DLOG-V1-LOG-to-709.cube
# Copyright: (C) Copyright 2010-2018 by IWLTBAP SAS
# Cannot be resold, shared or otherwise redistributed
# Website: https://luts.iwltbap.com
TITLE "DJI D-Log V1 (Utility LOG to Rec.709)"
LUT_3D_SIZE 9
0.000000 0.000000 0.000000
0.070648 0.000000 0.000000
0.187897 0.000000 0.000000
0.345306 0.000000 0.000000
0.539001 0.000000 0.000000
0.734924 0.000000 0.000000
0.885651 0.000000 0.000000
0.953430 0.000000 0.000000
1.000000 0.000000 0.000000
0.000000 0.063721 0.000000
0.058533 0.058533 0.000000
0.165924 0.051727 0.000000
0.317108 0.042725 0.000000
0.510986 0.041962 0.000000
0.715881 0.041901 0.000000
0.879333 0.041901 0.000000
0.953430 0.041901 0.000000
1.000000 0.041901 0.000000
0.000000 0.157013 0.000000
0.045044 0.152740 0.000000
0.152008 0.151917 0.000000
0.312744 0.142456 0.000000
0.515900 0.128510 0.000000
0.727448 0.113953 0.000000
0.892395 0.108856 0.000000
0.953430 0.107056 0.000000
1.000000 0.105255 0.000000
0.000000 0.290466 0.000000
0.041931 0.291229 0.000000
0.129059 0.296234 0.000000
0.291870 0.291870 0.000000
0.499603 0.281372 0.000000
0.716705 0.269165 0.000000
0.892670 0.262939 0.000000
0.953430 0.262054 0.000000
1.000000 0.260620 0.000000
0.000000 0.468536 0.000000
0.041901 0.471344 0.000000
0.103333 0.478607 0.000000
0.261200 0.478607 0.000000
0.471161 0.471161 0.000000
0.691589 0.461060 0.000000
0.880341 0.454315 0.000000
0.953430 0.455292 0.000000
1.000000 0.454987 0.000000
0.000000 0.658936 0.000000
0.041901 0.663330 0.000000
0.088959 0.671478 0.000000
0.229004 0.675415 0.000000
0.439240 0.670197 0.000000
0.661652 0.661652 0.000000
0.860321 0.654053 0.000000
0.953430 0.655518 0.000000
1.000000 0.655884 0.000000
0.000000 0.835114 0.000000
0.041901 0.840485 0.000000
0.087341 0.848938 0.000000
0.204437 0.855072 0.000000
0.412109 0.851868 0.000000
0.634460 0.844177 0.000000
0.836151 0.836243 0.000000
0.953430 0.836670 0.000000
1.000000 0.837189 0.000000
0.000000 0.953003 0.000000
0.041901 0.953308 0.000000
0.087830 0.953430 0.000000
0.211121 0.953430 0.000000
0.411469 0.953430 0.000000
0.631653 0.953430 0.000000
0.832001 0.953430 0.000000
0.953430 0.953430 0.000000
1.000000 0.953461 0.000000
0.000000 1.000000 0.000000
0.041901 1.000000 0.000000
0.088013 1.000000 0.000000
0.216095 1.000000 0.000000
0.406616 1.000000 0.000000
0.615509 1.000000 0.000000
0.805725 1.000000 0.000000
0.952271 1.000000 0.000000
1.000000 1.000000 0.000000
0.000000 0.000000 0.070557
0.069977 0.000000 0.069977
0.186340 0.000000 0.065918
0.342865 0.000000 0.050568
0.535339 0.000000 0.042175
0.731720 0.000000 0.041901
0.884277 0.000000 0.041901
0.953430 0.000000 0.041901
1.000000 0.000000 0.041901
0.000000 0.061768 0.061768
0.056091 0.056030 0.056091
0.163971 0.048309 0.048340
0.318695 0.040894 0.040863
0.515137 0.040009 0.040009
0.720612 0.040009 0.040009
0.883789 0.040009 0.040009
0.955353 0.040009 0.040009
1.000000 0.041901 0.041901
0.000000 0.155060 0.045746
0.043549 0.152649 0.043549
0.152740 0.152679 0.043640
0.317139 0.140564 0.040894
0.522278 0.124420 0.040039
0.733917 0.109497 0.040009
0.897064 0.105194 0.040009
0.955353 0.103455 0.040009
1.000000 0.106049 0.041901
0.000000 0.290283 0.041931
0.040131 0.296143 0.040131
0.127106 0.301697 0.040161
0.297546 0.297485 0.040131
0.507080 0.281036 0.040009
0.724548 0.266907 0.040009
0.898438 0.260468 0.040009
0.955353 0.259338 0.040009
1.000000 0.261719 0.041901
0.000000 0.469055 0.041901
0.040009 0.477570 0.040009
0.100372 0.485229 0.040009
0.260559 0.485779 0.040009
0.478210 0.478302 0.040009
0.699493 0.463715 0.040009
0.887115 0.455811 0.040009
0.955353 0.455994 0.040009
1.000000 0.456360 0.041901
0.000000 0.660065 0.041901
0.040009 0.670197 0.040009
0.087341 0.678680 0.040009
0.226685 0.683014 0.040009
0.441589 0.677917 0.040009
0.669159 0.669189 0.040009
0.867981 0.659241 0.040009
0.955353 0.659637 0.040009
1.000000 0.657318 0.041901
0.000000 0.836517 0.041901
0.040009 0.847595 0.040009
0.085785 0.856384 0.040009
0.202271 0.862793 0.040009
0.412933 0.859802 0.040009
0.639404 0.851959 0.040009
0.843872 0.843994 0.040009
0.955353 0.842987 0.040009
1.000000 0.838623 0.041901
0.000000 0.953094 0.041901
0.040009 0.955322 0.040009
0.086121 0.955353 0.040009
0.209503 0.955353 0.040009
0.412231 0.955353 0.040009
0.635773 0.955353 0.040009
0.837891 0.955353 0.040009
0.955353 0.955353 0.040009
1.000000 0.953461 0.041901
0.000000 1.000000 0.041901
0.041901 1.000000 0.041901
0.088074 1.000000 0.041901
0.217651 1.000000 0.041901
0.406464 1.000000 0.041901
0.613525 1.000000 0.041901
0.805115 1.000000 0.041901
0.952240 1.000000 0.041901
1.000000 1.000000 0.041901
0.000000 0.000000 0.190735
0.068573 0.000000 0.188751
0.184052 0.000000 0.184052
0.340210 0.000000 0.166412
0.531769 0.000000 0.138519
0.729675 0.000000 0.109894
0.883728 0.000000 0.097717
0.953430 0.000000 0.092468
1.000000 0.000000 0.088989
0.000000 0.059479 0.176025
0.052460 0.052460 0.169983
0.160980 0.045898 0.160980
0.316986 0.040741 0.139099
0.514282 0.040009 0.114441
0.720825 0.040009 0.096680
0.884552 0.040009 0.092468
0.955353 0.040009 0.090912
1.000000 0.041901 0.092896
0.000000 0.153717 0.153778
0.043427 0.152008 0.152069
0.151398 0.151428 0.151428
0.316284 0.140320 0.140411
0.525879 0.122070 0.122162
0.743378 0.102966 0.102905
0.905151 0.096802 0.096283
0.959290 0.094299 0.093658
1.000000 0.107910 0.107697
0.000000 0.291229 0.123291
0.040131 0.297546 0.122742
0.127411 0.301697 0.127411
0.297729 0.297699 0.125183
0.512512 0.281036 0.114014
0.735840 0.263519 0.101532
0.907074 0.254761 0.097626
0.959290 0.251770 0.098877
1.000000 0.264038 0.115417
0.000000 0.470886 0.096313
0.040009 0.479736 0.095825
0.096497 0.492004 0.096405
0.259430 0.493164 0.098541
0.485474 0.485504 0.095032
0.714111 0.467499 0.087921
0.899902 0.457458 0.085846
0.959686 0.455627 0.088135
1.000000 0.459045 0.104065
0.000000 0.662292 0.087524
0.040009 0.672607 0.086182
0.082886 0.692963 0.082764
0.219360 0.698120 0.083679
0.444641 0.693146 0.083160
0.683990 0.684052 0.082275
0.884796 0.671265 0.080750
0.959747 0.667969 0.081696
1.000000 0.660034 0.090820
0.000000 0.838959 0.087067
0.040009 0.850189 0.085510
0.080566 0.873505 0.080566
0.193604 0.880402 0.080627
0.413055 0.878052 0.080566
0.650818 0.870178 0.080475
0.862213 0.862427 0.080414
0.959747 0.856842 0.080841
1.000000 0.841217 0.087372
0.000000 0.953247 0.087097
0.040009 0.955353 0.085846
0.081116 0.959747 0.081085
0.203186 0.959747 0.081879
0.411682 0.959747 0.081573
0.644348 0.959747 0.080963
0.850800 0.959747 0.080841
0.959747 0.959747 0.080780
1.000000 0.953461 0.087097
0.000000 1.000000 0.087280
0.041901 1.000000 0.087738
0.088257 1.000000 0.088257
0.220154 1.000000 0.090485
0.406799 1.000000 0.088104
0.612579 1.000000 0.087097
0.805695 1.000000 0.087097
0.952332 1.000000 0.087097
1.000000 1.000000 0.087097
0.000000 0.000000 0.359863
0.063568 0.000000 0.357056
0.177673 0.000000 0.351562
0.333466 0.000000 0.333435
0.524017 0.000000 0.303894
0.723816 0.000000 0.274750
0.880890 0.000000 0.257538
0.953430 0.000000 0.245636
1.000000 0.000000 0.236908
0.000000 0.053253 0.341675
0.043427 0.043365 0.339294
0.150208 0.041412 0.330170
0.311646 0.040253 0.311646
0.509369 0.040009 0.282196
0.717316 0.040009 0.258636
0.883240 0.040009 0.246704
0.955353 0.040009 0.239410
1.000000 0.041901 0.238403
0.000000 0.148651 0.320251
0.040894 0.144226 0.323273
0.144501 0.144501 0.322937
0.313782 0.136444 0.313812
0.523712 0.119354 0.291443
0.741058 0.101685 0.268341
0.904602 0.095947 0.255463
0.959290 0.093933 0.247528
1.000000 0.107635 0.259094
0.000000 0.288666 0.288696
0.040131 0.295105 0.295166
0.126068 0.299561 0.299530
0.292480 0.292511 0.292511
0.507660 0.277496 0.277496
0.732147 0.260254 0.260284
0.905792 0.251709 0.251801
0.958588 0.248718 0.248749
1.000000 0.264557 0.264587
0.000000 0.469910 0.251923
0.040009 0.479004 0.253510
0.096680 0.491608 0.257721
0.256073 0.489166 0.256073
0.481934 0.481903 0.249390
0.710297 0.464722 0.235321
0.899109 0.454987 0.227966
0.958771 0.453583 0.228912
1.000000 0.460266 0.247375
0.000000 0.662689 0.215271
0.040009 0.673309 0.216278
0.083099 0.693970 0.214722
0.217285 0.695221 0.217316
0.442291 0.690430 0.213684
0.681549 0.681610 0.206329
0.884613 0.669250 0.197052
0.959686 0.667145 0.200989
1.000000 0.661621 0.223480
0.000000 0.840332 0.188385
0.040009 0.851624 0.190369
0.080566 0.875275 0.187927
0.190948 0.879578 0.190948
0.410187 0.877350 0.189392
0.648712 0.869324 0.182404
0.861053 0.861206 0.176025
0.959900 0.858002 0.178253
1.000000 0.842560 0.201385
0.000000 0.953339 0.194458
0.040009 0.955353 0.197418
0.081146 0.959747 0.197540
0.198853 0.959900 0.198853
0.408051 0.959900 0.199188
0.642761 0.959900 0.190521
0.849152 0.959900 0.176178
0.959900 0.959900 0.164612
1.000000 0.953461 0.179077
0.000000 1.000000 0.199982
0.041901 1.000000 0.206512
0.088898 1.000000 0.215576
0.221008 1.000000 0.221039
0.404633 1.000000 0.213257
0.610321 1.000000 0.191803
0.804535 1.000000 0.175018
0.952271 1.000000 0.164520
1.000000 1.000000 0.160614
0.000000 0.000000 0.571899
0.055908 0.000000 0.568146
0.168488 0.000000 0.562073
0.323303 0.000000 0.543304
0.513977 0.000000 0.513977
0.715271 0.000000 0.485901
0.875061 0.000000 0.469208
0.953430 0.000000 0.457977
1.000000 0.000000 0.449432
0.000000 0.045166 0.550110
0.040527 0.040497 0.547302
0.138580 0.040253 0.540192
0.296448 0.040039 0.523560
0.501648 0.040009 0.501648
0.710968 0.040009 0.476044
0.879578 0.040009 0.462982
0.955353 0.040009 0.455078
1.000000 0.041901 0.450684
0.000000 0.141205 0.531586
0.040253 0.135559 0.536011
0.132568 0.132477 0.544312
0.300293 0.125488 0.535614
0.519836 0.112488 0.519836
0.739044 0.096008 0.493530
0.902771 0.091553 0.479065
0.959686 0.090546 0.470245
1.000000 0.104614 0.471252
0.000000 0.283600 0.502380
0.040009 0.284271 0.510712
0.117188 0.287872 0.522827
0.281708 0.281708 0.515930
0.505585 0.271820 0.505585
0.730682 0.254761 0.485718
0.906067 0.246857 0.475891
0.958801 0.244659 0.471924
1.000000 0.261536 0.476746
0.000000 0.466003 0.466034
0.040009 0.475189 0.475189
0.094971 0.487854 0.487793
0.252899 0.485809 0.485779
0.471985 0.471893 0.471985
0.700195 0.456665 0.456696
0.892914 0.446899 0.446960
0.956970 0.445770 0.445801
1.000000 0.457886 0.457886
0.000000 0.659851 0.428497
0.040009 0.670380 0.434021
0.082825 0.691162 0.442627
0.215271 0.692719 0.444489
0.433167 0.681122 0.433167
0.672424 0.672424 0.424500
0.876648 0.659790 0.413422
0.957458 0.658661 0.413666
1.000000 0.659882 0.429535
0.000000 0.838257 0.398102
0.040009 0.849701 0.402802
0.080536 0.873627 0.409241
0.189484 0.877991 0.411346
0.401154 0.869232 0.401123
0.639771 0.861298 0.392426
0.853027 0.853088 0.383545
0.958099 0.850281 0.380798
1.000000 0.841217 0.399902
0.000000 0.953308 0.395813
0.040009 0.955353 0.400757
0.081085 0.959747 0.406860
0.198151 0.959900 0.408081
0.398560 0.958099 0.398560
0.632904 0.958099 0.386963
0.838654 0.958099 0.368958
0.958099 0.958099 0.354797
1.000000 0.953430 0.365479
0.000000 1.000000 0.392517
0.041901 1.000000 0.398468
0.088501 1.000000 0.407990
0.218994 1.000000 0.411102
0.399384 1.000000 0.399384
0.606354 1.000000 0.377747
0.801300 1.000000 0.359894
0.952087 1.000000 0.346893
1.000000 1.000000 0.340057
0.000000 0.000000 0.785675
0.047913 0.000000 0.781769
0.158539 0.000000 0.776306
0.311798 0.000000 0.758362
0.503479 0.000000 0.731964
0.706085 0.000000 0.706085
0.868713 0.000000 0.690582
0.953430 0.000000 0.680908
1.000000 0.000000 0.673340
0.000000 0.042480 0.764191
0.040161 0.040161 0.761810
0.128082 0.040100 0.757050
0.285065 0.040009 0.742676
0.488770 0.040009 0.723175
0.703766 0.040009 0.703766
0.874725 0.040009 0.690308
0.955353 0.040009 0.682770
1.000000 0.041901 0.675140
0.000000 0.133362 0.750793
0.040100 0.127777 0.755798
0.119781 0.119690 0.772888
0.285583 0.113739 0.765503
0.504578 0.101074 0.750702
0.733307 0.091919 0.733307
0.900024 0.086945 0.718079
0.959747 0.087280 0.707306
1.000000 0.100403 0.695801
0.000000 0.277710 0.725586
0.040009 0.276611 0.734344
0.107574 0.275238 0.755402
0.269806 0.269745 0.749512
0.493286 0.260162 0.739990
0.727905 0.248169 0.727905
0.905670 0.238556 0.717346
0.959717 0.236847 0.711823
1.000000 0.257233 0.702667
0.000000 0.461060 0.691589
0.040009 0.465942 0.701630
0.088898 0.475372 0.722931
0.242279 0.474121 0.721619
0.460663 0.460602 0.708069
0.698425 0.450775 0.698395
0.892853 0.440399 0.686859
0.957489 0.439880 0.685028
1.000000 0.454041 0.684570
0.000000 0.655609 0.655548
0.040009 0.666260 0.666229
0.082428 0.686859 0.686768
0.211761 0.688690 0.688660
0.429352 0.677246 0.677277
0.661499 0.661469 0.661499
0.866364 0.650116 0.650085
0.955322 0.649231 0.649170
1.000000 0.656250 0.656250
0.000000 0.834686 0.625427
0.040009 0.846069 0.634155
0.080505 0.870087 0.652283
0.186127 0.874329 0.654999
0.397186 0.865753 0.644775
0.628693 0.850739 0.628693
0.842285 0.842285 0.619781
0.955719 0.838898 0.616699
1.000000 0.837097 0.625427
0.000000 0.953156 0.621948
0.040009 0.955353 0.630402
0.081024 0.959747 0.645874
0.194489 0.959900 0.649384
0.393982 0.958099 0.640106
0.619415 0.955933 0.619385
0.824371 0.955933 0.600433
0.955933 0.955933 0.586029
1.000000 0.953033 0.587036
0.000000 1.000000 0.617462
0.041901 1.000000 0.623260
0.087921 1.000000 0.632416
0.213074 1.000000 0.633057
0.390778 1.000000 0.619476
0.599792 1.000000 0.599762
0.794922 1.000000 0.581726
0.951721 1.000000 0.568268
1.000000 1.000000 0.561157
0.000000 0.000000 0.904480
0.045715 0.000000 0.904266
0.152252 0.000000 0.904114
0.304077 0.000000 0.900940
0.496826 0.000000 0.890625
0.700043 0.000000 0.874542
0.865051 0.000000 0.865082
0.953430 0.000000 0.861023
1.000000 0.000000 0.858459
0.000000 0.042175 0.902710
0.040039 0.040039 0.903625
0.122314 0.040039 0.903015
0.278748 0.040009 0.899902
0.482178 0.040009 0.889465
0.696747 0.040009 0.877991
0.871796 0.040009 0.871796
0.955353 0.040009 0.869293
1.000000 0.041901 0.864899
0.000000 0.129272 0.900482
0.040070 0.124023 0.903503
0.113678 0.113678 0.911011
0.277618 0.108459 0.910370
0.495300 0.096161 0.908752
0.723145 0.088257 0.901764
0.898346 0.085327 0.898346
0.959747 0.085602 0.894348
1.000000 0.098145 0.883698
0.000000 0.274414 0.894318
0.040009 0.272980 0.900116
0.103882 0.268585 0.909882
0.263031 0.263031 0.909058
0.485779 0.253510 0.908386
0.720306 0.241333 0.906219
0.904663 0.235565 0.904755
0.959900 0.232941 0.905731
1.000000 0.253845 0.893707
0.000000 0.457825 0.876923
0.040009 0.461395 0.885345
0.086578 0.467743 0.902039
0.235779 0.466919 0.904572
0.453430 0.453430 0.898773
0.690796 0.443207 0.894562
0.892242 0.436035 0.892395
0.958099 0.434174 0.893616
1.000000 0.450470 0.885040
0.000000 0.652069 0.854431
0.040009 0.660370 0.864990
0.080963 0.677948 0.885529
0.205139 0.680481 0.890564
0.421600 0.669220 0.883698
0.653381 0.653442 0.871033
0.864990 0.645233 0.864899
0.955750 0.643982 0.863922
1.000000 0.652588 0.862305
0.000000 0.831177 0.830841
0.040009 0.842560 0.842194
0.080475 0.866699 0.866425
0.183014 0.870880 0.870514
0.393433 0.862396 0.862061
0.624908 0.847229 0.847107
0.833832 0.833832 0.833801
0.954224 0.830841 0.830811
1.000000 0.832275 0.832245
0.000000 0.953003 0.828918
0.040009 0.955261 0.839813
0.080963 0.959747 0.861603
0.190704 0.959900 0.866974
0.389130 0.958099 0.858490
0.612946 0.955933 0.836700
0.812286 0.954468 0.812286
0.954285 0.954315 0.797974
1.000000 0.952515 0.792542
0.000000 1.000000 0.825562
0.041901 1.000000 0.831116
0.087677 1.000000 0.839447
0.206268 1.000000 0.837616
0.382660 1.000000 0.823761
0.592987 1.000000 0.806000
0.788300 1.000000 0.788300
0.949585 1.000000 0.774811
1.000000 1.000000 0.767944
0.000000 0.000000 0.953430
0.043732 0.000000 0.953430
0.145905 0.000000 0.953430
0.297302 0.000000 0.953430
0.491058 0.000000 0.953430
0.695282 0.000000 0.953430
0.862854 0.000000 0.953430
0.953430 0.000000 0.953430
1.000000 0.000000 0.953461
0.000000 0.041992 0.953430
0.040009 0.040039 0.955353
0.117554 0.040039 0.955353
0.273682 0.040009 0.955353
0.477539 0.040009 0.955353
0.692383 0.040009 0.955353
0.869263 0.040009 0.955353
0.955353 0.040009 0.955353
1.000000 0.041901 0.953461
0.000000 0.126099 0.953430
0.040070 0.121033 0.955353
0.112183 0.112122 0.959747
0.274200 0.107666 0.959747
0.489380 0.096497 0.959747
0.715057 0.088654 0.959747
0.894043 0.085510 0.959747
0.959747 0.085327 0.959747
1.000000 0.098022 0.953461
0.000000 0.272369 0.953430
0.040009 0.270660 0.955353
0.104584 0.266571 0.959747
0.259460 0.259460 0.959900
0.481354 0.250366 0.959900
0.715271 0.238373 0.959900
0.903320 0.232147 0.959900
0.959900 0.232269 0.959900
1.000000 0.253418 0.953461
0.000000 0.456665 0.953430
0.040009 0.459534 0.955353
0.088104 0.464111 0.959747
0.233490 0.463257 0.959900
0.449615 0.449646 0.958099
0.687134 0.439789 0.958099
0.890289 0.432251 0.958099
0.958099 0.433899 0.958099
1.000000 0.450104 0.953430
0.000000 0.651581 0.953430
0.040009 0.658691 0.955353
0.081543 0.672577 0.959747
0.204102 0.676605 0.959900
0.418457 0.665863 0.958099
0.649963 0.649994 0.955933
0.862000 0.641663 0.955933
0.955933 0.642853 0.955933
1.000000 0.651825 0.953430
0.000000 0.830658 0.952972
0.040009 0.840698 0.955231
0.080872 0.860321 0.959747
0.181793 0.866577 0.959900
0.389862 0.858826 0.958099
0.620880 0.843445 0.955933
0.829773 0.829834 0.954468
0.954468 0.828369 0.954468
1.000000 0.829834 0.953430
0.000000 0.952942 0.953033
0.040009 0.955231 0.955261
0.080963 0.959747 0.959747
0.190125 0.959900 0.959900
0.386749 0.958099 0.958099
0.608551 0.955933 0.955933
0.806824 0.954468 0.954468
0.952881 0.952911 0.952881
1.000000 0.952118 0.952087
0.000000 1.000000 0.953461
0.041901 1.000000 0.953461
0.087555 1.000000 0.953461
0.201202 1.000000 0.953461
0.377197 1.000000 0.953430
0.587982 1.000000 0.952972
0.783203 1.000000 0.951843
0.947021 1.000000 0.947052
1.000000 1.000000 0.944336
0.000000 0.000000 1.000000
0.043060 0.000000 1.000000
0.139557 0.000000 1.000000
0.291412 0.000000 1.000000
0.485931 0.000000 1.000000
0.691132 0.000000 1.000000
0.860931 0.000000 1.000000
0.953461 0.000000 1.000000
1.000000 0.000000 1.000000
0.000000 0.041962 1.000000
0.041962 0.041962 1.000000
0.118134 0.041962 1.000000
0.273804 0.041931 1.000000
0.475464 0.041901 1.000000
0.687469 0.041901 1.000000
0.864838 0.041901 1.000000
0.953461 0.041901 1.000000
1.000000 0.041901 1.000000
0.000000 0.123077 1.000000
0.041992 0.123169 1.000000
0.128021 0.127930 1.000000
0.287079 0.123535 1.000000
0.491669 0.113312 1.000000
0.705658 0.102509 1.000000
0.882477 0.097534 1.000000
0.953461 0.097748 1.000000
1.000000 0.097839 1.000000
0.000000 0.270233 1.000000
0.041931 0.272461 1.000000
0.120056 0.279266 1.000000
0.278259 0.278290 1.000000
0.486908 0.269989 1.000000
0.705841 0.259247 1.000000
0.891296 0.252167 1.000000
0.953461 0.252899 1.000000
1.000000 0.252502 1.000000
0.000000 0.455261 1.000000
0.041901 0.459167 1.000000
0.102051 0.467224 1.000000
0.254333 0.470062 1.000000
0.464172 0.464172 1.000000
0.685669 0.455139 1.000000
0.880707 0.447632 1.000000
0.953430 0.449127 1.000000
1.000000 0.449463 1.000000
0.000000 0.650665 1.000000
0.041901 0.655670 1.000000
0.089569 0.664368 1.000000
0.226410 0.669952 1.000000
0.435394 0.665985 1.000000
0.657928 0.657928 1.000000
0.859222 0.650024 1.000000
0.953430 0.650787 1.000000
1.000000 0.651154 1.000000
0.000000 0.830200 1.000000
0.041901 0.835693 1.000000
0.087372 0.844574 1.000000
0.203583 0.851105 1.000000
0.408081 0.848877 1.000000
0.630249 0.841248 1.000000
0.832764 0.832825 1.000000
0.953430 0.830811 1.000000
1.000000 0.827637 1.000000
0.000000 0.952972 1.000000
0.041901 0.953308 1.000000
0.087646 0.953461 1.000000
0.207916 0.953461 1.000000
0.402557 0.953430 1.000000
0.615906 0.953430 1.000000
0.807312 0.953430 1.000000
0.952606 0.952667 1.000000
1.000000 0.951599 1.000000
0.000000 1.000000 1.000000
0.041901 1.000000 1.000000
0.087433 1.000000 1.000000
0.197540 1.000000 1.000000
0.374268 1.000000 1.000000
0.584961 1.000000 1.000000
0.780273 1.000000 1.000000
0.945892 1.000000 1.000000
1.000000 1.000000 1.000000
