usr/bin/LUTs/DJI-D-LOG-M-to-709.cube
# Copyright: (C) Copyright 2010-2019 by IWLTBAP SAS
# Cannot be resold, shared or otherwise redistributed
# Website: https://luts.iwltbap.com
TITLE "DJI D-Log M to Rec.709 (Beta)"
LUT_3D_SIZE 5
0.424225 0.432404 0.429352
0.333862 0.340027 0.315521
0.381073 0.395905 0.352722
0.354187 0.379974 0.313782
0.307892 0.352722 0.253876
0.447693 0.457428 0.453888
0.362030 0.369110 0.359894
0.471771 0.448242 0.453491
0.626648 0.632660 0.620514
0.521271 0.541473 0.510498
0.520203 0.450348 0.431610
0.626923 0.574158 0.552826
0.485260 0.450470 0.439789
0.480927 0.467102 0.446106
0.464661 0.452026 0.440582
0.304474 0.340240 0.279419
0.304474 0.340240 0.279419
0.275879 0.309692 0.265808
0.225555 0.250885 0.230225
0.203156 0.258240 0.230713
0.454193 0.463806 0.460175
0.397034 0.390259 0.387939
0.441376 0.427765 0.390717
0.691711 0.708618 0.679474
0.393158 0.408234 0.382324
0.311371 0.328400 0.289459
0.334747 0.349762 0.309753
0.334747 0.349762 0.309753
0.283508 0.308594 0.250610
0.319122 0.365509 0.293976
0.429962 0.438782 0.435394
0.389740 0.396393 0.393738
0.454193 0.463806 0.460175
0.631195 0.637085 0.632324
0.634857 0.637329 0.607544
0.507629 0.440460 0.439026
0.560150 0.491821 0.488892
0.480438 0.437134 0.427246
0.487152 0.473450 0.452393
0.482147 0.457550 0.446289
0.309692 0.345703 0.284271
0.279205 0.343201 0.275757
0.218140 0.277832 0.230743
0.218140 0.277832 0.230743
0.162109 0.217499 0.204163
0.252380 0.260773 0.252472
0.290466 0.299561 0.290497
0.557526 0.519653 0.488678
0.484009 0.451202 0.413361
0.452209 0.418915 0.409424
0.351715 0.364777 0.292297
0.334900 0.348663 0.293243
0.262146 0.277832 0.242462
0.381073 0.395905 0.352722
0.296387 0.311005 0.259735
0.466583 0.476593 0.472687
0.372833 0.378998 0.376862
0.461426 0.472137 0.459930
0.609528 0.625397 0.595093
0.648254 0.663147 0.625946
0.484924 0.421631 0.420807
0.490692 0.436371 0.426849
0.464661 0.452026 0.440582
0.480927 0.467102 0.446106
0.485260 0.450470 0.439789
0.321625 0.368713 0.304626
0.271362 0.325775 0.281128
0.207733 0.262939 0.235107
0.268494 0.323822 0.286133
0.206207 0.263885 0.248901
0.188629 0.215088 0.208344
0.257874 0.284058 0.261780
0.574860 0.488770 0.495056
0.565491 0.495636 0.475067
0.504608 0.447510 0.445526
0.365662 0.391418 0.307465
0.392151 0.406647 0.345673
0.481476 0.501129 0.452606
0.479797 0.488037 0.439362
0.461517 0.481903 0.433899
0.479218 0.476349 0.472382
0.389740 0.396393 0.393738
0.463867 0.461426 0.440308
0.514465 0.535095 0.504120
0.659637 0.676147 0.612244
0.429779 0.375183 0.374451
0.477295 0.415314 0.414764
0.469482 0.447266 0.427338
0.482147 0.457550 0.446289
0.546722 0.531403 0.509277
0.234802 0.285248 0.244080
0.191620 0.249786 0.204163
0.144928 0.208954 0.177368
0.174591 0.228699 0.208649
0.195465 0.254608 0.239746
0.221924 0.268250 0.253265
0.202576 0.234619 0.208374
0.536133 0.500183 0.469666
0.544983 0.485626 0.456207
0.527802 0.459442 0.457642
0.451172 0.481964 0.371246
0.359863 0.386017 0.318787
0.476807 0.474243 0.452789
0.487152 0.473450 0.452393
0.480927 0.467102 0.446106
0.133972 0.164948 0.177612
0.157013 0.185394 0.190857
0.461426 0.472137 0.459930
0.562042 0.579681 0.549133
0.654663 0.670532 0.605774
0.373627 0.344635 0.335907
0.594269 0.523682 0.493317
0.464844 0.423065 0.395905
0.498627 0.463196 0.452179
0.648773 0.652466 0.632172
0.178040 0.230347 0.204102
0.149231 0.232300 0.199982
0.138916 0.217834 0.204498
0.161255 0.238159 0.217773
0.156830 0.236389 0.222229
0.206207 0.263885 0.248901
0.266846 0.305023 0.296051
0.538452 0.479156 0.449982
0.547852 0.490021 0.469421
0.566956 0.478790 0.468719
