usr/bin/LUTs/HDR-to-SDR.cube
TITLE "Generated by Resolve"
LUT_3D_SIZE 5
0 0 0
0.241047 0 0
0.718868 0 0
0.92311 0 0
0.92311 0 0
0 0.197436 0
0.191943 0.183658 0
0.704097 0.0737621 0
0.92311 0 0
0.92311 0 0
0.000213626 0.626184 0.000213626
0.00015259 0.620371 0.00015259
0.61529 0.595865 0.00643931
0.970764 0.529091 0.0193637
0.9579 0.400946 0.0177462
0.0152438 0.985534 0.0152438
0.0152438 0.985534 0.0152438
0.11989 0.986923 0.0166171
0.998535 0.998535 0.0282444
0.996338 0.947417 0.0261692
0.0152438 0.985534 0.0152438
0.0152438 0.985534 0.0152438
0.0152438 0.985534 0.0152438
0.732418 0.99501 0.0247196
0.998535 0.998535 0.0282444
0 0 0.187259
0.243336 0 0.188251
0.721218 0 0.18146
0.92639 0 0.158556
0.925124 0 0.110338
0 0.197482 0.183978
0.183322 0.183459 0.183459
0.703838 0.0728466 0.173495
0.925963 0 0.14342
0.924681 0 0.090425
0.000640879 0.626474 0.114199
0.000442512 0.620645 0.110262
0.612299 0.595712 0.0950942
0.970291 0.528984 0.0576486
0.957839 0.400336 0.017731
0.0152438 0.985534 0.0152438
0.0152438 0.985534 0.0152438
0.103212 0.986694 0.0163882
0.998535 0.998535 0.0282444
0.996323 0.947173 0.0261692
0.0152438 0.985534 0.0152438
0.0152438 0.985534 0.0152438
0.0152438 0.985534 0.0152438
0.729549 0.99498 0.0246891
0.998535 0.998535 0.0282444
0 0 0.597757
0.201343 0 0.599924
0.729427 0 0.601801
0.951965 0 0.592905
0.951202 0 0.579004
0 0.193942 0.602579
0.12459 0.178714 0.602869
0.710277 0.0573281 0.600153
0.951705 0 0.58819
0.950927 0 0.574182
0.00315862 0.627131 0.595621
0.00291447 0.621302 0.594537
0.596078 0.596262 0.596262
0.967285 0.53228 0.590234
0.960464 0.402029 0.567239
0.0183261 0.988632 0.555581
0.0183261 0.988617 0.55462
0.0182956 0.988586 0.549386
1 1 0.551553
0.9991 0.948714 0.533364
0.017792 0.988083 0.461463
0.0177768 0.988083 0.460273
0.0177462 0.988037 0.453971
0.716014 0.997192 0.449851
1 1 0.433494
0 0 0.947753
0.0740673 0 0.949035
0.701366 0 0.957336
0.960754 0 0.960769
0.960754 0 0.960769
0 0.183352 0.956558
0 0.165286 0.955795
0.680003 0.0343481 0.95906
0.960754 0 0.960769
0.960754 0 0.960769
0.00514229 0.624964 0.975448
0.00489815 0.61915 0.975204
0.5579 0.593317 0.981109
0.983627 0.525124 0.983627
0.977966 0.392599 0.977966
0.0208133 0.991104 0.991104
0.0208133 0.991104 0.991104
0.0208133 0.991104 0.991104
1 1 1
1 0.948577 0.996277
0.0206302 0.990921 0.958236
0.0206302 0.990921 0.957763
0.0206149 0.990906 0.954894
0.685176 0.999664 0.957855
1 1 0.953368
0 0 0.947753
0 0 0.947753
0.653468 0 0.956695
0.960754 0 0.960769
0.960754 0 0.960769
0 0.163684 0.955718
0 0.143999 0.954879
0.628672 0.00679026 0.956878
0.960754 0 0.960769
0.960754 0 0.960769
0.00486763 0.61854 0.975174
0.00462348 0.612589 0.974929
0.492195 0.585657 0.97995
0.983291 0.517327 0.983291
0.977523 0.382208 0.977523
0.0208133 0.991104 0.991104
0.0208133 0.991104 0.991104
0.0208133 0.991104 0.991104
0.97464 1 1
1 0.94435 1
0.0208133 0.991104 0.991104
0.0208133 0.991104 0.991104
0.0208133 0.991104 0.991104
0.632486 0.999191 0.999191
1 1 1
