usr/bin/LUTs/HDR-to-SDR.cube
TITLE "Generated by Resolve"
LUT_3D_SIZE 33
0 0 0
0.0551308 0 0
0.0826429 0 0
0.102968 0 0
0.124102 0 0
0.148013 0 0
0.175189 0 0
0.206088 0 0
0.241047 0 0
0.280522 0 0
0.325338 0 0
0.375845 0 0
0.432853 0 0
0.497307 0 0
0.570001 0 0
0.647562 0 0
0.718868 0 0
0.785397 0 0
0.848676 0 0
0.909636 0 0
0.92311 0 0
0.92311 0 0
0.92311 0 0
0.92311 0 0
0.92311 0 0
0.92311 0 0
0.92311 0 0
0.92311 0 0
0.92311 0 0
0.92311 0 0
0.92311 0 0
0.92311 0 0
0.92311 0 0
0 0.0322423 0
0.0294804 0.0264591 0
0.0614176 0.0243992 0
0.0847181 0.0228122 0
0.108095 0.0209049 0
0.133944 0.0183413 0
0.162768 0.0151217 0
0.194919 0.0107576 0
0.230961 0.00790417 0
0.271458 0.00607309 0
0.316655 0.00292973 0
0.367712 0 0
0.425772 0 0
0.491157 0 0
0.56466 0 0
0.642924 0 0
0.714687 0 0
0.781567 0 0
0.845197 0 0
0.906279 0 0
0.92311 0 0
0.92311 0 0
0.92311 0 0
0.92311 0 0
0.92311 0 0
0.92311 0 0
0.92311 0 0
0.92311 0 0
0.92311 0 0
0.92311 0 0
0.92311 0 0
0.92311 0 0
0.92311 0 0
0 0.0553902 0
0.019089 0.0491646 0
0.051545 0.047013 0
0.0772717 0.045304 0
0.102098 0.0433051 0
0.129 0.0407263 0
0.158633 0.0375219 0
0.191501 0.0331884 0
0.228153 0.0276036 0
0.269108 0.0202487 0
0.314687 0.0108186 0
0.36582 0.00668345 0
0.423102 0 0
0.488838 0 0
0.56257 0 0
0.641062 0 0
0.713069 0 0
0.780179 0 0
0.843809 0 0
0.905119 0 0
0.92311 0 0
0.92311 0 0
0.92311 0 0
0.92311 0 0
0.92311 0 0
0.92311 0 0
0.92311 0 0
0.92311 0 0
0.92311 0 0
0.92311 0 0
0.92311 0 0
0.92311 0 0
0.92311 0 0
0 0.0737011 0
0.0101778 0.068101 0
0.0426032 0.0663005 0
0.0697185 0.0645609 0
0.0963607 0.0625925 0
0.12459 0.0601511 0
0.155108 0.0565347 0
0.188693 0.0523384 0
0.225757 0.0467689 0
0.267063 0.0394598 0
0.313176 0.0298009 0
0.364675 0.0172122 0
0.422126 0.00802625 0
0.486748 0 0
0.56083 0 0
0.639551 0 0
0.711666 0 0
0.778897 0 0
0.842649 0 0
0.903944 0 0
0.92311 0 0
0.92311 0 0
0.92311 0 0
0.92311 0 0
0.92311 0 0
0.92311 0 0
0.92311 0 0
0.92311 0 0
0.92311 0 0
0.92311 0 0
0.92311 0 0
0.92311 0 0
0.92311 0 0
0 0.0926375 0
0.0055848 0.0874952 0
0.0320439 0.0859541 0
0.0599374 0.0844587 0
0.0883803 0.0827344 0
0.118563 0.0805676 0
0.150683 0.0775616 0
0.18526 0.0737926 0
0.223117 0.0688182 0
0.265019 0.0617838 0
0.311421 0.0520485 0
0.363272 0.0394903 0
0.421103 0.0231327 0
0.485725 0.00865187 0
0.558846 0 0
0.637812 0 0
0.710048 0 0
0.777386 0 0
0.841367 0 0
0.902785 0 0
0.92311 0 0
0.92311 0 0
0.92311 0 0
0.92311 0 0
0.92311 0 0
0.92311 0 0
0.92311 0 0
0.92311 0 0
0.92311 0 0
0.92311 0 0
0.92311 0 0
0.92311 0 0
0.92311 0 0
0 0.114046 0
0.00231937 0.109453 0
0.0186007 0.108034 0
0.0462654 0.106783 0
0.0771496 0.105333 0
0.109682 0.103426 0
0.143999 0.100801 0
0.180331 0.0974899 0
0.219471 0.0931868 0
0.262165 0.0873732 0
0.309331 0.0792554 0
0.3617 0.0678264 0
0.419821 0.0513924 0
0.484764 0.0299535 0
0.557382 0.00895705 0
0.635493 0 0
0.708064 0 0
0.775647 0 0
0.839628 0 0
0.901167 0 0
0.92311 0 0
0.92311 0 0
0.92311 0 0
0.92311 0 0
0.92311 0 0
0.92311 0 0
0.92311 0 0
0.92311 0 0
0.92311 0 0
0.92311 0 0
0.92311 0 0
0.92311 0 0
0.92311 0 0
0 0.138415 0
0 0.134218 0
0.00695811 0.132906 0
0.0289769 0.131899 0
0.0612039 0.130724 0
0.0967727 0.129091 0
0.133715 0.126864 0
0.172641 0.123934 0
0.213809 0.120089 0
0.258015 0.115145 0
0.306157 0.108461 0
0.359319 0.0991531 0
0.418311 0.0858167 0
0.483772 0.0662699 0
0.556771 0.0381933 0
0.633799 0.0099794 0
0.705516 0 0
0.773205 0 0
0.837415 0 0
0.899184 0 0
0.92311 0 0
0.92311 0 0
0.92311 0 0
0.92311 0 0
0.92311 0 0
0.92311 0 0
0.92311 0 0
0.92311 0 0
0.92311 0 0
0.92311 0 0
0.92311 0 0
0.92311 0 0
0.92311 0 0
0 0.16614 0
0 0.162417 0
0 0.160937 0
0.00926223 0.160067 0
0.0386664 0.159121 0
0.0784314 0.157794 0
0.119142 0.155978 0
0.160998 0.153445 0
0.205066 0.150088 0
0.251804 0.1458 0
0.301747 0.139986 0
0.355993 0.132372 0
0.4159 0.12163 0
0.482261 0.106294 0
0.556023 0.0835279 0
0.633448 0.0500801 0
0.703975 0.0164187 0
0.770184 0 0
0.834745 0 0
0.896635 0 0
0.92311 0 0
0.92311 0 0
0.92311 0 0
0.92311 0 0
0.92311 0 0
0.92311 0 0
0.92311 0 0
0.92311 0 0
0.92311 0 0
0.92311 0 0
0.92311 0 0
0.92311 0 0
0.92311 0 0
0 0.197436 0
0 0.194232 0
0 0.192859 0
0 0.191867 0
0.0112154 0.190906 0
0.05066 0.189944 0
0.0981003 0.188479 0
0.144442 0.186358 0
0.191943 0.183658 0
0.241856 0.179873 0
0.294682 0.174823 0
0.350988 0.168261 0
0.412116 0.159457 0
0.479576 0.147204 0
0.554376 0.129503 0
0.632883 0.104662 0
0.704097 0.0737621 0
0.76968 0.0365759 0
0.831617 0.00489815 0
0.893263 0 0
0.92311 0 0
0.92311 0 0
0.92311 0 0
0.92311 0 0
0.92311 0 0
0.92311 0 0
0.92311 0 0
0.92311 0 0
0.92311 0 0
0.92311 0 0
0.92311 0 0
0.92311 0 0
0.92311 0 0
0 0.232959 0
0 0.230106 0
0 0.228992 0
0 0.228 0
0 0.226886 0
0.0136873 0.22594 0
0.0658122 0.224781 0
0.120333 0.223026 0
0.173144 0.220874 0
0.226978 0.217762 0
0.283467 0.213443 0
0.343038 0.207736 0
0.406592 0.200336 0
0.475654 0.190249 0
0.551644 0.17612 0
0.631251 0.157092 0
0.703441 0.134676 0
0.770016 0.107958 0
0.832502 0.0741436 0
0.891997 0.033753 0
0.92311 0 0
0.92311 0 0
0.92311 0 0
0.92311 0 0
0.92311 0 0
0.92311 0 0
0.92311 0 0
0.92311 0 0
0.92311 0 0
0.92311 0 0
0.92311 0 0
0.92311 0 0
0.92311 0 0
0 0.273045 0
0 0.270573 0
0 0.269581 0
0 0.268711 0
0 0.267735 0
0 0.266484 0
0.0177768 0.265446 0
0.0831006 0.26421 0
0.145769 0.26244 0
0.205646 0.259892 0
0.266667 0.256367 0
0.330434 0.251408 0
0.39762 0.244953 0
0.469383 0.236469 0
0.547173 0.224994 0
0.628092 0.209888 0.000793469
0.70135 0.19266 0.00192264
0.768948 0.173083 0.00244144
0.832624 0.150332 0.00247196
0.893172 0.123095 0.00199893
0.929976 0.0883192 0.000396735
0.92665 0.0433204 0
0.923278 0.00184634 0
0.92311 0 0
0.92311 0 0
0.92311 0 0
0.92311 0 0
0.92311 0 0
0.92311 0 0
0.92311 0 0
0.92311 0 0
0.92311 0 0
0.92311 0 0
0 0.318456 0
0 0.316228 0
0 0.315373 0
0 0.314626 0
0 0.313756 0
0 0.312642 0
0 0.311284 0
0.0223239 0.310033 0
0.10277 0.308858 0
0.174426 0.306844 0
0.242435 0.303914 0
0.31136 0.29987 0
0.383398 0.294392 0
0.459281 0.287083 0
0.54023 0.277424 0
0.623148 0.265064 0.00236515
0.697749 0.251514 0.00450141
0.766354 0.236378 0.00584421
0.830823 0.219303 0.00657664
0.892485 0.200046 0.0069276
0.937057 0.177356 0.00653086
0.934768 0.149523 0.00466926
0.932097 0.115694 0.00233463
0.928725 0.0714427 0.000167849
0.924926 0.0204929 0
0.92311 0 0
0.92311 0 0
0.92311 0 0
0.92311 0 0
0.92311 0 0
0.92311 0 0
0.92311 0 0
0.92311 0 0
0 0.369696 0
0 0.367712 0
0 0.366964 0
0 0.366354 0
0 0.365606 0
0 0.364614 0
0 0.363378 0
0 0.361898 0
0.0272374 0.360418 0
0.1252 0.359121 0
0.206912 0.356985 0
0.284031 0.353674 0
0.361929 0.349142 0
0.443244 0.342916 0
0.528954 0.33463 0
0.615259 0.324193 0.0024567
0.691768 0.31313 0.00582895
0.761639 0.301152 0.00822461
0.827237 0.287877 0.00981155
0.889799 0.273075 0.0109102
0.943923 0.256489 0.0114137
0.942138 0.2365 0.0102388
0.940154 0.213947 0.00888075
0.937942 0.187976 0.00721752
0.935409 0.157336 0.00518807
0.932387 0.119478 0.00259403
0.928512 0.0686351 0.000137331
0.924147 0.0116579 0
0.92311 0 0
0.92311 0 0
0.92311 0 0
0.92311 0 0
0.92311 0 0
0 0.427482 0
0 0.425742 0
0 0.425132 0
0 0.424506 0
0 0.423896 0
0 0.423026 0
0 0.422034 0
0 0.420676 0
0 0.418936 0
0.0327764 0.417258 0
0.15053 0.415976 0
0.243641 0.413504 0
0.330938 0.409827 0
0.419013 0.404685 0
0.510704 0.397604 0
0.602258 0.388769 0.00163272
0.682246 0.379492 0.00560006
0.754345 0.369574 0.0090486
0.821363 0.358953 0.0117342
0.884947 0.347326 0.0137179
0.94609 0.334554 0.0152132
0.949783 0.319097 0.0146639
0.948165 0.302174 0.0138705
0.946395 0.283299 0.0128939
0.944457 0.262333 0.0117342
0.942306 0.238453 0.0103609
0.939925 0.211139 0.00869764
0.937179 0.17882 0.00662242
0.933944 0.139147 0.00395209
0.929824 0.086244 0.000320439
0.924712 0.0180667 0
0.92311 0 0
0.92311 0 0
0 0.492683 0
0 0.491203 0
0 0.490593 0
0 0.490089 0
0 0.489601 0
0 0.488853 0
0 0.487984 0
0 0.486748 0
0 0.485267 0
0 0.483406 0
0.0386511 0.481529 0
0.179202 0.480156 0
0.285237 0.477363 0
0.384039 0.473228 0
0.48336 0.467491 3.0518e-05
0.581399 0.459998 0.00149538
0.6663 0.451987 0.00468452
0.742016 0.44361 0.00830091
0.811673 0.43473 0.0118105
0.877012 0.425208 0.014847
0.939574 0.415091 0.017319
0.958114 0.403021 0.017792
0.956756 0.389487 0.0173953
0.955276 0.374746 0.016907
0.953674 0.358801 0.0163272
0.951919 0.341131 0.0156405
0.950042 0.321767 0.014786
0.947982 0.300221 0.0137636
0.945693 0.275868 0.0124971
0.943145 0.247959 0.0109255
0.940276 0.21529 0.00895705
0.936934 0.175891 0.00642405
0.932845 0.125216 0.00299077
0 0.562234 0
0 0.560998 0
0 0.560494 0
0 0.560006 0
0 0.559503 0
0 0.558892 0
0 0.558145 0
0 0.557031 0
0 0.555795 0
0 0.55407 0
0 0.551965 0
0.0551308 0.549889 0
0.216541 0.54844 6.10361e-05
0.335409 0.545174 0.000732433
0.446311 0.540581 0.00190738
0.552087 0.534325 0.00303655
0.64271 0.527581 0.00486763
0.723095 0.520302 0.00756847
0.796445 0.512749 0.0107881
0.86479 0.504555 0.0141756
0.929534 0.496223 0.0174258
0.966644 0.486549 0.0191806
0.965515 0.475319 0.0190738
0.964309 0.463355 0.018967
0.962966 0.450309 0.0187686
0.961547 0.436408 0.0185397
0.959976 0.421164 0.0182193
0.958282 0.404593 0.0178378
0.956451 0.38645 0.0172885
0.954437 0.366461 0.0166323
0.952239 0.344305 0.0157626
0.949813 0.319341 0.0146792
0.947112 0.290959 0.0132906
0.000213626 0.626184 0.000213626
0.000213626 0.625071 0.000213626
0.000198367 0.624582 0.000198367
0.000198367 0.624216 0.000198367
0.000198367 0.623713 0.000198367
0.000183108 0.623224 0.000183108
0.000183108 0.622477 0.000183108
0.000167849 0.621607 0.000167849
0.00015259 0.620371 0.00015259
0.000137331 0.618891 0.000137331
0.000122072 0.616907 0.000122072
9.15541e-05 0.614435 9.15541e-05
0.113603 0.612741 0.000747692
0.275349 0.610666 0.00270085
0.403311 0.606806 0.00415045
0.51873 0.601648 0.00540169
0.61529 0.595865 0.00643931
0.70013 0.589548 0.00805676
0.777386 0.582818 0.0104067
0.848997 0.575769 0.0133211
0.916487 0.568322 0.016495
0.973602 0.56022 0.019379
0.972747 0.55053 0.019379
0.971786 0.540108 0.0193637
0.970764 0.529091 0.0193637
0.969635 0.517098 0.0193332
0.968399 0.504387 0.0192874
0.967041 0.490578 0.0192111
0.965545 0.475685 0.0190738
0.963912 0.459449 0.0189059
0.962097 0.441764 0.0186313
0.960098 0.422385 0.0182498
0.9579 0.400946 0.0177462
0.00242618 0.685954 0.00242618
0.00238041 0.68484 0.00238041
0.00236515 0.684474 0.00236515
0.00234989 0.684108 0.00234989
0.00233463 0.683726 0.00233463
0.00231937 0.683238 0.00230411
0.00228885 0.68249 0.00227359
0.00225834 0.681743 0.00224308
0.0021973 0.680644 0.0021973
0.00215152 0.679271 0.00213626
0.00207523 0.677546 0.00205997
0.00196841 0.675196 0.00196841
0.00184634 0.672343 0.00184634
0.195285 0.671077 0.00422675
0.352544 0.668086 0.00610361
0.480964 0.663722 0.00755322
0.584527 0.658778 0.00865187
0.674128 0.653284 0.00959792
0.755184 0.647288 0.0110781
0.829953 0.641001 0.0132143
0.900374 0.634256 0.0158694
0.967254 0.627222 0.0188449
0.978454 0.618677 0.0193637
0.977722 0.609461 0.0193637
0.976928 0.599619 0.0193637
0.976104 0.589181 0.0193637
0.975143 0.578012 0.0193637
0.974105 0.565988 0.019379
0.972976 0.553094 0.019379
0.971695 0.539132 0.0193637
0.970306 0.524071 0.0193637
0.968734 0.507805 0.0193027
0.966995 0.490089 0.0192111
0.00485237 0.742748 0.00485237
0.00480659 0.741772 0.00480659
0.00479133 0.74139 0.00479133
0.00477607 0.741024 0.00477607
0.00476081 0.740658 0.00476081
0.00474556 0.740154 0.00474556
0.00471504 0.739544 0.00471504
0.00468452 0.738796 0.00468452
0.00463874 0.737804 0.00463874
0.00459297 0.736568 0.00459297
0.00451667 0.734966 0.00451667
0.00442512 0.73286 0.00442512
0.0043183 0.730129 0.00430304
0.0590066 0.727398 0.00488289
0.289876 0.725872 0.00775158
0.437522 0.722255 0.00946059
0.550103 0.717937 0.0107118
0.645258 0.713024 0.0117189
0.730205 0.70782 0.0126192
0.808301 0.702159 0.0139925
0.881483 0.696086 0.0159762
0.950896 0.689662 0.0184176
0.982925 0.682246 0.0196841
0.982361 0.673869 0.0196384
0.981765 0.66511 0.0195773
0.981125 0.655619 0.0195163
0.980423 0.645518 0.0194705
0.979644 0.634806 0.0194247
0.978805 0.623362 0.019379
0.977844 0.611063 0.0193637
0.976791 0.597787 0.0193637
0.975616 0.583535 0.0193637
0.974304 0.568185 0.019379
0.007187 0.79733 0.007187
0.00715648 0.79646 0.00715648
0.00714122 0.796094 0.00714122
0.00712596 0.795712 0.00712596
0.0071107 0.795468 0.0071107
0.00709545 0.79498 0.00709545
0.00706493 0.794476 0.00706493
0.00703441 0.793729 0.00703441
0.00700389 0.792874 0.00700389
0.00694286 0.791638 0.00694286
0.00688182 0.790143 0.00688182
0.00679026 0.788174 0.00679026
0.00669871 0.785687 0.00669871
0.00654612 0.782483 0.00654612
0.205371 0.780911 0.00900282
0.386404 0.778103 0.0111849
0.511131 0.774304 0.012604
0.613153 0.770092 0.0137179
0.702571 0.765469 0.0146487
0.784161 0.760357 0.0155337
0.860227 0.75491 0.0168307
0.932189 0.749065 0.018677
0.986526 0.742519 0.0204318
0.986084 0.734859 0.0203098
0.985626 0.726833 0.0202029
0.985138 0.718181 0.0200656
0.984588 0.709041 0.0199588
0.983978 0.69929 0.0198672
0.983337 0.688914 0.0197604
0.98262 0.677806 0.0196536
0.981826 0.66598 0.0195773
0.980972 0.653162 0.019501
0.97998 0.63949 0.01944
0.00946059 0.850416 0.00946059
0.00941482 0.849546 0.00941482
0.00941482 0.849302 0.00941482
0.00939956 0.84892 0.00939956
0.0093843 0.848676 0.0093843
0.00936904 0.84831 0.00936904
0.00933852 0.847684 0.00933852
0.009308 0.847074 0.009308
0.00927749 0.846204 0.00927749
0.00923171 0.84509 0.00923171
0.00917067 0.843732 0.00917067
0.00909438 0.841871 0.00909438
0.00898756 0.839521 0.00898756
0.00886549 0.836545 0.00886549
0.0575418 0.833234 0.00933852
0.323445 0.831922 0.0126497
0.466194 0.828885 0.0143282
0.577127 0.825147 0.0155795
0.672084 0.820951 0.0166171
0.757534 0.816403 0.0175021
0.836606 0.811383 0.0183261
0.911131 0.806043 0.0195926
0.982177 0.80029 0.0213474
0.989212 0.793347 0.0214084
0.988846 0.785916 0.0212406
0.988434 0.777996 0.0210727
0.987991 0.769589 0.0209049
0.987518 0.760693 0.0207523
0.986999 0.751171 0.0205692
0.98645 0.741039 0.0204013
0.985824 0.730159 0.0202487
0.985153 0.718547 0.0200809
0.984405 0.706203 0.0199283
0.0116732 0.902373 0.0116732
0.0116426 0.90164 0.0116426
0.0116274 0.901274 0.0116274
0.0116274 0.901015 0.0116274
0.0116121 0.900771 0.0116121
0.0115969 0.900404 0.0115969
0.0115663 0.899901 0.0115663
0.0115511 0.89929 0.0115511
0.0115053 0.898421 0.0115053
0.0114595 0.897429 0.0114595
0.0114137 0.896193 0.0114137
0.0113375 0.894453 0.0113375
0.0112459 0.892241 0.0112459
0.0111238 0.889387 0.0111238
0.010956 0.885679 0.010956
0.240146 0.884245 0.0138094
0.413153 0.881834 0.0158999
0.535988 0.878645 0.017319
0.637919 0.874922 0.0184482
0.728069 0.870802 0.0194247
0.810529 0.866316 0.0202792
0.887938 0.861402 0.0211032
0.961395 0.856168 0.0223087
0.991974 0.850019 0.0228733
0.991653 0.843091 0.0226749
0.991302 0.83566 0.0224613
0.990936 0.827985 0.0222629
0.990539 0.819699 0.0220493
0.990112 0.81091 0.0218051
0.989639 0.801511 0.0215915
0.989136 0.791608 0.0213779
0.988586 0.780972 0.0211337
0.987991 0.769589 0.0209049
0.0138705 0.953613 0.0138705
0.0138399 0.952865 0.0138399
0.0138399 0.952621 0.0138399
0.0138247 0.952377 0.0138247
0.0138094 0.951995 0.0138094
0.0137942 0.951751 0.0137942
0.0137789 0.951263 0.0137789
0.0137484 0.950637 0.0137484
0.0137179 0.949905 0.0137179
0.0136721 0.948913 0.0136721
0.0136263 0.947677 0.0136263
0.01355 0.946059 0.01355
0.0134737 0.944076 0.0134737
0.0133516 0.94136 0.0133516
0.0131991 0.937896 0.0131991
0.103273 0.934874 0.0142214
0.347951 0.933669 0.017258
0.488548 0.930938 0.0189212
0.599496 0.927718 0.0202029
0.695308 0.923919 0.0212558
0.781994 0.919875 0.0221714
0.862425 0.915496 0.0230106
0.938384 0.910552 0.0238193
0.994492 0.905226 0.0246281
0.994202 0.898787 0.0244144
0.993881 0.891844 0.0241855
0.993561 0.884672 0.0239414
0.99321 0.876997 0.023682
0.992844 0.868818 0.0234226
0.992447 0.860166 0.0231785
0.99202 0.850889 0.0229038
0.991562 0.841108 0.0226139
0.991058 0.830594 0.0223239
0.0152438 0.985534 0.0152438
0.0152438 0.985534 0.0152438
0.0152438 0.985534 0.0152438
0.0152438 0.985534 0.0152438
0.0152438 0.985534 0.0152438
0.0152438 0.985534 0.0152438
0.0152438 0.985534 0.0152438
0.0152438 0.985534 0.0152438
0.0152438 0.985534 0.0152438
0.0152438 0.985534 0.0152438
0.0152438 0.985534 0.0152438
0.0152438 0.985534 0.0152438
0.0152438 0.985534 0.0152438
0.0152438 0.985534 0.0152438
0.0152438 0.985534 0.0152438
0.0152438 0.985412 0.0152438
0.26183 0.984588 0.0183261
0.432212 0.982513 0.0203861
0.555657 0.979568 0.0218357
0.658793 0.976104 0.0229953
0.750301 0.972625 0.0240024
0.834455 0.968536 0.0249027
0.913329 0.964141 0.0257115
0.988464 0.959319 0.0265202
0.996597 0.953368 0.0264134
0.996307 0.946929 0.026154
0.996017 0.940124 0.0258946
0.995712 0.932937 0.0256199
0.995377 0.925261 0.0253452
0.99501 0.91722 0.0250553
0.994644 0.908553 0.0247501
0.994232 0.899397 0.0244297
0.99379 0.889738 0.0241093
0.0152438 0.985534 0.0152438
0.0152438 0.985534 0.0152438
0.0152438 0.985534 0.0152438
0.0152438 0.985534 0.0152438
0.0152438 0.985534 0.0152438
0.0152438 0.985534 0.0152438
0.0152438 0.985534 0.0152438
0.0152438 0.985534 0.0152438
0.0152438 0.985534 0.0152438
0.0152438 0.985534 0.0152438
0.0152438 0.985534 0.0152438
0.0152438 0.985534 0.0152438
0.0152438 0.985534 0.0152438
0.0152438 0.985534 0.0152438
0.0152438 0.985534 0.0152438
0.0152438 0.985534 0.0152438
0.11989 0.986923 0.0166171
0.3608 0.990097 0.0198062
0.503029 0.991989 0.0216983
0.615991 0.993469 0.0231785
0.713817 0.994766 0.0244755
0.802518 0.995941 0.0256504
0.884871 0.997024 0.0267338
0.96289 0.998062 0.0277714
0.998535 0.998535 0.0282444
0.998535 0.998535 0.0282444
0.998367 0.994705 0.0280919
0.998077 0.988022 0.0278019
0.997772 0.980835 0.027512
0.997452 0.973175 0.0271916
0.997101 0.965118 0.0268711
0.996735 0.956588 0.0265354
0.996338 0.947417 0.0261692
0.0152438 0.985534 0.0152438
0.0152438 0.985534 0.0152438
0.0152438 0.985534 0.0152438
0.0152438 0.985534 0.0152438
0.0152438 0.985534 0.0152438
0.0152438 0.985534 0.0152438
0.0152438 0.985534 0.0152438
0.0152438 0.985534 0.0152438
0.0152438 0.985534 0.0152438
0.0152438 0.985534 0.0152438
0.0152438 0.985534 0.0152438
0.0152438 0.985534 0.0152438
0.0152438 0.985534 0.0152438
0.0152438 0.985534 0.0152438
0.0152438 0.985534 0.0152438
0.0152438 0.985534 0.0152438
0.0152438 0.985534 0.0152438
0.265736 0.988846 0.018555
0.440024 0.99115 0.0208438
0.566293 0.992813 0.0225223
0.672038 0.994217 0.0239261
0.766033 0.995468 0.0251621
0.852338 0.996597 0.0263066
0.933364 0.997681 0.0273899
0.998535 0.998535 0.0282444
0.998535 0.998535 0.0282444
0.998535 0.998535 0.0282444
0.998535 0.998535 0.0282444
0.998535 0.998535 0.0282444
0.998535 0.998535 0.0282444
0.998535 0.998535 0.0282444
0.998535 0.998535 0.0282444
0.998535 0.998535 0.0282444
0.0152438 0.985534 0.0152438
0.0152438 0.985534 0.0152438
0.0152438 0.985534 0.0152438
0.0152438 0.985534 0.0152438
0.0152438 0.985534 0.0152438
0.0152438 0.985534 0.0152438
0.0152438 0.985534 0.0152438
0.0152438 0.985534 0.0152438
0.0152438 0.985534 0.0152438
0.0152438 0.985534 0.0152438
0.0152438 0.985534 0.0152438
0.0152438 0.985534 0.0152438
0.0152438 0.985534 0.0152438
0.0152438 0.985534 0.0152438
0.0152438 0.985534 0.0152438
0.0152438 0.985534 0.0152438
0.0152438 0.985534 0.0152438
0.105608 0.986725 0.0164187
0.361761 0.990112 0.0198062
0.508675 0.992065 0.0217746
0.624872 0.993591 0.0233005
0.72546 0.994919 0.0246281
0.816556 0.996124 0.0258335
0.901198 0.997238 0.0269474
0.981369 0.998306 0.0280156
0.998535 0.998535 0.0282444
0.998535 0.998535 0.0282444
0.998535 0.998535 0.0282444
0.998535 0.998535 0.0282444
0.998535 0.998535 0.0282444
0.998535 0.998535 0.0282444
0.998535 0.998535 0.0282444
0.998535 0.998535 0.0282444
0.0152438 0.985534 0.0152438
0.0152438 0.985534 0.0152438
0.0152438 0.985534 0.0152438
0.0152438 0.985534 0.0152438
0.0152438 0.985534 0.0152438
0.0152438 0.985534 0.0152438
0.0152438 0.985534 0.0152438
0.0152438 0.985534 0.0152438
0.0152438 0.985534 0.0152438
