usr/bin/LUTs/HDR-to-SDR.cube
TITLE "Generated by Resolve"
LUT_3D_SIZE 9
0 0 0
0.124102 0 0
0.241047 0 0
0.432853 0 0
0.718868 0 0
0.92311 0 0
0.92311 0 0
0.92311 0 0
0.92311 0 0
0 0.0926375 0
0.0883803 0.0827344 0
0.223117 0.0688182 0
0.421103 0.0231327 0
0.710048 0 0
0.92311 0 0
0.92311 0 0
0.92311 0 0
0.92311 0 0
0 0.197436 0
0.0112154 0.190906 0
0.191943 0.183658 0
0.412116 0.159457 0
0.704097 0.0737621 0
0.92311 0 0
0.92311 0 0
0.92311 0 0
0.92311 0 0
0 0.369696 0
0 0.365606 0
0.0272374 0.360418 0
0.361929 0.349142 0
0.691768 0.31313 0.00582895
0.943923 0.256489 0.0114137
0.935409 0.157336 0.00518807
0.92311 0 0
0.92311 0 0
0.000213626 0.626184 0.000213626
0.000198367 0.623713 0.000198367
0.00015259 0.620371 0.00015259
0.113603 0.612741 0.000747692
0.61529 0.595865 0.00643931
0.916487 0.568322 0.016495
0.970764 0.529091 0.0193637
0.965545 0.475685 0.0190738
0.9579 0.400946 0.0177462
0.00946059 0.850416 0.00946059
0.0093843 0.848676 0.0093843
0.00927749 0.846204 0.00927749
0.00898756 0.839521 0.00898756
0.466194 0.828885 0.0143282
0.836606 0.811383 0.0183261
0.988846 0.785916 0.0212406
0.986999 0.751171 0.0205692
0.984405 0.706203 0.0199283
0.0152438 0.985534 0.0152438
0.0152438 0.985534 0.0152438
0.0152438 0.985534 0.0152438
0.0152438 0.985534 0.0152438
0.11989 0.986923 0.0166171
0.713817 0.994766 0.0244755
0.998535 0.998535 0.0282444
0.997772 0.980835 0.027512
0.996338 0.947417 0.0261692
0.0152438 0.985534 0.0152438
0.0152438 0.985534 0.0152438
0.0152438 0.985534 0.0152438
0.0152438 0.985534 0.0152438
0.0152438 0.985534 0.0152438
0.50724 0.992035 0.0217441
0.914641 0.997421 0.0271305
0.998535 0.998535 0.0282444
0.998535 0.998535 0.0282444
0.0152438 0.985534 0.0152438
0.0152438 0.985534 0.0152438
0.0152438 0.985534 0.0152438
0.0152438 0.985534 0.0152438
0.0152438 0.985534 0.0152438
0.0152438 0.985534 0.0152438
0.732418 0.99501 0.0247196
0.998535 0.998535 0.0282444
0.998535 0.998535 0.0282444
0 0 0.0868238
0.124346 0 0.0870222
0.242054 0 0.0856184
0.433463 0 0.0835737
0.719249 0 0.0747692
0.924041 0 0.0573739
0.923613 0 0.0308385
0.923171 0 0.00401312
0.92311 0 0
0 0.0925002 0.0832685
0.0823682 0.082536 0.082536
0.219883 0.0690623 0.0822766
0.420493 0.0228122 0.0771344
0.710216 0 0.0643778
0.923873 0 0.0470741
0.923461 0 0.0210422
0.92311 0 0
0.92311 0 0
0 0.197604 0.0749065
0.00846876 0.190936 0.0730907
0.188449 0.183749 0.072755
0.409339 0.159808 0.0730297
0.703319 0.0733349 0.0562142
0.923644 0 0.0328985
0.923278 0 0.00999466
0.92311 0 0
0.92311 0 0
0 0.369635 0.0429541
0 0.36553 0.0407568
0.0196994 0.360235 0.0383001
0.359747 0.348974 0.0350347
0.690242 0.313146 0.0301518
0.943893 0.256138 0.0125429
0.935363 0.156725 0.00514229
0.92311 0 0
0.92311 0 0
0.000213626 0.626062 0.000213626
0.000198367 0.62359 0.000198367
0.00015259 0.620249 0.00015259
0.107118 0.612528 0.000656138
0.61384 0.595605 0.00640879
0.915541 0.568048 0.0164492
0.970748 0.528847 0.0193637
0.96553 0.475441 0.0190738
0.95787 0.400702 0.0177462
0.00944533 0.850278 0.00944533
0.00936904 0.848554 0.00936904
0.00927749 0.846082 0.00927749
0.00898756 0.839399 0.00898756
0.464271 0.828733 0.0142977
0.835523 0.811246 0.0183108
0.98883 0.785794 0.0212406
0.986999 0.751049 0.0205692
0.98439 0.705959 0.0199283
0.0152438 0.985534 0.0152438
0.0152438 0.985534 0.0152438
0.0152438 0.985534 0.0152438
0.0152438 0.985534 0.0152438
0.113054 0.986831 0.0165255
0.712612 0.994751 0.0244602
0.998535 0.998535 0.0282444
0.997772 0.980713 0.027512
0.996323 0.947295 0.0261692
0.0152438 0.985534 0.0152438
0.0152438 0.985534 0.0152438
0.0152438 0.985534 0.0152438
0.0152438 0.985534 0.0152438
0.0152438 0.985534 0.0152438
0.50544 0.99202 0.0217288
0.91368 0.997406 0.0271153
0.998535 0.998535 0.0282444
0.998535 0.998535 0.0282444
0.0152438 0.985534 0.0152438
0.0152438 0.985534 0.0152438
0.0152438 0.985534 0.0152438
0.0152438 0.985534 0.0152438
0.0152438 0.985534 0.0152438
0.0152438 0.985534 0.0152438
0.731228 0.994995 0.0247044
0.998535 0.998535 0.0282444
0.998535 0.998535 0.0282444
0 0 0.187259
0.118212 0 0.18822
0.243336 0 0.188251
0.436728 0 0.185428
0.721218 0 0.18146
0.926863 0 0.173922
0.92639 0 0.158556
0.925811 0 0.138384
0.925124 0 0.110338
0 0.0919814 0.186984
0.0737011 0.0819867 0.186816
0.220233 0.0671092 0.186511
0.422721 0.0213169 0.181781
0.7122 0 0.175738
0.92668 0 0.168063
0.926207 0 0.152255
0.925643 0 0.131395
0.924941 0 0.102205
0 0.197482 0.183978
0.00433356 0.190814 0.182757
0.183322 0.183459 0.183459
0.40708 0.160204 0.182849
0.703838 0.0728466 0.173495
0.926436 0 0.159823
0.925963 0 0.14342
0.925399 0 0.121431
0.924681 0 0.090425
0 0.36997 0.169558
0 0.365881 0.1682
0.0133211 0.360586 0.166796
0.357244 0.349447 0.166506
0.686885 0.314321 0.166857
0.943557 0.257282 0.154788
0.935943 0.157229 0.128985
0.924697 0 0.0914626
0.92398 0 0.0535897
0.000640879 0.626474 0.114199
0.000549325 0.624002 0.112535
0.000442512 0.620645 0.110262
0.0984665 0.612757 0.105211
0.612299 0.595712 0.0950942
0.914 0.568322 0.0826123
0.970291 0.528984 0.0576486
0.965423 0.47512 0.0236057
0.957839 0.400336 0.017731
0.00944533 0.850156 0.00944533
0.00936904 0.848432 0.00936904
0.00926223 0.84596 0.00926223
0.00898756 0.839277 0.00898756
0.461616 0.828443 0.0142519
0.834073 0.811109 0.0182803
0.988815 0.78555 0.0212406
0.986984 0.750805 0.0205692
0.98439 0.705821 0.0199283
0.0152438 0.985534 0.0152438
0.0152438 0.985534 0.0152438
0.0152438 0.985534 0.0152438
0.0152438 0.985534 0.0152438
0.103212 0.986694 0.0163882
0.710811 0.994736 0.0244297
0.998535 0.998535 0.0282444
0.997772 0.980591 0.0274968
0.996323 0.947173 0.0261692
0.0152438 0.985534 0.0152438
0.0152438 0.985534 0.0152438
0.0152438 0.985534 0.0152438
0.0152438 0.985534 0.0152438
0.0152438 0.985534 0.0152438
0.503029 0.991989 0.0216983
0.912352 0.997391 0.0271
0.998535 0.998535 0.0282444
0.998535 0.998535 0.0282444
0.0152438 0.985534 0.0152438
0.0152438 0.985534 0.0152438
0.0152438 0.985534 0.0152438
0.0152438 0.985534 0.0152438
0.0152438 0.985534 0.0152438
0.0152438 0.985534 0.0152438
0.729549 0.99498 0.0246891
0.998535 0.998535 0.0282444
0.998535 0.998535 0.0282444
0 0 0.352132
0.0981613 0 0.35317
0.232593 0 0.354116
0.438575 0 0.354284
0.72781 0 0.34963
0.935088 0 0.345266
0.934569 0 0.336858
0.933913 0 0.326238
0.93312 0 0.313069
0 0.0902113 0.353872
0.046067 0.079469 0.353674
0.207965 0.0643015 0.354376
0.42446 0.0160067 0.352468
0.718883 0 0.346334
0.93489 0 0.342
0.934371 0 0.333471
0.933715 0 0.32285
0.932921 0 0.309468
0 0.196857 0.354025
0 0.189792 0.35314
0.16849 0.182467 0.35433
0.408164 0.156985 0.353826
0.708247 0.0682383 0.345602
0.934615 0 0.337438
0.934081 0 0.328801
0.93341 0 0.318074
0.932647 0 0.304585
0 0.370016 0.349294
0 0.365927 0.348516
0 0.360235 0.347448
0.349187 0.349279 0.349279
0.68307 0.314839 0.348363
0.945708 0.257359 0.342596
0.939925 0.156146 0.32665
0.932662 0 0.304936
0.931868 0 0.290883
0.00170901 0.627085 0.328008
0.0016022 0.624598 0.327306
0.00144961 0.621256 0.326207
0.0715953 0.612894 0.324239
0.608301 0.59646 0.324224
0.907759 0.570275 0.327855
0.966644 0.531319 0.318502
0.961776 0.477806 0.30338
0.955322 0.402625 0.28304
0.0110323 0.85127 0.290669
0.010956 0.849546 0.289876
0.0108339 0.847059 0.288701
0.010544 0.840482 0.285573
0.455817 0.829389 0.283589
0.831708 0.812161 0.278019
0.989685 0.786542 0.269993
0.987488 0.751766 0.254444
0.984314 0.706661 0.234318
0.0164645 0.986755 0.229053
0.0164645 0.986755 0.228107
0.0164492 0.98674 0.226795
0.016434 0.986725 0.223102
0.075288 0.987442 0.214588
0.70721 0.995727 0.210315
0.999512 0.999512 0.198093
0.998596 0.981064 0.176135
0.996994 0.947478 0.145403
0.0157778 0.986068 0.108614
0.0157626 0.986053 0.106828
0.0157473 0.986038 0.104326
0.0157015 0.986007 0.0975357
0.0155947 0.985901 0.0794385
0.496437 0.992126 0.0626841
0.908827 0.997421 0.0405127
0.998535 0.998535 0.0282444
0.998535 0.998535 0.0282444
0.0152438 0.985534 0.0152438
0.0152438 0.985534 0.0152438
0.0152438 0.985534 0.0152438
0.0152438 0.985534 0.0152438
0.0152438 0.985534 0.0152438
0.0152438 0.985534 0.0152438
0.724987 0.994919 0.0246281
0.998535 0.998535 0.0282444
0.998535 0.998535 0.0282444
0 0 0.597757
0.0340124 0 0.598169
0.201343 0 0.599924
0.422553 0 0.601526
0.729427 0 0.601801
0.952224 0 0.597986
0.951965 0 0.592905
0.951614 0 0.586618
0.951202 0 0.579004
0 0.0845808 0.600519
0 0.0724498 0.599649
0.172396 0.0565652 0.600946
0.407401 0.0110933 0.60058
0.720256 0 0.599832
0.952117 0 0.596048
0.951858 0 0.590967
0.951507 0 0.584695
0.95108 0 0.576959
0 0.193942 0.602579
0 0.186892 0.601923
0.12459 0.178714 0.602869
0.390158 0.152789 0.60383
0.710277 0.0573281 0.600153
0.95198 0 0.593271
0.951705 0 0.58819
0.951354 0 0.581903
0.950927 0 0.574182
0 0.368994 0.602808
0 0.364782 0.602274
0 0.359075 0.601556
0.327077 0.347799 0.604013
0.684535 0.310109 0.60325
0.952193 0.252125 0.596902
0.955764 0.148165 0.587198
0.950927 0 0.574304
0.9505 0 0.566445
0.00315862 0.627131 0.595621
0.0030518 0.624659 0.595163
0.00291447 0.621302 0.594537
0.00250248 0.612024 0.592706
0.596078 0.596262 0.596262
0.898436 0.571252 0.596597
0.967285 0.53228 0.590234
0.964187 0.478126 0.580072
0.960464 0.402029 0.567239
0.0126497 0.851942 0.580575
0.0125582 0.85008 0.580148
0.0124514 0.847608 0.579553
0.0121767 0.841047 0.577859
0.438621 0.829847 0.579217
0.823636 0.81239 0.578897
0.988602 0.787793 0.579583
0.985229 0.753292 0.572366
0.98088 0.708583 0.56257
0.0183261 0.988632 0.555581
0.0183261 0.988632 0.555215
0.0183261 0.988617 0.55462
0.0183108 0.988617 0.553079
0.0182956 0.988586 0.549386
0.697398 0.997543 0.553475
1 1 0.551553
1 0.981598 0.543633
0.9991 0.948714 0.533364
0.0180972 0.988388 0.515557
0.0180972 0.988388 0.515068
0.0180819 0.988388 0.514473
0.0180819 0.988373 0.51281
0.0180514 0.988357 0.508766
0.481575 0.994446 0.509651
0.902617 0.999924 0.508782
1 1 0.502235
1 1 0.492348
0.017792 0.988083 0.461463
0.0177768 0.988083 0.46099
0.0177768 0.988083 0.460273
0.0177615 0.988067 0.458488
0.0177462 0.988037 0.453971
0.0177005 0.988006 0.447898
0.716014 0.997192 0.449851
1 1 0.444694
1 1 0.433494
0 0 0.812421
0 0 0.81207
0.153002 0 0.81416
0.399298 0 0.816464
0.717617 0 0.818296
0.959274 0 0.81799
0.959228 0 0.814267
0.959152 0 0.809842
0.95906 0 0.804425
0 0.0761578 0.815259
0 0.0632792 0.814466
0.114946 0.0460059 0.815076
0.382712 0.00706493 0.815503
0.708003 0 0.816861
0.959258 0 0.816556
0.959197 0 0.812955
0.959136 0 0.808515
0.95903 0 0.802991
0 0.189487 0.818189
0 0.182315 0.817655
0.0445258 0.17258 0.817624
0.36408 0.146624 0.819623
0.697398 0.047013 0.817258
0.959228 0 0.814633
0.959167 0 0.81091
0.959091 0 0.80647
0.958984 0 0.800946
0 0.366888 0.820539
0 0.362814 0.820127
0 0.356985 0.819532
0.295155 0.344915 0.821881
0.671168 0.30695 0.822782
0.952651 0.245197 0.819989
0.965255 0.139162 0.811902
0.958999 0 0.80119
0.958892 0 0.795651
0.00434882 0.626429 0.81854
0.00424201 0.623941 0.818204
0.00410468 0.6206 0.8177
0.00369268 0.611322 0.816342
0.579416 0.595178 0.820569
0.898543 0.567391 0.819837
0.979751 0.528191 0.814511
0.977691 0.473365 0.807691
0.974716 0.396262 0.798886
0.013901 0.851774 0.81091
0.0138247 0.85005 0.810605
0.0137179 0.847562 0.810132
0.0134279 0.840879 0.808896
0.414191 0.829343 0.810987
0.812055 0.812222 0.8121
0.987243 0.788739 0.810452
0.985214 0.753933 0.80351
0.983063 0.708736 0.79501
0.0196841 0.98999 0.795621
0.0196841 0.98999 0.795377
0.0196841 0.98999 0.795026
0.0196841 0.989975 0.793957
0.0196689 0.98996 0.791455
0.683192 0.998718 0.796887
1 1 0.797177
1 0.981338 0.791684
0.999878 0.948913 0.784955
0.0195468 0.989837 0.769055
0.0195468 0.989837 0.768811
0.0195468 0.989837 0.768338
0.0195315 0.989822 0.767391
0.0195163 0.989807 0.764767
0.459525 0.995621 0.767132
0.89247 1 0.768811
1 1 0.76527
1 1 0.759075
0.0193484 0.989654 0.735103
0.0193484 0.989654 0.734874
0.0193484 0.989639 0.734386
0.0193484 0.989639 0.733318
0.0193179 0.989624 0.730587
0.0193027 0.989609 0.727001
0.702373 0.998611 0.731746
1 1 0.730358
1 1 0.723918
0 0 0.947753
0 0 0.947753
0.0740673 0 0.949035
0.368872 0 0.952926
0.701366 0 0.957336
0.960754 0 0.960769
0.960754 0 0.960769
0.960754 0 0.960769
0.960754 0 0.960769
0 0.0645609 0.951476
0 0.0505837 0.950881
0.0139773 0.0322271 0.95053
0.350271 0.00137331 0.952819
0.691646 0 0.957198
0.960754 0 0.960769
0.960754 0 0.960769
0.960754 0 0.960769
0.960754 0 0.960769
0 0.183352 0.956558
0 0.175921 0.956252
0 0.165286 0.955795
0.329702 0.13843 0.959014
0.680003 0.0343481 0.95906
0.957031 0 0.960723
0.960754 0 0.960769
0.960754 0 0.960769
0.960754 0 0.960769
0 0.363745 0.964279
0 0.359548 0.964096
0 0.353735 0.963851
0.251514 0.340948 0.966583
0.653071 0.302602 0.970047
0.941543 0.239628 0.971038
0.966735 0.130404 0.966751
0.960754 0 0.960769
0.960754 0 0.960769
0.00514229 0.624964 0.975448
0.00503548 0.622492 0.975341
0.00489815 0.61915 0.975204
0.00450141 0.609751 0.974807
0.5579 0.593317 0.981109
0.886488 0.565133 0.984085
0.983627 0.525124 0.983627
0.981277 0.470176 0.981277
0.977966 0.392599 0.977966
0.0148165 0.851041 0.985107
0.0147555 0.849317 0.985046
0.0146487 0.84683 0.984939
0.0143587 0.840162 0.984649
0.382239 0.828061 0.9888
0.797559 0.81117 0.993347
0.994781 0.786084 0.994781
0.993286 0.750942 0.993286
0.991348 0.705531 0.991348
0.0208133 0.991104 0.991104
0.0208133 0.991104 0.991104
0.0208133 0.991104 0.991104
0.0208133 0.991104 0.991104
0.0208133 0.991104 0.991104
0.665263 0.999634 0.999634
1 1 1
1 0.980835 1
1 0.948577 0.996277
0.0207675 0.991058 0.983841
0.0207675 0.991058 0.983597
0.0207675 0.991058 0.983368
0.0207675 0.991058 0.982528
0.0207523 0.991043 0.980499
0.430991 0.99646 0.983307
0.879667 1 0.985107
1 1 0.982681
1 1 0.978668
0.0206302 0.990921 0.958236
0.0206302 0.990921 0.958114
0.0206302 0.990921 0.957763
0.0206302 0.990921 0.956924
0.0206149 0.990906 0.954894
0.0205997 0.99089 0.95227
0.685176 0.999664 0.957855
1 1 0.958129
1 1 0.953368
0 0 0.947753
0 0 0.947753
0 0 0.947753
0.327581 0 0.952392
0.680232 0 0.957061
0.958587 0 0.960739
0.960754 0 0.960769
0.960754 0 0.960769
0.960754 0 0.960769
0 0.0484779 0.95079
0 0.0346227 0.95021
0 0.0158083 0.949401
0.306584 0 0.952102
0.670161 0 0.956924
0.951629 0 0.960647
0.960754 0 0.960769
0.960754 0 0.960769
0.960754 0 0.960769
0 0.174685 0.956191
0 0.167025 0.955871
0 0.156008 0.955398
0.281834 0.127031 0.957931
0.657465 0.0180972 0.958083
0.942031 0 0.960525
0.960754 0 0.960769
0.960754 0 0.960769
0.960754 0 0.960769
0 0.358923 0.96408
0 0.354589 0.963897
0 0.348775 0.963638
0.186358 0.33489 0.965499
0.629541 0.296361 0.969482
0.925628 0.23212 0.97052
0.966232 0.118639 0.966247
0.960754 0 0.960769
0.960754 0 0.960769
0.00502022 0.622126 0.975326
0.00491341 0.619654 0.975219
0.00477607 0.61619 0.975082
0.00437934 0.606897 0.974685
0.529442 0.589853 0.980606
0.869413 0.5617 0.983719
0.983474 0.52166 0.983474
0.981109 0.466224 0.981109
0.977768 0.3879 0.977768
0.0147402 0.848936 0.985031
0.0146639 0.847211 0.984955
0.0145571 0.844739 0.984848
0.0142672 0.838056 0.984558
0.337972 0.825391 0.988128
0.778134 0.808698 0.992996
0.99469 0.783734 0.99469
0.993179 0.748592 0.993179
0.991226 0.702937 0.991226
0.0208133 0.991104 0.991104
0.0208133 0.991104 0.991104
0.0208133 0.991104 0.991104
0.0208133 0.991104 0.991104
0.0208133 0.991104 0.991104
0.641138 0.999313 0.999313
0.990845 1 1
1 0.979217 1
1 0.9467 1
0.0208133 0.991104 0.991104
0.0208133 0.991104 0.991104
0.0208133 0.991104 0.991104
0.0208133 0.991104 0.991104
0.0208133 0.991104 0.991104
0.391714 0.996017 0.996017
0.862242 1 1
1 1 1
1 1 1
0.0208133 0.991104 0.991104
0.0208133 0.991104 0.991104
0.0208133 0.991104 0.991104
0.0208133 0.991104 0.991104
0.0208133 0.991104 0.991104
0.0208133 0.991104 0.991104
0.662135 0.999603 0.999603
1 1 1
1 1 1
0 0 0.947753
0 0 0.947753
0 0 0.947753
0.26949 0 0.951629
0.653468 0 0.956695
0.94023 0 0.960494
0.960754 0 0.960769
0.960754 0 0.960769
0.960754 0 0.960769
0 0.0287938 0.94995
0 0.0150607 0.949371
0 0.00538643 0.948547
0.244404 0 0.951293
0.642908 0 0.956558
0.933043 0 0.960403
0.960754 0 0.960769
0.960754 0 0.960769
0.960754 0 0.960769
0 0.163684 0.955718
0 0.155505 0.955367
0 0.143999 0.954879
0.211719 0.111879 0.956405
0.628672 0.00679026 0.956878
0.923201 0 0.960266
0.960754 0 0.960769
0.960754 0 0.960769
0.960754 0 0.960769
0 0.352865 0.963821
0 0.348531 0.963638
0 0.342596 0.963378
0.0666514 0.326879 0.963638
0.599344 0.288655 0.96878
0.905898 0.222583 0.969863
0.965576 0.103059 0.965576
0.960754 0 0.960769
0.960754 0 0.960769
0.00486763 0.61854 0.975174
0.00476081 0.616053 0.975067
0.00462348 0.612589 0.974929
0.00421149 0.603189 0.974517
0.492195 0.585657 0.97995
0.848005 0.557458 0.983276
0.983291 0.517327 0.983291
0.980896 0.461387 0.980896
0.977523 0.382208 0.977523
0.0146334 0.846464 0.984924
0.0145418 0.844617 0.984833
0.014435 0.84213 0.984726
0.0141604 0.835447 0.984451
0.274723 0.821958 0.987182
0.753536 0.805646 0.992554
0.994568 0.780896 0.994568
0.993057 0.745632 0.993057
0.991089 0.699718 0.991089
0.0208133 0.991104 0.991104
0.0208133 0.991104 0.991104
0.0208133 0.991104 0.991104
0.0208133 0.991104 0.991104
0.0208133 0.991104 0.991104
0.610407 0.998901 0.998901
0.97464 1 1
1 0.977279 1
1 0.94435 1
0.0208133 0.991104 0.991104
0.0208133 0.991104 0.991104
0.0208133 0.991104 0.991104
0.0208133 0.991104 0.991104
0.0208133 0.991104 0.991104
0.337209 0.9953 0.9953
0.840269 1 1
1 1 1
1 1 1
0.0208133 0.991104 0.991104
0.0208133 0.991104 0.991104
0.0208133 0.991104 0.991104
0.0208133 0.991104 0.991104
0.0208133 0.991104 0.991104
0.0208133 0.991104 0.991104
0.632486 0.999191 0.999191
1 1 1
1 1 1
